( Made using CamBam - http://www.cambam.co.uk )
( basic_midi_cv_panel 1/23/2016 9:25:11 PM )
( T3 : 3.175 )
G21 G90 G64 G40
G0 Z3.0
( T3 : 3.175 )
T3 M6
( holes )
G17
M3 S1000
G0 X8.414 Y3.1042
G0 Z3.0
G0 X8.4265 Y3.1042
G1 F1000.0 Z0.0
G2 F2000.0 X8.4077 Y3.0934 Z-0.0333 I-0.0125 J0.0
G2 Y3.115 Z-0.0667 I0.0062 J0.0108
G2 X8.4265 Y3.1042 Z-0.1 I0.0062 J-0.0108
G2 X8.4077 Y3.0934 Z-0.1333 I-0.0125 J0.0
G2 Y3.115 Z-0.1667 I0.0062 J0.0108
G2 X8.4265 Y3.1042 Z-0.2 I0.0062 J-0.0108
G2 X8.4077 Y3.0934 Z-0.2333 I-0.0125 J0.0
G2 Y3.115 Z-0.2667 I0.0062 J0.0108
G2 X8.4265 Y3.1042 Z-0.3 I0.0062 J-0.0108
G2 X8.4077 Y3.0934 Z-0.3333 I-0.0125 J0.0
G2 Y3.115 Z-0.3667 I0.0062 J0.0108
G2 X8.4265 Y3.1042 Z-0.4 I0.0062 J-0.0108
G2 X8.4077 Y3.0934 Z-0.4333 I-0.0125 J0.0
G2 Y3.115 Z-0.4667 I0.0062 J0.0108
G2 X8.4265 Y3.1042 Z-0.5 I0.0062 J-0.0108
G2 X8.4077 Y3.0934 Z-0.5333 I-0.0125 J0.0
G2 Y3.115 Z-0.5667 I0.0062 J0.0108
G2 X8.4265 Y3.1042 Z-0.6 I0.0062 J-0.0108
G2 X8.4077 Y3.0934 Z-0.6333 I-0.0125 J0.0
G2 Y3.115 Z-0.6667 I0.0062 J0.0108
G2 X8.4265 Y3.1042 Z-0.7 I0.0062 J-0.0108
G2 X8.4077 Y3.0934 Z-0.7333 I-0.0125 J0.0
G2 Y3.115 Z-0.7667 I0.0062 J0.0108
G2 X8.4265 Y3.1042 Z-0.8 I0.0062 J-0.0108
G2 X8.4077 Y3.0934 Z-0.8333 I-0.0125 J0.0
G2 Y3.115 Z-0.8667 I0.0062 J0.0108
G2 X8.4265 Y3.1042 Z-0.9 I0.0062 J-0.0108
G2 X8.4077 Y3.0934 Z-0.9333 I-0.0125 J0.0
G2 Y3.115 Z-0.9667 I0.0062 J0.0108
G2 X8.4265 Y3.1042 Z-1.0 I0.0062 J-0.0108
G2 X8.4077 Y3.0934 Z-1.0333 I-0.0125 J0.0
G2 Y3.115 Z-1.0667 I0.0062 J0.0108
G2 X8.4265 Y3.1042 Z-1.1 I0.0062 J-0.0108
G2 X8.4077 Y3.0934 Z-1.1333 I-0.0125 J0.0
G2 Y3.115 Z-1.1667 I0.0062 J0.0108
G2 X8.4265 Y3.1042 Z-1.2 I0.0062 J-0.0108
G2 X8.4077 Y3.0934 Z-1.2333 I-0.0125 J0.0
G2 Y3.115 Z-1.2667 I0.0062 J0.0108
G2 X8.4265 Y3.1042 Z-1.3 I0.0062 J-0.0108
G2 X8.4077 Y3.0934 Z-1.3333 I-0.0125 J0.0
G2 Y3.115 Z-1.3667 I0.0062 J0.0108
G2 X8.4265 Y3.1042 Z-1.4 I0.0063 J-0.0108
G2 X8.4077 Y3.0934 Z-1.4333 I-0.0125 J0.0
G2 Y3.115 Z-1.4667 I0.0062 J0.0108
G2 X8.4265 Y3.1042 Z-1.5 I0.0063 J-0.0108
G2 X8.4077 Y3.0934 Z-1.5333 I-0.0125 J0.0
G2 Y3.115 Z-1.5667 I0.0062 J0.0108
G2 X8.4265 Y3.1042 Z-1.6 I0.0063 J-0.0108
G2 X8.4077 Y3.0934 Z-1.6333 I-0.0125 J0.0
G2 Y3.115 Z-1.6667 I0.0062 J0.0108
G2 X8.4265 Y3.1042 Z-1.7 I0.0063 J-0.0108
G2 X8.4077 Y3.0934 Z-1.7333 I-0.0125 J0.0
G2 Y3.115 Z-1.7667 I0.0062 J0.0108
G2 X8.4265 Y3.1042 Z-1.8 I0.0063 J-0.0108
G2 X8.4077 Y3.0934 Z-1.8333 I-0.0125 J0.0
G2 Y3.115 Z-1.8667 I0.0062 J0.0108
G2 X8.4265 Y3.1042 Z-1.9 I0.0063 J-0.0108
G2 X8.4077 Y3.0934 Z-1.9333 I-0.0125 J0.0
G2 Y3.115 Z-1.9667 I0.0062 J0.0108
G2 X8.4265 Y3.1042 Z-2.0 I0.0063 J-0.0108
G2 X8.4077 Y3.0934 Z-2.0333 I-0.0125 J0.0
G2 Y3.115 Z-2.0667 I0.0062 J0.0108
G2 X8.4265 Y3.1042 Z-2.1 I0.0063 J-0.0108
G2 X8.4077 Y3.0934 Z-2.1333 I-0.0125 J0.0
G2 Y3.115 Z-2.1667 I0.0062 J0.0108
G2 X8.4265 Y3.1042 Z-2.2 I0.0062 J-0.0108
G2 X8.4077 Y3.0934 Z-2.2333 I-0.0125 J0.0
G2 Y3.115 Z-2.2667 I0.0062 J0.0108
G2 X8.4265 Y3.1042 Z-2.3 I0.0062 J-0.0108
G2 X8.4077 Y3.0934 Z-2.3333 I-0.0125 J0.0
G2 Y3.115 Z-2.3667 I0.0062 J0.0108
G2 X8.4265 Y3.1042 Z-2.4 I0.0062 J-0.0108
G2 X8.4077 Y3.0934 Z-2.4333 I-0.0125 J0.0
G2 Y3.115 Z-2.4667 I0.0062 J0.0108
G2 X8.4265 Y3.1042 Z-2.5 I0.0062 J-0.0108
G2 X8.4077 Y3.0934 Z-2.5333 I-0.0125 J0.0
G2 Y3.115 Z-2.5667 I0.0063 J0.0108
G2 X8.4265 Y3.1042 Z-2.6 I0.0062 J-0.0108
G2 X8.4077 Y3.0934 Z-2.6333 I-0.0125 J0.0
G2 Y3.115 Z-2.6667 I0.0063 J0.0108
G2 X8.4265 Y3.1042 Z-2.7 I0.0062 J-0.0108
G2 X8.4077 Y3.0934 Z-2.7333 I-0.0125 J0.0
G2 Y3.115 Z-2.7667 I0.0063 J0.0108
G2 X8.4265 Y3.1042 Z-2.8 I0.0062 J-0.0108
G2 X8.4077 Y3.0934 Z-2.8333 I-0.0125 J0.0
G2 Y3.115 Z-2.8667 I0.0063 J0.0108
G2 X8.4265 Y3.1042 Z-2.9 I0.0062 J-0.0108
G2 X8.4077 Y3.0934 Z-2.9333 I-0.0125 J0.0
G2 Y3.115 Z-2.9667 I0.0063 J0.0108
G2 X8.4265 Y3.1042 Z-3.0 I0.0062 J-0.0108
G2 X8.4077 Y3.0934 Z-3.0333 I-0.0125 J0.0
G2 Y3.115 Z-3.0667 I0.0063 J0.0108
G2 X8.4265 Y3.1042 Z-3.1 I0.0062 J-0.0108
G2 X8.4077 Y3.0934 Z-3.1333 I-0.0125 J0.0
G2 Y3.115 Z-3.1667 I0.0063 J0.0108
G2 X8.4265 Y3.1042 Z-3.2 I0.0062 J-0.0108
G2 X8.4077 Y3.0934 I-0.0125 J0.0
G2 Y3.115 I0.0063 J0.0108
G2 X8.4265 Y3.1042 I0.0062 J-0.0108
G0 Z3.0
G0 X20.7965 Y22.7917
G1 F1000.0 Z0.0
G2 F2000.0 X20.7777 Y22.7809 Z-0.0333 I-0.0125 J0.0
G2 Y22.8026 Z-0.0667 I0.0062 J0.0108
G2 X20.7965 Y22.7917 Z-0.1 I0.0063 J-0.0108
G2 X20.7777 Y22.7809 Z-0.1333 I-0.0125 J0.0
G2 Y22.8026 Z-0.1667 I0.0062 J0.0108
G2 X20.7965 Y22.7917 Z-0.2 I0.0063 J-0.0108
G2 X20.7777 Y22.7809 Z-0.2333 I-0.0125 J0.0
G2 Y22.8026 Z-0.2667 I0.0062 J0.0108
G2 X20.7965 Y22.7917 Z-0.3 I0.0063 J-0.0108
G2 X20.7777 Y22.7809 Z-0.3333 I-0.0125 J0.0
G2 Y22.8026 Z-0.3667 I0.0062 J0.0108
G2 X20.7965 Y22.7917 Z-0.4 I0.0063 J-0.0108
G2 X20.7777 Y22.7809 Z-0.4333 I-0.0125 J0.0
G2 Y22.8026 Z-0.4667 I0.0062 J0.0108
G2 X20.7965 Y22.7917 Z-0.5 I0.0063 J-0.0108
G2 X20.7777 Y22.7809 Z-0.5333 I-0.0125 J0.0
G2 Y22.8026 Z-0.5667 I0.0062 J0.0108
G2 X20.7965 Y22.7917 Z-0.6 I0.0063 J-0.0108
G2 X20.7777 Y22.7809 Z-0.6333 I-0.0125 J0.0
G2 Y22.8026 Z-0.6667 I0.0062 J0.0108
G2 X20.7965 Y22.7917 Z-0.7 I0.0063 J-0.0108
G2 X20.7777 Y22.7809 Z-0.7333 I-0.0125 J0.0
G2 Y22.8026 Z-0.7667 I0.0062 J0.0108
G2 X20.7965 Y22.7917 Z-0.8 I0.0063 J-0.0108
G2 X20.7777 Y22.7809 Z-0.8333 I-0.0125 J0.0
G2 Y22.8026 Z-0.8667 I0.0062 J0.0108
G2 X20.7965 Y22.7917 Z-0.9 I0.0063 J-0.0108
G2 X20.7777 Y22.7809 Z-0.9333 I-0.0125 J0.0
G2 Y22.8026 Z-0.9667 I0.0062 J0.0108
G2 X20.7965 Y22.7917 Z-1.0 I0.0063 J-0.0108
G2 X20.7777 Y22.7809 Z-1.0333 I-0.0125 J0.0
G2 Y22.8026 Z-1.0667 I0.0062 J0.0108
G2 X20.7965 Y22.7917 Z-1.1 I0.0063 J-0.0108
G2 X20.7777 Y22.7809 Z-1.1333 I-0.0125 J0.0
G2 Y22.8026 Z-1.1667 I0.0062 J0.0108
G2 X20.7965 Y22.7917 Z-1.2 I0.0063 J-0.0108
G2 X20.7777 Y22.7809 Z-1.2333 I-0.0125 J0.0
G2 Y22.8026 Z-1.2667 I0.0062 J0.0108
G2 X20.7965 Y22.7917 Z-1.3 I0.0063 J-0.0108
G2 X20.7777 Y22.7809 Z-1.3333 I-0.0125 J0.0
G2 Y22.8026 Z-1.3667 I0.0062 J0.0108
G2 X20.7965 Y22.7917 Z-1.4 I0.0063 J-0.0108
G2 X20.7777 Y22.7809 Z-1.4333 I-0.0125 J0.0
G2 Y22.8026 Z-1.4667 I0.0062 J0.0108
G2 X20.7965 Y22.7917 Z-1.5 I0.0063 J-0.0108
G2 X20.7777 Y22.7809 Z-1.5333 I-0.0125 J0.0
G2 Y22.8026 Z-1.5667 I0.0062 J0.0108
G2 X20.7965 Y22.7917 Z-1.6 I0.0063 J-0.0108
G2 X20.7777 Y22.7809 Z-1.6333 I-0.0125 J0.0
G2 Y22.8026 Z-1.6667 I0.0062 J0.0108
G2 X20.7965 Y22.7917 Z-1.7 I0.0063 J-0.0108
G2 X20.7777 Y22.7809 Z-1.7333 I-0.0125 J0.0
G2 Y22.8026 Z-1.7667 I0.0062 J0.0108
G2 X20.7965 Y22.7917 Z-1.8 I0.0063 J-0.0108
G2 X20.7777 Y22.7809 Z-1.8333 I-0.0125 J0.0
G2 Y22.8026 Z-1.8667 I0.0062 J0.0108
G2 X20.7965 Y22.7917 Z-1.9 I0.0063 J-0.0108
G2 X20.7777 Y22.7809 Z-1.9333 I-0.0125 J0.0
G2 Y22.8026 Z-1.9667 I0.0062 J0.0108
G2 X20.7965 Y22.7917 Z-2.0 I0.0063 J-0.0108
G2 X20.7777 Y22.7809 Z-2.0333 I-0.0125 J0.0
G2 Y22.8026 Z-2.0667 I0.0062 J0.0108
G2 X20.7965 Y22.7917 Z-2.1 I0.0063 J-0.0108
G2 X20.7777 Y22.7809 Z-2.1333 I-0.0125 J0.0
G2 Y22.8026 Z-2.1667 I0.0062 J0.0108
G2 X20.7965 Y22.7917 Z-2.2 I0.0063 J-0.0108
G2 X20.7777 Y22.7809 Z-2.2333 I-0.0125 J0.0
G2 Y22.8026 Z-2.2667 I0.0062 J0.0108
G2 X20.7965 Y22.7917 Z-2.3 I0.0063 J-0.0108
G2 X20.7777 Y22.7809 Z-2.3333 I-0.0125 J0.0
G2 Y22.8026 Z-2.3667 I0.0062 J0.0108
G2 X20.7965 Y22.7917 Z-2.4 I0.0063 J-0.0108
G2 X20.7777 Y22.7809 Z-2.4333 I-0.0125 J0.0
G2 Y22.8026 Z-2.4667 I0.0063 J0.0108
G2 X20.7965 Y22.7917 Z-2.5 I0.0062 J-0.0108
G2 X20.7777 Y22.7809 Z-2.5333 I-0.0125 J0.0
G2 Y22.8026 Z-2.5667 I0.0063 J0.0108
G2 X20.7965 Y22.7917 Z-2.6 I0.0062 J-0.0108
G2 X20.7777 Y22.7809 Z-2.6333 I-0.0125 J0.0
G2 Y22.8026 Z-2.6667 I0.0063 J0.0108
G2 X20.7965 Y22.7917 Z-2.7 I0.0062 J-0.0108
G2 X20.7777 Y22.7809 Z-2.7333 I-0.0125 J0.0
G2 Y22.8026 Z-2.7667 I0.0063 J0.0108
G2 X20.7965 Y22.7917 Z-2.8 I0.0062 J-0.0108
G2 X20.7777 Y22.7809 Z-2.8333 I-0.0125 J0.0
G2 Y22.8026 Z-2.8667 I0.0063 J0.0108
G2 X20.7965 Y22.7917 Z-2.9 I0.0062 J-0.0108
G2 X20.7777 Y22.7809 Z-2.9333 I-0.0125 J0.0
G2 Y22.8026 Z-2.9667 I0.0063 J0.0108
G2 X20.7965 Y22.7917 Z-3.0 I0.0062 J-0.0108
G2 X20.7777 Y22.7809 Z-3.0333 I-0.0125 J0.0
G2 Y22.8026 Z-3.0667 I0.0063 J0.0108
G2 X20.7965 Y22.7917 Z-3.1 I0.0062 J-0.0108
G2 X20.7777 Y22.7809 Z-3.1333 I-0.0125 J0.0
G2 Y22.8026 Z-3.1667 I0.0063 J0.0108
G2 X20.7965 Y22.7917 Z-3.2 I0.0062 J-0.0108
G2 X20.7777 Y22.7809 I-0.0125 J0.0
G2 Y22.8026 I0.0063 J0.0108
G2 X20.7965 Y22.7917 I0.0062 J-0.0108
G0 Z3.0
G0 X31.7988
G1 F1000.0 Z0.0
G2 F2000.0 X31.7801 Y22.7809 Z-0.0333 I-0.0125 J0.0
G2 Y22.8026 Z-0.0667 I0.0062 J0.0108
G2 X31.7988 Y22.7917 Z-0.1 I0.0063 J-0.0108
G2 X31.7801 Y22.7809 Z-0.1333 I-0.0125 J0.0
G2 Y22.8026 Z-0.1667 I0.0062 J0.0108
G2 X31.7988 Y22.7917 Z-0.2 I0.0063 J-0.0108
G2 X31.7801 Y22.7809 Z-0.2333 I-0.0125 J0.0
G2 Y22.8026 Z-0.2667 I0.0062 J0.0108
G2 X31.7988 Y22.7917 Z-0.3 I0.0063 J-0.0108
G2 X31.7801 Y22.7809 Z-0.3333 I-0.0125 J0.0
G2 Y22.8026 Z-0.3667 I0.0062 J0.0108
G2 X31.7988 Y22.7917 Z-0.4 I0.0063 J-0.0108
G2 X31.7801 Y22.7809 Z-0.4333 I-0.0125 J0.0
G2 Y22.8026 Z-0.4667 I0.0062 J0.0108
G2 X31.7988 Y22.7917 Z-0.5 I0.0063 J-0.0108
G2 X31.7801 Y22.7809 Z-0.5333 I-0.0125 J0.0
G2 Y22.8026 Z-0.5667 I0.0062 J0.0108
G2 X31.7988 Y22.7917 Z-0.6 I0.0063 J-0.0108
G2 X31.7801 Y22.7809 Z-0.6333 I-0.0125 J0.0
G2 Y22.8026 Z-0.6667 I0.0062 J0.0108
G2 X31.7988 Y22.7917 Z-0.7 I0.0063 J-0.0108
G2 X31.7801 Y22.7809 Z-0.7333 I-0.0125 J0.0
G2 Y22.8026 Z-0.7667 I0.0062 J0.0108
G2 X31.7988 Y22.7917 Z-0.8 I0.0063 J-0.0108
G2 X31.7801 Y22.7809 Z-0.8333 I-0.0125 J0.0
G2 Y22.8026 Z-0.8667 I0.0062 J0.0108
G2 X31.7988 Y22.7917 Z-0.9 I0.0063 J-0.0108
G2 X31.7801 Y22.7809 Z-0.9333 I-0.0125 J0.0
G2 Y22.8026 Z-0.9667 I0.0062 J0.0108
G2 X31.7988 Y22.7917 Z-1.0 I0.0063 J-0.0108
G2 X31.7801 Y22.7809 Z-1.0333 I-0.0125 J0.0
G2 Y22.8026 Z-1.0667 I0.0062 J0.0108
G2 X31.7988 Y22.7917 Z-1.1 I0.0063 J-0.0108
G2 X31.7801 Y22.7809 Z-1.1333 I-0.0125 J0.0
G2 Y22.8026 Z-1.1667 I0.0062 J0.0108
G2 X31.7988 Y22.7917 Z-1.2 I0.0063 J-0.0108
G2 X31.7801 Y22.7809 Z-1.2333 I-0.0125 J0.0
G2 Y22.8026 Z-1.2667 I0.0062 J0.0108
G2 X31.7988 Y22.7917 Z-1.3 I0.0063 J-0.0108
G2 X31.7801 Y22.7809 Z-1.3333 I-0.0125 J0.0
G2 Y22.8026 Z-1.3667 I0.0062 J0.0108
G2 X31.7988 Y22.7917 Z-1.4 I0.0063 J-0.0108
G2 X31.7801 Y22.7809 Z-1.4333 I-0.0125 J0.0
G2 Y22.8026 Z-1.4667 I0.0062 J0.0108
G2 X31.7988 Y22.7917 Z-1.5 I0.0063 J-0.0108
G2 X31.7801 Y22.7809 Z-1.5333 I-0.0125 J0.0
G2 Y22.8026 Z-1.5667 I0.0062 J0.0108
G2 X31.7988 Y22.7917 Z-1.6 I0.0063 J-0.0108
G2 X31.7801 Y22.7809 Z-1.6333 I-0.0125 J0.0
G2 Y22.8026 Z-1.6667 I0.0062 J0.0108
G2 X31.7988 Y22.7917 Z-1.7 I0.0063 J-0.0108
G2 X31.7801 Y22.7809 Z-1.7333 I-0.0125 J0.0
G2 Y22.8026 Z-1.7667 I0.0062 J0.0108
G2 X31.7988 Y22.7917 Z-1.8 I0.0063 J-0.0108
G2 X31.7801 Y22.7809 Z-1.8333 I-0.0125 J0.0
G2 Y22.8026 Z-1.8667 I0.0062 J0.0108
G2 X31.7988 Y22.7917 Z-1.9 I0.0063 J-0.0108
G2 X31.7801 Y22.7809 Z-1.9333 I-0.0125 J0.0
G2 Y22.8026 Z-1.9667 I0.0062 J0.0108
G2 X31.7988 Y22.7917 Z-2.0 I0.0063 J-0.0108
G2 X31.7801 Y22.7809 Z-2.0333 I-0.0125 J0.0
G2 Y22.8026 Z-2.0667 I0.0062 J0.0108
G2 X31.7988 Y22.7917 Z-2.1 I0.0063 J-0.0108
G2 X31.7801 Y22.7809 Z-2.1333 I-0.0125 J0.0
G2 Y22.8026 Z-2.1667 I0.0062 J0.0108
G2 X31.7988 Y22.7917 Z-2.2 I0.0063 J-0.0108
G2 X31.7801 Y22.7809 Z-2.2333 I-0.0125 J0.0
G2 Y22.8026 Z-2.2667 I0.0062 J0.0108
G2 X31.7988 Y22.7917 Z-2.3 I0.0063 J-0.0108
G2 X31.7801 Y22.7809 Z-2.3333 I-0.0125 J0.0
G2 Y22.8026 Z-2.3667 I0.0062 J0.0108
G2 X31.7988 Y22.7917 Z-2.4 I0.0063 J-0.0108
G2 X31.7801 Y22.7809 Z-2.4333 I-0.0125 J0.0
G2 Y22.8026 Z-2.4667 I0.0063 J0.0108
G2 X31.7988 Y22.7917 Z-2.5 I0.0062 J-0.0108
G2 X31.7801 Y22.7809 Z-2.5333 I-0.0125 J0.0
G2 Y22.8026 Z-2.5667 I0.0063 J0.0108
G2 X31.7988 Y22.7917 Z-2.6 I0.0062 J-0.0108
G2 X31.7801 Y22.7809 Z-2.6333 I-0.0125 J0.0
G2 Y22.8026 Z-2.6667 I0.0063 J0.0108
G2 X31.7988 Y22.7917 Z-2.7 I0.0062 J-0.0108
G2 X31.7801 Y22.7809 Z-2.7333 I-0.0125 J0.0
G2 Y22.8026 Z-2.7667 I0.0063 J0.0108
G2 X31.7988 Y22.7917 Z-2.8 I0.0062 J-0.0108
G2 X31.7801 Y22.7809 Z-2.8333 I-0.0125 J0.0
G2 Y22.8026 Z-2.8667 I0.0063 J0.0108
G2 X31.7988 Y22.7917 Z-2.9 I0.0062 J-0.0108
G2 X31.7801 Y22.7809 Z-2.9333 I-0.0125 J0.0
G2 Y22.8026 Z-2.9667 I0.0063 J0.0108
G2 X31.7988 Y22.7917 Z-3.0 I0.0062 J-0.0108
G2 X31.7801 Y22.7809 Z-3.0333 I-0.0125 J0.0
G2 Y22.8026 Z-3.0667 I0.0063 J0.0108
G2 X31.7988 Y22.7917 Z-3.1 I0.0062 J-0.0108
G2 X31.7801 Y22.7809 Z-3.1333 I-0.0125 J0.0
G2 Y22.8026 Z-3.1667 I0.0063 J0.0108
G2 X31.7988 Y22.7917 Z-3.2 I0.0062 J-0.0108
G2 X31.7801 Y22.7809 I-0.0125 J0.0
G2 Y22.8026 I0.0063 J0.0108
G2 X31.7988 Y22.7917 I0.0062 J-0.0108
G0 Z3.0
G0 X43.041
G1 F1000.0 Z0.0
G2 F2000.0 X43.0222 Y22.7809 Z-0.0333 I-0.0125 J0.0
G2 Y22.8026 Z-0.0667 I0.0063 J0.0108
G2 X43.041 Y22.7917 Z-0.1 I0.0063 J-0.0108
G2 X43.0222 Y22.7809 Z-0.1333 I-0.0125 J0.0
G2 Y22.8026 Z-0.1667 I0.0063 J0.0108
G2 X43.041 Y22.7917 Z-0.2 I0.0063 J-0.0108
G2 X43.0222 Y22.7809 Z-0.2333 I-0.0125 J0.0
G2 Y22.8026 Z-0.2667 I0.0063 J0.0108
G2 X43.041 Y22.7917 Z-0.3 I0.0063 J-0.0108
G2 X43.0222 Y22.7809 Z-0.3333 I-0.0125 J0.0
G2 Y22.8026 Z-0.3667 I0.0063 J0.0108
G2 X43.041 Y22.7917 Z-0.4 I0.0063 J-0.0108
G2 X43.0222 Y22.7809 Z-0.4333 I-0.0125 J0.0
G2 Y22.8026 Z-0.4667 I0.0063 J0.0108
G2 X43.041 Y22.7917 Z-0.5 I0.0063 J-0.0108
G2 X43.0222 Y22.7809 Z-0.5333 I-0.0125 J0.0
G2 Y22.8026 Z-0.5667 I0.0063 J0.0108
G2 X43.041 Y22.7917 Z-0.6 I0.0063 J-0.0108
G2 X43.0222 Y22.7809 Z-0.6333 I-0.0125 J0.0
G2 Y22.8026 Z-0.6667 I0.0063 J0.0108
G2 X43.041 Y22.7917 Z-0.7 I0.0063 J-0.0108
G2 X43.0222 Y22.7809 Z-0.7333 I-0.0125 J0.0
G2 Y22.8026 Z-0.7667 I0.0063 J0.0108
G2 X43.041 Y22.7917 Z-0.8 I0.0063 J-0.0108
G2 X43.0222 Y22.7809 Z-0.8333 I-0.0125 J0.0
G2 Y22.8026 Z-0.8667 I0.0063 J0.0108
G2 X43.041 Y22.7917 Z-0.9 I0.0063 J-0.0108
G2 X43.0222 Y22.7809 Z-0.9333 I-0.0125 J0.0
G2 Y22.8026 Z-0.9667 I0.0063 J0.0108
G2 X43.041 Y22.7917 Z-1.0 I0.0063 J-0.0108
G2 X43.0222 Y22.7809 Z-1.0333 I-0.0125 J0.0
G2 Y22.8026 Z-1.0667 I0.0063 J0.0108
G2 X43.041 Y22.7917 Z-1.1 I0.0063 J-0.0108
G2 X43.0222 Y22.7809 Z-1.1333 I-0.0125 J0.0
G2 Y22.8026 Z-1.1667 I0.0063 J0.0108
G2 X43.041 Y22.7917 Z-1.2 I0.0063 J-0.0108
G2 X43.0222 Y22.7809 Z-1.2333 I-0.0125 J0.0
G2 Y22.8026 Z-1.2667 I0.0063 J0.0108
G2 X43.041 Y22.7917 Z-1.3 I0.0063 J-0.0108
G2 X43.0222 Y22.7809 Z-1.3333 I-0.0125 J0.0
G2 Y22.8026 Z-1.3667 I0.0063 J0.0108
G2 X43.041 Y22.7917 Z-1.4 I0.0063 J-0.0108
G2 X43.0222 Y22.7809 Z-1.4333 I-0.0125 J0.0
G2 Y22.8026 Z-1.4667 I0.0063 J0.0108
G2 X43.041 Y22.7917 Z-1.5 I0.0063 J-0.0108
G2 X43.0222 Y22.7809 Z-1.5333 I-0.0125 J0.0
G2 Y22.8026 Z-1.5667 I0.0063 J0.0108
G2 X43.041 Y22.7917 Z-1.6 I0.0063 J-0.0108
G2 X43.0222 Y22.7809 Z-1.6333 I-0.0125 J0.0
G2 Y22.8026 Z-1.6667 I0.0063 J0.0108
G2 X43.041 Y22.7917 Z-1.7 I0.0063 J-0.0108
G2 X43.0222 Y22.7809 Z-1.7333 I-0.0125 J0.0
G2 Y22.8026 Z-1.7667 I0.0063 J0.0108
G2 X43.041 Y22.7917 Z-1.8 I0.0063 J-0.0108
G2 X43.0222 Y22.7809 Z-1.8333 I-0.0125 J0.0
G2 Y22.8026 Z-1.8667 I0.0063 J0.0108
G2 X43.041 Y22.7917 Z-1.9 I0.0063 J-0.0108
G2 X43.0222 Y22.7809 Z-1.9333 I-0.0125 J0.0
G2 Y22.8026 Z-1.9667 I0.0063 J0.0108
G2 X43.041 Y22.7917 Z-2.0 I0.0063 J-0.0108
G2 X43.0222 Y22.7809 Z-2.0333 I-0.0125 J0.0
G2 Y22.8026 Z-2.0667 I0.0063 J0.0108
G2 X43.041 Y22.7917 Z-2.1 I0.0063 J-0.0108
G2 X43.0222 Y22.7809 Z-2.1333 I-0.0125 J0.0
G2 Y22.8026 Z-2.1667 I0.0063 J0.0108
G2 X43.041 Y22.7917 Z-2.2 I0.0063 J-0.0108
G2 X43.0222 Y22.7809 Z-2.2333 I-0.0125 J0.0
G2 Y22.8026 Z-2.2667 I0.0063 J0.0108
G2 X43.041 Y22.7917 Z-2.3 I0.0063 J-0.0108
G2 X43.0222 Y22.7809 Z-2.3333 I-0.0125 J0.0
G2 Y22.8026 Z-2.3667 I0.0063 J0.0108
G2 X43.041 Y22.7917 Z-2.4 I0.0063 J-0.0108
G2 X43.0222 Y22.7809 Z-2.4333 I-0.0125 J0.0
G2 Y22.8026 Z-2.4667 I0.0063 J0.0108
G2 X43.041 Y22.7917 Z-2.5 I0.0063 J-0.0108
G2 X43.0222 Y22.7809 Z-2.5333 I-0.0125 J0.0
G2 Y22.8026 Z-2.5667 I0.0063 J0.0108
G2 X43.041 Y22.7917 Z-2.6 I0.0063 J-0.0108
G2 X43.0222 Y22.7809 Z-2.6333 I-0.0125 J0.0
G2 Y22.8026 Z-2.6667 I0.0063 J0.0108
G2 X43.041 Y22.7917 Z-2.7 I0.0063 J-0.0108
G2 X43.0222 Y22.7809 Z-2.7333 I-0.0125 J0.0
G2 Y22.8026 Z-2.7667 I0.0063 J0.0108
G2 X43.041 Y22.7917 Z-2.8 I0.0063 J-0.0108
G2 X43.0222 Y22.7809 Z-2.8333 I-0.0125 J0.0
G2 Y22.8026 Z-2.8667 I0.0063 J0.0108
G2 X43.041 Y22.7917 Z-2.9 I0.0063 J-0.0108
G2 X43.0222 Y22.7809 Z-2.9333 I-0.0125 J0.0
G2 Y22.8026 Z-2.9667 I0.0063 J0.0108
G2 X43.041 Y22.7917 Z-3.0 I0.0062 J-0.0108
G2 X43.0222 Y22.7809 Z-3.0333 I-0.0125 J0.0
G2 Y22.8026 Z-3.0667 I0.0063 J0.0108
G2 X43.041 Y22.7917 Z-3.1 I0.0062 J-0.0108
G2 X43.0222 Y22.7809 Z-3.1333 I-0.0125 J0.0
G2 Y22.8026 Z-3.1667 I0.0063 J0.0108
G2 X43.041 Y22.7917 Z-3.2 I0.0062 J-0.0108
G2 X43.0222 Y22.7809 I-0.0125 J0.0
G2 Y22.8026 I0.0063 J0.0108
G2 X43.041 Y22.7917 I0.0062 J-0.0108
G0 Z3.0
G0 X12.1825 Y42.7603
G1 F1000.0 Z0.0
G2 F2000.0 X12.1638 Y42.7494 Z-0.0333 I-0.0125 J0.0
G2 Y42.7711 Z-0.0667 I0.0063 J0.0108
G2 X12.1825 Y42.7603 Z-0.1 I0.0062 J-0.0108
G2 X12.1638 Y42.7494 Z-0.1333 I-0.0125 J0.0
G2 Y42.7711 Z-0.1667 I0.0063 J0.0108
G2 X12.1825 Y42.7603 Z-0.2 I0.0062 J-0.0108
G2 X12.1638 Y42.7494 Z-0.2333 I-0.0125 J0.0
G2 Y42.7711 Z-0.2667 I0.0063 J0.0108
G2 X12.1825 Y42.7603 Z-0.3 I0.0062 J-0.0108
G2 X12.1638 Y42.7494 Z-0.3333 I-0.0125 J0.0
G2 Y42.7711 Z-0.3667 I0.0063 J0.0108
G2 X12.1825 Y42.7603 Z-0.4 I0.0062 J-0.0108
G2 X12.1638 Y42.7494 Z-0.4333 I-0.0125 J0.0
G2 Y42.7711 Z-0.4667 I0.0063 J0.0108
G2 X12.1825 Y42.7603 Z-0.5 I0.0062 J-0.0108
G2 X12.1638 Y42.7494 Z-0.5333 I-0.0125 J0.0
G2 Y42.7711 Z-0.5667 I0.0063 J0.0108
G2 X12.1825 Y42.7603 Z-0.6 I0.0062 J-0.0108
G2 X12.1638 Y42.7494 Z-0.6333 I-0.0125 J0.0
G2 Y42.7711 Z-0.6667 I0.0063 J0.0108
G2 X12.1825 Y42.7603 Z-0.7 I0.0062 J-0.0108
G2 X12.1638 Y42.7494 Z-0.7333 I-0.0125 J0.0
G2 Y42.7711 Z-0.7667 I0.0063 J0.0108
G2 X12.1825 Y42.7603 Z-0.8 I0.0062 J-0.0108
G2 X12.1638 Y42.7494 Z-0.8333 I-0.0125 J0.0
G2 Y42.7711 Z-0.8667 I0.0063 J0.0108
G2 X12.1825 Y42.7603 Z-0.9 I0.0062 J-0.0108
G2 X12.1638 Y42.7494 Z-0.9333 I-0.0125 J0.0
G2 Y42.7711 Z-0.9667 I0.0063 J0.0108
G2 X12.1825 Y42.7603 Z-1.0 I0.0062 J-0.0108
G2 X12.1638 Y42.7494 Z-1.0333 I-0.0125 J0.0
G2 Y42.7711 Z-1.0667 I0.0063 J0.0108
G2 X12.1825 Y42.7603 Z-1.1 I0.0062 J-0.0108
G2 X12.1638 Y42.7494 Z-1.1333 I-0.0125 J0.0
G2 Y42.7711 Z-1.1667 I0.0063 J0.0108
G2 X12.1825 Y42.7603 Z-1.2 I0.0062 J-0.0108
G2 X12.1638 Y42.7494 Z-1.2333 I-0.0125 J0.0
G2 Y42.7711 Z-1.2667 I0.0063 J0.0108
G2 X12.1825 Y42.7603 Z-1.3 I0.0062 J-0.0108
G2 X12.1638 Y42.7494 Z-1.3333 I-0.0125 J0.0
G2 Y42.7711 Z-1.3667 I0.0063 J0.0108
G2 X12.1825 Y42.7603 Z-1.4 I0.0062 J-0.0108
G2 X12.1638 Y42.7494 Z-1.4333 I-0.0125 J0.0
G2 Y42.7711 Z-1.4667 I0.0063 J0.0108
G2 X12.1825 Y42.7603 Z-1.5 I0.0062 J-0.0108
G2 X12.1638 Y42.7494 Z-1.5333 I-0.0125 J0.0
G2 Y42.7711 Z-1.5667 I0.0063 J0.0108
G2 X12.1825 Y42.7603 Z-1.6 I0.0062 J-0.0108
G2 X12.1638 Y42.7494 Z-1.6333 I-0.0125 J0.0
G2 Y42.7711 Z-1.6667 I0.0063 J0.0108
G2 X12.1825 Y42.7603 Z-1.7 I0.0062 J-0.0108
G2 X12.1638 Y42.7494 Z-1.7333 I-0.0125 J0.0
G2 Y42.7711 Z-1.7667 I0.0063 J0.0108
G2 X12.1825 Y42.7603 Z-1.8 I0.0062 J-0.0108
G2 X12.1638 Y42.7494 Z-1.8333 I-0.0125 J0.0
G2 Y42.7711 Z-1.8667 I0.0063 J0.0108
G2 X12.1825 Y42.7603 Z-1.9 I0.0062 J-0.0108
G2 X12.1638 Y42.7494 Z-1.9333 I-0.0125 J0.0
G2 Y42.7711 Z-1.9667 I0.0063 J0.0108
G2 X12.1825 Y42.7603 Z-2.0 I0.0062 J-0.0108
G2 X12.1638 Y42.7494 Z-2.0333 I-0.0125 J0.0
G2 Y42.7711 Z-2.0667 I0.0063 J0.0108
G2 X12.1825 Y42.7603 Z-2.1 I0.0062 J-0.0108
G2 X12.1638 Y42.7494 Z-2.1333 I-0.0125 J0.0
G2 Y42.7711 Z-2.1667 I0.0063 J0.0108
G2 X12.1825 Y42.7603 Z-2.2 I0.0062 J-0.0108
G2 X12.1638 Y42.7494 Z-2.2333 I-0.0125 J0.0
G2 Y42.7711 Z-2.2667 I0.0063 J0.0108
G2 X12.1825 Y42.7603 Z-2.3 I0.0062 J-0.0108
G2 X12.1638 Y42.7494 Z-2.3333 I-0.0125 J0.0
G2 Y42.7711 Z-2.3667 I0.0063 J0.0108
G2 X12.1825 Y42.7603 Z-2.4 I0.0062 J-0.0108
G2 X12.1638 Y42.7494 Z-2.4333 I-0.0125 J0.0
G2 Y42.7711 Z-2.4667 I0.0063 J0.0108
G2 X12.1825 Y42.7603 Z-2.5 I0.0062 J-0.0108
G2 X12.1638 Y42.7494 Z-2.5333 I-0.0125 J0.0
G2 Y42.7711 Z-2.5667 I0.0063 J0.0108
G2 X12.1825 Y42.7603 Z-2.6 I0.0062 J-0.0108
G2 X12.1638 Y42.7494 Z-2.6333 I-0.0125 J0.0
G2 Y42.7711 Z-2.6667 I0.0063 J0.0108
G2 X12.1825 Y42.7603 Z-2.7 I0.0062 J-0.0108
G2 X12.1638 Y42.7494 Z-2.7333 I-0.0125 J0.0
G2 Y42.7711 Z-2.7667 I0.0063 J0.0108
G2 X12.1825 Y42.7603 Z-2.8 I0.0062 J-0.0108
G2 X12.1638 Y42.7494 Z-2.8333 I-0.0125 J0.0
G2 Y42.7711 Z-2.8667 I0.0063 J0.0108
G2 X12.1825 Y42.7603 Z-2.9 I0.0062 J-0.0108
G2 X12.1638 Y42.7494 Z-2.9333 I-0.0125 J0.0
G2 Y42.7711 Z-2.9667 I0.0063 J0.0108
G2 X12.1825 Y42.7603 Z-3.0 I0.0062 J-0.0108
G2 X12.1638 Y42.7494 Z-3.0333 I-0.0125 J0.0
G2 Y42.7711 Z-3.0667 I0.0063 J0.0108
G2 X12.1825 Y42.7603 Z-3.1 I0.0062 J-0.0108
G2 X12.1638 Y42.7494 Z-3.1333 I-0.0125 J0.0
G2 Y42.7711 Z-3.1667 I0.0063 J0.0108
G2 X12.1825 Y42.7603 Z-3.2 I0.0062 J-0.0108
G2 X12.1638 Y42.7494 I-0.0125 J0.0
G2 Y42.7711 I0.0063 J0.0108
G2 X12.1825 Y42.7603 I0.0062 J-0.0108
G0 Z3.0
G0 X12.0834 Y55.4952
G1 F1000.0 Z0.0
G2 F2000.0 X12.0647 Y55.4844 Z-0.0333 I-0.0125 J0.0
G2 Y55.506 Z-0.0667 I0.0063 J0.0108
G2 X12.0834 Y55.4952 Z-0.1 I0.0062 J-0.0108
G2 X12.0647 Y55.4844 Z-0.1333 I-0.0125 J0.0
G2 Y55.506 Z-0.1667 I0.0063 J0.0108
G2 X12.0834 Y55.4952 Z-0.2 I0.0062 J-0.0108
G2 X12.0647 Y55.4844 Z-0.2333 I-0.0125 J0.0
G2 Y55.506 Z-0.2667 I0.0063 J0.0108
G2 X12.0834 Y55.4952 Z-0.3 I0.0062 J-0.0108
G2 X12.0647 Y55.4844 Z-0.3333 I-0.0125 J0.0
G2 Y55.506 Z-0.3667 I0.0063 J0.0108
G2 X12.0834 Y55.4952 Z-0.4 I0.0062 J-0.0108
G2 X12.0647 Y55.4844 Z-0.4333 I-0.0125 J0.0
G2 Y55.506 Z-0.4667 I0.0063 J0.0108
G2 X12.0834 Y55.4952 Z-0.5 I0.0062 J-0.0108
G2 X12.0647 Y55.4844 Z-0.5333 I-0.0125 J0.0
G2 Y55.506 Z-0.5667 I0.0063 J0.0108
G2 X12.0834 Y55.4952 Z-0.6 I0.0062 J-0.0108
G2 X12.0647 Y55.4844 Z-0.6333 I-0.0125 J0.0
G2 Y55.506 Z-0.6667 I0.0063 J0.0108
G2 X12.0834 Y55.4952 Z-0.7 I0.0062 J-0.0108
G2 X12.0647 Y55.4844 Z-0.7333 I-0.0125 J0.0
G2 Y55.506 Z-0.7667 I0.0063 J0.0108
G2 X12.0834 Y55.4952 Z-0.8 I0.0062 J-0.0108
G2 X12.0647 Y55.4844 Z-0.8333 I-0.0125 J0.0
G2 Y55.506 Z-0.8667 I0.0063 J0.0108
G2 X12.0834 Y55.4952 Z-0.9 I0.0062 J-0.0108
G2 X12.0647 Y55.4844 Z-0.9333 I-0.0125 J0.0
G2 Y55.506 Z-0.9667 I0.0063 J0.0108
G2 X12.0834 Y55.4952 Z-1.0 I0.0062 J-0.0108
G2 X12.0647 Y55.4844 Z-1.0333 I-0.0125 J0.0
G2 Y55.506 Z-1.0667 I0.0063 J0.0108
G2 X12.0834 Y55.4952 Z-1.1 I0.0062 J-0.0108
G2 X12.0647 Y55.4844 Z-1.1333 I-0.0125 J0.0
G2 Y55.506 Z-1.1667 I0.0063 J0.0108
G2 X12.0834 Y55.4952 Z-1.2 I0.0062 J-0.0108
G2 X12.0647 Y55.4844 Z-1.2333 I-0.0125 J0.0
G2 Y55.506 Z-1.2667 I0.0063 J0.0108
G2 X12.0834 Y55.4952 Z-1.3 I0.0062 J-0.0108
G2 X12.0647 Y55.4844 Z-1.3333 I-0.0125 J0.0
G2 Y55.506 Z-1.3667 I0.0063 J0.0108
G2 X12.0834 Y55.4952 Z-1.4 I0.0062 J-0.0108
G2 X12.0647 Y55.4844 Z-1.4333 I-0.0125 J0.0
G2 Y55.506 Z-1.4667 I0.0063 J0.0108
G2 X12.0834 Y55.4952 Z-1.5 I0.0062 J-0.0108
G2 X12.0647 Y55.4844 Z-1.5333 I-0.0125 J0.0
G2 Y55.506 Z-1.5667 I0.0063 J0.0108
G2 X12.0834 Y55.4952 Z-1.6 I0.0062 J-0.0108
G2 X12.0647 Y55.4844 Z-1.6333 I-0.0125 J0.0
G2 Y55.506 Z-1.6667 I0.0063 J0.0108
G2 X12.0834 Y55.4952 Z-1.7 I0.0062 J-0.0108
G2 X12.0647 Y55.4844 Z-1.7333 I-0.0125 J0.0
G2 Y55.506 Z-1.7667 I0.0063 J0.0108
G2 X12.0834 Y55.4952 Z-1.8 I0.0062 J-0.0108
G2 X12.0647 Y55.4844 Z-1.8333 I-0.0125 J0.0
G2 Y55.506 Z-1.8667 I0.0063 J0.0108
G2 X12.0834 Y55.4952 Z-1.9 I0.0062 J-0.0108
G2 X12.0647 Y55.4844 Z-1.9333 I-0.0125 J0.0
G2 Y55.506 Z-1.9667 I0.0063 J0.0108
G2 X12.0834 Y55.4952 Z-2.0 I0.0062 J-0.0108
G2 X12.0647 Y55.4844 Z-2.0333 I-0.0125 J0.0
G2 Y55.506 Z-2.0667 I0.0063 J0.0108
G2 X12.0834 Y55.4952 Z-2.1 I0.0062 J-0.0108
G2 X12.0647 Y55.4844 Z-2.1333 I-0.0125 J0.0
G2 Y55.506 Z-2.1667 I0.0063 J0.0108
G2 X12.0834 Y55.4952 Z-2.2 I0.0062 J-0.0108
G2 X12.0647 Y55.4844 Z-2.2333 I-0.0125 J0.0
G2 Y55.506 Z-2.2667 I0.0063 J0.0108
G2 X12.0834 Y55.4952 Z-2.3 I0.0062 J-0.0108
G2 X12.0647 Y55.4844 Z-2.3333 I-0.0125 J0.0
G2 Y55.506 Z-2.3667 I0.0063 J0.0108
G2 X12.0834 Y55.4952 Z-2.4 I0.0062 J-0.0108
G2 X12.0647 Y55.4844 Z-2.4333 I-0.0125 J0.0
G2 Y55.506 Z-2.4667 I0.0063 J0.0108
G2 X12.0834 Y55.4952 Z-2.5 I0.0062 J-0.0108
G2 X12.0647 Y55.4844 Z-2.5333 I-0.0125 J0.0
G2 Y55.506 Z-2.5667 I0.0063 J0.0108
G2 X12.0834 Y55.4952 Z-2.6 I0.0062 J-0.0108
G2 X12.0647 Y55.4844 Z-2.6333 I-0.0125 J0.0
G2 Y55.506 Z-2.6667 I0.0063 J0.0108
G2 X12.0834 Y55.4952 Z-2.7 I0.0062 J-0.0108
G2 X12.0647 Y55.4844 Z-2.7333 I-0.0125 J0.0
G2 Y55.506 Z-2.7667 I0.0063 J0.0108
G2 X12.0834 Y55.4952 Z-2.8 I0.0062 J-0.0108
G2 X12.0647 Y55.4844 Z-2.8333 I-0.0125 J0.0
G2 Y55.506 Z-2.8667 I0.0063 J0.0108
G2 X12.0834 Y55.4952 Z-2.9 I0.0062 J-0.0108
G2 X12.0647 Y55.4844 Z-2.9333 I-0.0125 J0.0
G2 Y55.506 Z-2.9667 I0.0063 J0.0108
G2 X12.0834 Y55.4952 Z-3.0 I0.0062 J-0.0108
G2 X12.0647 Y55.4844 Z-3.0333 I-0.0125 J0.0
G2 Y55.506 Z-3.0667 I0.0063 J0.0108
G2 X12.0834 Y55.4952 Z-3.1 I0.0062 J-0.0108
G2 X12.0647 Y55.4844 Z-3.1333 I-0.0125 J0.0
G2 Y55.506 Z-3.1667 I0.0063 J0.0108
G2 X12.0834 Y55.4952 Z-3.2 I0.0062 J-0.0108
G2 X12.0647 Y55.4844 I-0.0125 J0.0
G2 Y55.506 I0.0063 J0.0108
G2 X12.0834 Y55.4952 I0.0062 J-0.0108
G0 Z3.0
G0 X19.0173 Y70.9112
G1 F1000.0 Z0.0
G2 F2000.0 X18.9986 Y70.9004 Z-0.0333 I-0.0125 J0.0
G2 Y70.9221 Z-0.0667 I0.0062 J0.0108
G2 X19.0173 Y70.9112 Z-0.1 I0.0063 J-0.0108
G2 X18.9986 Y70.9004 Z-0.1333 I-0.0125 J0.0
G2 Y70.9221 Z-0.1667 I0.0062 J0.0108
G2 X19.0173 Y70.9112 Z-0.2 I0.0063 J-0.0108
G2 X18.9986 Y70.9004 Z-0.2333 I-0.0125 J0.0
G2 Y70.9221 Z-0.2667 I0.0062 J0.0108
G2 X19.0173 Y70.9112 Z-0.3 I0.0063 J-0.0108
G2 X18.9986 Y70.9004 Z-0.3333 I-0.0125 J0.0
G2 Y70.9221 Z-0.3667 I0.0062 J0.0108
G2 X19.0173 Y70.9112 Z-0.4 I0.0063 J-0.0108
G2 X18.9986 Y70.9004 Z-0.4333 I-0.0125 J0.0
G2 Y70.9221 Z-0.4667 I0.0062 J0.0108
G2 X19.0173 Y70.9112 Z-0.5 I0.0063 J-0.0108
G2 X18.9986 Y70.9004 Z-0.5333 I-0.0125 J0.0
G2 Y70.9221 Z-0.5667 I0.0062 J0.0108
G2 X19.0173 Y70.9112 Z-0.6 I0.0063 J-0.0108
G2 X18.9986 Y70.9004 Z-0.6333 I-0.0125 J0.0
G2 Y70.9221 Z-0.6667 I0.0062 J0.0108
G2 X19.0173 Y70.9112 Z-0.7 I0.0063 J-0.0108
G2 X18.9986 Y70.9004 Z-0.7333 I-0.0125 J0.0
G2 Y70.9221 Z-0.7667 I0.0062 J0.0108
G2 X19.0173 Y70.9112 Z-0.8 I0.0063 J-0.0108
G2 X18.9986 Y70.9004 Z-0.8333 I-0.0125 J0.0
G2 Y70.9221 Z-0.8667 I0.0062 J0.0108
G2 X19.0173 Y70.9112 Z-0.9 I0.0063 J-0.0108
G2 X18.9986 Y70.9004 Z-0.9333 I-0.0125 J0.0
G2 Y70.9221 Z-0.9667 I0.0062 J0.0108
G2 X19.0173 Y70.9112 Z-1.0 I0.0063 J-0.0108
G2 X18.9986 Y70.9004 Z-1.0333 I-0.0125 J0.0
G2 Y70.9221 Z-1.0667 I0.0062 J0.0108
G2 X19.0173 Y70.9112 Z-1.1 I0.0063 J-0.0108
G2 X18.9986 Y70.9004 Z-1.1333 I-0.0125 J0.0
G2 Y70.9221 Z-1.1667 I0.0062 J0.0108
G2 X19.0173 Y70.9112 Z-1.2 I0.0063 J-0.0108
G2 X18.9986 Y70.9004 Z-1.2333 I-0.0125 J0.0
G2 Y70.9221 Z-1.2667 I0.0062 J0.0108
G2 X19.0173 Y70.9112 Z-1.3 I0.0063 J-0.0108
G2 X18.9986 Y70.9004 Z-1.3333 I-0.0125 J0.0
G2 Y70.9221 Z-1.3667 I0.0062 J0.0108
G2 X19.0173 Y70.9112 Z-1.4 I0.0063 J-0.0108
G2 X18.9986 Y70.9004 Z-1.4333 I-0.0125 J0.0
G2 Y70.9221 Z-1.4667 I0.0062 J0.0108
G2 X19.0173 Y70.9112 Z-1.5 I0.0063 J-0.0108
G2 X18.9986 Y70.9004 Z-1.5333 I-0.0125 J0.0
G2 Y70.9221 Z-1.5667 I0.0062 J0.0108
G2 X19.0173 Y70.9112 Z-1.6 I0.0063 J-0.0108
G2 X18.9986 Y70.9004 Z-1.6333 I-0.0125 J0.0
G2 Y70.9221 Z-1.6667 I0.0062 J0.0108
G2 X19.0173 Y70.9112 Z-1.7 I0.0063 J-0.0108
G2 X18.9986 Y70.9004 Z-1.7333 I-0.0125 J0.0
G2 Y70.9221 Z-1.7667 I0.0062 J0.0108
G2 X19.0173 Y70.9112 Z-1.8 I0.0063 J-0.0108
G2 X18.9986 Y70.9004 Z-1.8333 I-0.0125 J0.0
G2 Y70.9221 Z-1.8667 I0.0062 J0.0108
G2 X19.0173 Y70.9112 Z-1.9 I0.0063 J-0.0108
G2 X18.9986 Y70.9004 Z-1.9333 I-0.0125 J0.0
G2 Y70.9221 Z-1.9667 I0.0062 J0.0108
G2 X19.0173 Y70.9112 Z-2.0 I0.0063 J-0.0108
G2 X18.9986 Y70.9004 Z-2.0333 I-0.0125 J0.0
G2 Y70.9221 Z-2.0667 I0.0062 J0.0108
G2 X19.0173 Y70.9112 Z-2.1 I0.0063 J-0.0108
G2 X18.9986 Y70.9004 Z-2.1333 I-0.0125 J0.0
G2 Y70.9221 Z-2.1667 I0.0062 J0.0108
G2 X19.0173 Y70.9112 Z-2.2 I0.0063 J-0.0108
G2 X18.9986 Y70.9004 Z-2.2333 I-0.0125 J0.0
G2 Y70.9221 Z-2.2667 I0.0062 J0.0108
G2 X19.0173 Y70.9112 Z-2.3 I0.0063 J-0.0108
G2 X18.9986 Y70.9004 Z-2.3333 I-0.0125 J0.0
G2 Y70.9221 Z-2.3667 I0.0062 J0.0108
G2 X19.0173 Y70.9112 Z-2.4 I0.0063 J-0.0108
G2 X18.9986 Y70.9004 Z-2.4333 I-0.0125 J0.0
G2 Y70.9221 Z-2.4667 I0.0062 J0.0108
G2 X19.0173 Y70.9112 Z-2.5 I0.0063 J-0.0108
G2 X18.9986 Y70.9004 Z-2.5333 I-0.0125 J0.0
G2 Y70.9221 Z-2.5667 I0.0062 J0.0108
G2 X19.0173 Y70.9112 Z-2.6 I0.0063 J-0.0108
G2 X18.9986 Y70.9004 Z-2.6333 I-0.0125 J0.0
G2 Y70.9221 Z-2.6667 I0.0062 J0.0108
G2 X19.0173 Y70.9112 Z-2.7 I0.0063 J-0.0108
G2 X18.9986 Y70.9004 Z-2.7333 I-0.0125 J0.0
G2 Y70.9221 Z-2.7667 I0.0062 J0.0108
G2 X19.0173 Y70.9112 Z-2.8 I0.0063 J-0.0108
G2 X18.9986 Y70.9004 Z-2.8333 I-0.0125 J0.0
G2 Y70.9221 Z-2.8667 I0.0062 J0.0108
G2 X19.0173 Y70.9112 Z-2.9 I0.0063 J-0.0108
G2 X18.9986 Y70.9004 Z-2.9333 I-0.0125 J0.0
G2 Y70.9221 Z-2.9667 I0.0062 J0.0108
G2 X19.0173 Y70.9112 Z-3.0 I0.0063 J-0.0108
G2 X18.9986 Y70.9004 Z-3.0333 I-0.0125 J0.0
G2 Y70.9221 Z-3.0667 I0.0062 J0.0108
G2 X19.0173 Y70.9112 Z-3.1 I0.0063 J-0.0108
G2 X18.9986 Y70.9004 Z-3.1333 I-0.0125 J0.0
G2 Y70.9221 Z-3.1667 I0.0062 J0.0108
G2 X19.0173 Y70.9112 Z-3.2 I0.0063 J-0.0108
G2 X18.9986 Y70.9004 I-0.0125 J0.0
G2 Y70.9221 I0.0063 J0.0108
G2 X19.0173 Y70.9112 I0.0062 J-0.0108
G0 Z3.0
G0 X12.1528 Y92.2967
G1 F1000.0 Z0.0
G2 F2000.0 X12.134 Y92.2859 Z-0.0333 I-0.0125 J0.0
G2 Y92.3075 Z-0.0667 I0.0062 J0.0108
G2 X12.1528 Y92.2967 Z-0.1 I0.0063 J-0.0108
G2 X12.134 Y92.2859 Z-0.1333 I-0.0125 J0.0
G2 Y92.3075 Z-0.1667 I0.0062 J0.0108
G2 X12.1528 Y92.2967 Z-0.2 I0.0063 J-0.0108
G2 X12.134 Y92.2859 Z-0.2333 I-0.0125 J0.0
G2 Y92.3075 Z-0.2667 I0.0062 J0.0108
G2 X12.1528 Y92.2967 Z-0.3 I0.0063 J-0.0108
G2 X12.134 Y92.2859 Z-0.3333 I-0.0125 J0.0
G2 Y92.3075 Z-0.3667 I0.0062 J0.0108
G2 X12.1528 Y92.2967 Z-0.4 I0.0063 J-0.0108
G2 X12.134 Y92.2859 Z-0.4333 I-0.0125 J0.0
G2 Y92.3075 Z-0.4667 I0.0062 J0.0108
G2 X12.1528 Y92.2967 Z-0.5 I0.0063 J-0.0108
G2 X12.134 Y92.2859 Z-0.5333 I-0.0125 J0.0
G2 Y92.3075 Z-0.5667 I0.0062 J0.0108
G2 X12.1528 Y92.2967 Z-0.6 I0.0063 J-0.0108
G2 X12.134 Y92.2859 Z-0.6333 I-0.0125 J0.0
G2 Y92.3075 Z-0.6667 I0.0062 J0.0108
G2 X12.1528 Y92.2967 Z-0.7 I0.0063 J-0.0108
G2 X12.134 Y92.2859 Z-0.7333 I-0.0125 J0.0
G2 Y92.3075 Z-0.7667 I0.0062 J0.0108
G2 X12.1528 Y92.2967 Z-0.8 I0.0063 J-0.0108
G2 X12.134 Y92.2859 Z-0.8333 I-0.0125 J0.0
G2 Y92.3075 Z-0.8667 I0.0062 J0.0108
G2 X12.1528 Y92.2967 Z-0.9 I0.0063 J-0.0108
G2 X12.134 Y92.2859 Z-0.9333 I-0.0125 J0.0
G2 Y92.3075 Z-0.9667 I0.0062 J0.0108
G2 X12.1528 Y92.2967 Z-1.0 I0.0063 J-0.0108
G2 X12.134 Y92.2859 Z-1.0333 I-0.0125 J0.0
G2 Y92.3075 Z-1.0667 I0.0062 J0.0108
G2 X12.1528 Y92.2967 Z-1.1 I0.0063 J-0.0108
G2 X12.134 Y92.2859 Z-1.1333 I-0.0125 J0.0
G2 Y92.3075 Z-1.1667 I0.0062 J0.0108
G2 X12.1528 Y92.2967 Z-1.2 I0.0063 J-0.0108
G2 X12.134 Y92.2859 Z-1.2333 I-0.0125 J0.0
G2 Y92.3075 Z-1.2667 I0.0062 J0.0108
G2 X12.1528 Y92.2967 Z-1.3 I0.0063 J-0.0108
G2 X12.134 Y92.2859 Z-1.3333 I-0.0125 J0.0
G2 Y92.3075 Z-1.3667 I0.0062 J0.0108
G2 X12.1528 Y92.2967 Z-1.4 I0.0063 J-0.0108
G2 X12.134 Y92.2859 Z-1.4333 I-0.0125 J0.0
G2 Y92.3075 Z-1.4667 I0.0062 J0.0108
G2 X12.1528 Y92.2967 Z-1.5 I0.0063 J-0.0108
G2 X12.134 Y92.2859 Z-1.5333 I-0.0125 J0.0
G2 Y92.3075 Z-1.5667 I0.0062 J0.0108
G2 X12.1528 Y92.2967 Z-1.6 I0.0063 J-0.0108
G2 X12.134 Y92.2859 Z-1.6333 I-0.0125 J0.0
G2 Y92.3075 Z-1.6667 I0.0062 J0.0108
G2 X12.1528 Y92.2967 Z-1.7 I0.0063 J-0.0108
G2 X12.134 Y92.2859 Z-1.7333 I-0.0125 J0.0
G2 Y92.3075 Z-1.7667 I0.0062 J0.0108
G2 X12.1528 Y92.2967 Z-1.8 I0.0063 J-0.0108
G2 X12.134 Y92.2859 Z-1.8333 I-0.0125 J0.0
G2 Y92.3075 Z-1.8667 I0.0062 J0.0108
G2 X12.1528 Y92.2967 Z-1.9 I0.0063 J-0.0108
G2 X12.134 Y92.2859 Z-1.9333 I-0.0125 J0.0
G2 Y92.3075 Z-1.9667 I0.0062 J0.0108
G2 X12.1528 Y92.2967 Z-2.0 I0.0063 J-0.0108
G2 X12.134 Y92.2859 Z-2.0333 I-0.0125 J0.0
G2 Y92.3075 Z-2.0667 I0.0062 J0.0108
G2 X12.1528 Y92.2967 Z-2.1 I0.0063 J-0.0108
G2 X12.134 Y92.2859 Z-2.1333 I-0.0125 J0.0
G2 Y92.3075 Z-2.1667 I0.0062 J0.0108
G2 X12.1528 Y92.2967 Z-2.2 I0.0063 J-0.0108
G2 X12.134 Y92.2859 Z-2.2333 I-0.0125 J0.0
G2 Y92.3075 Z-2.2667 I0.0062 J0.0108
G2 X12.1528 Y92.2967 Z-2.3 I0.0063 J-0.0108
G2 X12.134 Y92.2859 Z-2.3333 I-0.0125 J0.0
G2 Y92.3075 Z-2.3667 I0.0062 J0.0108
G2 X12.1528 Y92.2967 Z-2.4 I0.0063 J-0.0108
G2 X12.134 Y92.2859 Z-2.4333 I-0.0125 J0.0
G2 Y92.3075 Z-2.4667 I0.0062 J0.0108
G2 X12.1528 Y92.2967 Z-2.5 I0.0063 J-0.0108
G2 X12.134 Y92.2859 Z-2.5333 I-0.0125 J0.0
G2 Y92.3075 Z-2.5667 I0.0062 J0.0108
G2 X12.1528 Y92.2967 Z-2.6 I0.0063 J-0.0108
G2 X12.134 Y92.2859 Z-2.6333 I-0.0125 J0.0
G2 Y92.3075 Z-2.6667 I0.0062 J0.0108
G2 X12.1528 Y92.2967 Z-2.7 I0.0063 J-0.0108
G2 X12.134 Y92.2859 Z-2.7333 I-0.0125 J0.0
G2 Y92.3075 Z-2.7667 I0.0062 J0.0108
G2 X12.1528 Y92.2967 Z-2.8 I0.0062 J-0.0108
G2 X12.134 Y92.2859 Z-2.8333 I-0.0125 J0.0
G2 Y92.3075 Z-2.8667 I0.0062 J0.0108
G2 X12.1528 Y92.2967 Z-2.9 I0.0062 J-0.0108
G2 X12.134 Y92.2859 Z-2.9333 I-0.0125 J0.0
G2 Y92.3075 Z-2.9667 I0.0062 J0.0108
G2 X12.1528 Y92.2967 Z-3.0 I0.0062 J-0.0108
G2 X12.134 Y92.2859 Z-3.0333 I-0.0125 J0.0
G2 Y92.3075 Z-3.0667 I0.0062 J0.0108
G2 X12.1528 Y92.2967 Z-3.1 I0.0062 J-0.0108
G2 X12.134 Y92.2859 Z-3.1333 I-0.0125 J0.0
G2 Y92.3075 Z-3.1667 I0.0063 J0.0108
G2 X12.1528 Y92.2967 Z-3.2 I0.0062 J-0.0108
G2 X12.134 Y92.2859 I-0.0125 J0.0
G2 Y92.3075 I0.0063 J0.0108
G2 X12.1528 Y92.2967 I0.0062 J-0.0108
G0 Z3.0
G0 X12.1398 Y105.0088
G1 F1000.0 Z0.0
G2 F2000.0 X12.1211 Y104.998 Z-0.0333 I-0.0125 J0.0
G2 Y105.0196 Z-0.0667 I0.0062 J0.0108
G2 X12.1398 Y105.0088 Z-0.1 I0.0063 J-0.0108
G2 X12.1211 Y104.998 Z-0.1333 I-0.0125 J0.0
G2 Y105.0196 Z-0.1667 I0.0062 J0.0108
G2 X12.1398 Y105.0088 Z-0.2 I0.0063 J-0.0108
G2 X12.1211 Y104.998 Z-0.2333 I-0.0125 J0.0
G2 Y105.0196 Z-0.2667 I0.0062 J0.0108
G2 X12.1398 Y105.0088 Z-0.3 I0.0063 J-0.0108
G2 X12.1211 Y104.998 Z-0.3333 I-0.0125 J0.0
G2 Y105.0196 Z-0.3667 I0.0062 J0.0108
G2 X12.1398 Y105.0088 Z-0.4 I0.0063 J-0.0108
G2 X12.1211 Y104.998 Z-0.4333 I-0.0125 J0.0
G2 Y105.0196 Z-0.4667 I0.0062 J0.0108
G2 X12.1398 Y105.0088 Z-0.5 I0.0063 J-0.0108
G2 X12.1211 Y104.998 Z-0.5333 I-0.0125 J0.0
G2 Y105.0196 Z-0.5667 I0.0062 J0.0108
G2 X12.1398 Y105.0088 Z-0.6 I0.0063 J-0.0108
G2 X12.1211 Y104.998 Z-0.6333 I-0.0125 J0.0
G2 Y105.0196 Z-0.6667 I0.0062 J0.0108
G2 X12.1398 Y105.0088 Z-0.7 I0.0063 J-0.0108
G2 X12.1211 Y104.998 Z-0.7333 I-0.0125 J0.0
G2 Y105.0196 Z-0.7667 I0.0062 J0.0108
G2 X12.1398 Y105.0088 Z-0.8 I0.0063 J-0.0108
G2 X12.1211 Y104.998 Z-0.8333 I-0.0125 J0.0
G2 Y105.0196 Z-0.8667 I0.0062 J0.0108
G2 X12.1398 Y105.0088 Z-0.9 I0.0063 J-0.0108
G2 X12.1211 Y104.998 Z-0.9333 I-0.0125 J0.0
G2 Y105.0196 Z-0.9667 I0.0062 J0.0108
G2 X12.1398 Y105.0088 Z-1.0 I0.0063 J-0.0108
G2 X12.1211 Y104.998 Z-1.0333 I-0.0125 J0.0
G2 Y105.0196 Z-1.0667 I0.0062 J0.0108
G2 X12.1398 Y105.0088 Z-1.1 I0.0063 J-0.0108
G2 X12.1211 Y104.998 Z-1.1333 I-0.0125 J0.0
G2 Y105.0196 Z-1.1667 I0.0062 J0.0108
G2 X12.1398 Y105.0088 Z-1.2 I0.0063 J-0.0108
G2 X12.1211 Y104.998 Z-1.2333 I-0.0125 J0.0
G2 Y105.0196 Z-1.2667 I0.0062 J0.0108
G2 X12.1398 Y105.0088 Z-1.3 I0.0063 J-0.0108
G2 X12.1211 Y104.998 Z-1.3333 I-0.0125 J0.0
G2 Y105.0196 Z-1.3667 I0.0062 J0.0108
G2 X12.1398 Y105.0088 Z-1.4 I0.0063 J-0.0108
G2 X12.1211 Y104.998 Z-1.4333 I-0.0125 J0.0
G2 Y105.0196 Z-1.4667 I0.0062 J0.0108
G2 X12.1398 Y105.0088 Z-1.5 I0.0063 J-0.0108
G2 X12.1211 Y104.998 Z-1.5333 I-0.0125 J0.0
G2 Y105.0196 Z-1.5667 I0.0062 J0.0108
G2 X12.1398 Y105.0088 Z-1.6 I0.0063 J-0.0108
G2 X12.1211 Y104.998 Z-1.6333 I-0.0125 J0.0
G2 Y105.0196 Z-1.6667 I0.0062 J0.0108
G2 X12.1398 Y105.0088 Z-1.7 I0.0063 J-0.0108
G2 X12.1211 Y104.998 Z-1.7333 I-0.0125 J0.0
G2 Y105.0196 Z-1.7667 I0.0062 J0.0108
G2 X12.1398 Y105.0088 Z-1.8 I0.0063 J-0.0108
G2 X12.1211 Y104.998 Z-1.8333 I-0.0125 J0.0
G2 Y105.0196 Z-1.8667 I0.0062 J0.0108
G2 X12.1398 Y105.0088 Z-1.9 I0.0063 J-0.0108
G2 X12.1211 Y104.998 Z-1.9333 I-0.0125 J0.0
G2 Y105.0196 Z-1.9667 I0.0062 J0.0108
G2 X12.1398 Y105.0088 Z-2.0 I0.0063 J-0.0108
G2 X12.1211 Y104.998 Z-2.0333 I-0.0125 J0.0
G2 Y105.0196 Z-2.0667 I0.0062 J0.0108
G2 X12.1398 Y105.0088 Z-2.1 I0.0063 J-0.0108
G2 X12.1211 Y104.998 Z-2.1333 I-0.0125 J0.0
G2 Y105.0196 Z-2.1667 I0.0062 J0.0108
G2 X12.1398 Y105.0088 Z-2.2 I0.0063 J-0.0108
G2 X12.1211 Y104.998 Z-2.2333 I-0.0125 J0.0
G2 Y105.0196 Z-2.2667 I0.0062 J0.0108
G2 X12.1398 Y105.0088 Z-2.3 I0.0063 J-0.0108
G2 X12.1211 Y104.998 Z-2.3333 I-0.0125 J0.0
G2 Y105.0196 Z-2.3667 I0.0062 J0.0108
G2 X12.1398 Y105.0088 Z-2.4 I0.0063 J-0.0108
G2 X12.1211 Y104.998 Z-2.4333 I-0.0125 J0.0
G2 Y105.0196 Z-2.4667 I0.0062 J0.0108
G2 X12.1398 Y105.0088 Z-2.5 I0.0063 J-0.0108
G2 X12.1211 Y104.998 Z-2.5333 I-0.0125 J0.0
G2 Y105.0196 Z-2.5667 I0.0062 J0.0108
G2 X12.1398 Y105.0088 Z-2.6 I0.0063 J-0.0108
G2 X12.1211 Y104.998 Z-2.6333 I-0.0125 J0.0
G2 Y105.0196 Z-2.6667 I0.0062 J0.0108
G2 X12.1398 Y105.0088 Z-2.7 I0.0063 J-0.0108
G2 X12.1211 Y104.998 Z-2.7333 I-0.0125 J0.0
G2 Y105.0196 Z-2.7667 I0.0062 J0.0108
G2 X12.1398 Y105.0088 Z-2.8 I0.0062 J-0.0108
G2 X12.1211 Y104.998 Z-2.8333 I-0.0125 J0.0
G2 Y105.0196 Z-2.8667 I0.0062 J0.0108
G2 X12.1398 Y105.0088 Z-2.9 I0.0062 J-0.0108
G2 X12.1211 Y104.998 Z-2.9333 I-0.0125 J0.0
G2 Y105.0196 Z-2.9667 I0.0062 J0.0108
G2 X12.1398 Y105.0088 Z-3.0 I0.0062 J-0.0108
G2 X12.1211 Y104.998 Z-3.0333 I-0.0125 J0.0
G2 Y105.0196 Z-3.0667 I0.0062 J0.0108
G2 X12.1398 Y105.0088 Z-3.1 I0.0062 J-0.0108
G2 X12.1211 Y104.998 Z-3.1333 I-0.0125 J0.0
G2 Y105.0196 Z-3.1667 I0.0063 J0.0108
G2 X12.1398 Y105.0088 Z-3.2 I0.0062 J-0.0108
G2 X12.1211 Y104.998 I-0.0125 J0.0
G2 Y105.0196 I0.0063 J0.0108
G2 X12.1398 Y105.0088 I0.0062 J-0.0108
G0 Z3.0
G0 X42.0644 Y104.9815
G1 F1000.0 Z0.0
G2 F2000.0 X42.0457 Y104.9707 Z-0.0333 I-0.0125 J0.0
G2 Y104.9924 Z-0.0667 I0.0062 J0.0108
G2 X42.0644 Y104.9815 Z-0.1 I0.0063 J-0.0108
G2 X42.0457 Y104.9707 Z-0.1333 I-0.0125 J0.0
G2 Y104.9924 Z-0.1667 I0.0062 J0.0108
G2 X42.0644 Y104.9815 Z-0.2 I0.0063 J-0.0108
G2 X42.0457 Y104.9707 Z-0.2333 I-0.0125 J0.0
G2 Y104.9924 Z-0.2667 I0.0062 J0.0108
G2 X42.0644 Y104.9815 Z-0.3 I0.0063 J-0.0108
G2 X42.0457 Y104.9707 Z-0.3333 I-0.0125 J0.0
G2 Y104.9924 Z-0.3667 I0.0062 J0.0108
G2 X42.0644 Y104.9815 Z-0.4 I0.0063 J-0.0108
G2 X42.0457 Y104.9707 Z-0.4333 I-0.0125 J0.0
G2 Y104.9924 Z-0.4667 I0.0062 J0.0108
G2 X42.0644 Y104.9815 Z-0.5 I0.0063 J-0.0108
G2 X42.0457 Y104.9707 Z-0.5333 I-0.0125 J0.0
G2 Y104.9924 Z-0.5667 I0.0062 J0.0108
G2 X42.0644 Y104.9815 Z-0.6 I0.0063 J-0.0108
G2 X42.0457 Y104.9707 Z-0.6333 I-0.0125 J0.0
G2 Y104.9924 Z-0.6667 I0.0062 J0.0108
G2 X42.0644 Y104.9815 Z-0.7 I0.0063 J-0.0108
G2 X42.0457 Y104.9707 Z-0.7333 I-0.0125 J0.0
G2 Y104.9924 Z-0.7667 I0.0062 J0.0108
G2 X42.0644 Y104.9815 Z-0.8 I0.0063 J-0.0108
G2 X42.0457 Y104.9707 Z-0.8333 I-0.0125 J0.0
G2 Y104.9924 Z-0.8667 I0.0062 J0.0108
G2 X42.0644 Y104.9815 Z-0.9 I0.0063 J-0.0108
G2 X42.0457 Y104.9707 Z-0.9333 I-0.0125 J0.0
G2 Y104.9924 Z-0.9667 I0.0062 J0.0108
G2 X42.0644 Y104.9815 Z-1.0 I0.0063 J-0.0108
G2 X42.0457 Y104.9707 Z-1.0333 I-0.0125 J0.0
G2 Y104.9924 Z-1.0667 I0.0062 J0.0108
G2 X42.0644 Y104.9815 Z-1.1 I0.0063 J-0.0108
G2 X42.0457 Y104.9707 Z-1.1333 I-0.0125 J0.0
G2 Y104.9924 Z-1.1667 I0.0062 J0.0108
G2 X42.0644 Y104.9815 Z-1.2 I0.0063 J-0.0108
G2 X42.0457 Y104.9707 Z-1.2333 I-0.0125 J0.0
G2 Y104.9924 Z-1.2667 I0.0062 J0.0108
G2 X42.0644 Y104.9815 Z-1.3 I0.0063 J-0.0108
G2 X42.0457 Y104.9707 Z-1.3333 I-0.0125 J0.0
G2 Y104.9924 Z-1.3667 I0.0062 J0.0108
G2 X42.0644 Y104.9815 Z-1.4 I0.0063 J-0.0108
G2 X42.0457 Y104.9707 Z-1.4333 I-0.0125 J0.0
G2 Y104.9924 Z-1.4667 I0.0062 J0.0108
G2 X42.0644 Y104.9815 Z-1.5 I0.0063 J-0.0108
G2 X42.0457 Y104.9707 Z-1.5333 I-0.0125 J0.0
G2 Y104.9924 Z-1.5667 I0.0062 J0.0108
G2 X42.0644 Y104.9815 Z-1.6 I0.0063 J-0.0108
G2 X42.0457 Y104.9707 Z-1.6333 I-0.0125 J0.0
G2 Y104.9924 Z-1.6667 I0.0062 J0.0108
G2 X42.0644 Y104.9815 Z-1.7 I0.0063 J-0.0108
G2 X42.0457 Y104.9707 Z-1.7333 I-0.0125 J0.0
G2 Y104.9924 Z-1.7667 I0.0062 J0.0108
G2 X42.0644 Y104.9815 Z-1.8 I0.0063 J-0.0108
G2 X42.0457 Y104.9707 Z-1.8333 I-0.0125 J0.0
G2 Y104.9924 Z-1.8667 I0.0062 J0.0108
G2 X42.0644 Y104.9815 Z-1.9 I0.0063 J-0.0108
G2 X42.0457 Y104.9707 Z-1.9333 I-0.0125 J0.0
G2 Y104.9924 Z-1.9667 I0.0062 J0.0108
G2 X42.0644 Y104.9815 Z-2.0 I0.0063 J-0.0108
G2 X42.0457 Y104.9707 Z-2.0333 I-0.0125 J0.0
G2 Y104.9924 Z-2.0667 I0.0062 J0.0108
G2 X42.0644 Y104.9815 Z-2.1 I0.0063 J-0.0108
G2 X42.0457 Y104.9707 Z-2.1333 I-0.0125 J0.0
G2 Y104.9924 Z-2.1667 I0.0062 J0.0108
G2 X42.0644 Y104.9815 Z-2.2 I0.0063 J-0.0108
G2 X42.0457 Y104.9707 Z-2.2333 I-0.0125 J0.0
G2 Y104.9924 Z-2.2667 I0.0062 J0.0108
G2 X42.0644 Y104.9815 Z-2.3 I0.0063 J-0.0108
G2 X42.0457 Y104.9707 Z-2.3333 I-0.0125 J0.0
G2 Y104.9924 Z-2.3667 I0.0062 J0.0108
G2 X42.0644 Y104.9815 Z-2.4 I0.0063 J-0.0108
G2 X42.0457 Y104.9707 Z-2.4333 I-0.0125 J0.0
G2 Y104.9924 Z-2.4667 I0.0062 J0.0108
G2 X42.0644 Y104.9815 Z-2.5 I0.0063 J-0.0108
G2 X42.0457 Y104.9707 Z-2.5333 I-0.0125 J0.0
G2 Y104.9924 Z-2.5667 I0.0062 J0.0108
G2 X42.0644 Y104.9815 Z-2.6 I0.0063 J-0.0108
G2 X42.0457 Y104.9707 Z-2.6333 I-0.0125 J0.0
G2 Y104.9924 Z-2.6667 I0.0062 J0.0108
G2 X42.0644 Y104.9815 Z-2.7 I0.0063 J-0.0108
G2 X42.0457 Y104.9707 Z-2.7333 I-0.0125 J0.0
G2 Y104.9924 Z-2.7667 I0.0062 J0.0108
G2 X42.0644 Y104.9815 Z-2.8 I0.0063 J-0.0108
G2 X42.0457 Y104.9707 Z-2.8333 I-0.0125 J0.0
G2 Y104.9924 Z-2.8667 I0.0062 J0.0108
G2 X42.0644 Y104.9815 Z-2.9 I0.0063 J-0.0108
G2 X42.0457 Y104.9707 Z-2.9333 I-0.0125 J0.0
G2 Y104.9924 Z-2.9667 I0.0063 J0.0108
G2 X42.0644 Y104.9815 Z-3.0 I0.0063 J-0.0108
G2 X42.0457 Y104.9707 Z-3.0333 I-0.0125 J0.0
G2 Y104.9924 Z-3.0667 I0.0063 J0.0108
G2 X42.0644 Y104.9815 Z-3.1 I0.0063 J-0.0108
G2 X42.0457 Y104.9707 Z-3.1333 I-0.0125 J0.0
G2 Y104.9924 Z-3.1667 I0.0063 J0.0108
G2 X42.0644 Y104.9815 Z-3.2 I0.0063 J-0.0108
G2 X42.0457 Y104.9707 I-0.0125 J0.0
G2 Y104.9924 I0.0063 J0.0108
G2 X42.0644 Y104.9815 I0.0062 J-0.0108
G0 Z3.0
G0 X42.0874 Y92.2967
G1 F1000.0 Z0.0
G2 F2000.0 X42.0687 Y92.2859 Z-0.0333 I-0.0125 J0.0
G2 Y92.3075 Z-0.0667 I0.0062 J0.0108
G2 X42.0874 Y92.2967 Z-0.1 I0.0063 J-0.0108
G2 X42.0687 Y92.2859 Z-0.1333 I-0.0125 J0.0
G2 Y92.3075 Z-0.1667 I0.0062 J0.0108
G2 X42.0874 Y92.2967 Z-0.2 I0.0063 J-0.0108
G2 X42.0687 Y92.2859 Z-0.2333 I-0.0125 J0.0
G2 Y92.3075 Z-0.2667 I0.0062 J0.0108
G2 X42.0874 Y92.2967 Z-0.3 I0.0063 J-0.0108
G2 X42.0687 Y92.2859 Z-0.3333 I-0.0125 J0.0
G2 Y92.3075 Z-0.3667 I0.0062 J0.0108
G2 X42.0874 Y92.2967 Z-0.4 I0.0063 J-0.0108
G2 X42.0687 Y92.2859 Z-0.4333 I-0.0125 J0.0
G2 Y92.3075 Z-0.4667 I0.0062 J0.0108
G2 X42.0874 Y92.2967 Z-0.5 I0.0063 J-0.0108
G2 X42.0687 Y92.2859 Z-0.5333 I-0.0125 J0.0
G2 Y92.3075 Z-0.5667 I0.0062 J0.0108
G2 X42.0874 Y92.2967 Z-0.6 I0.0063 J-0.0108
G2 X42.0687 Y92.2859 Z-0.6333 I-0.0125 J0.0
G2 Y92.3075 Z-0.6667 I0.0062 J0.0108
G2 X42.0874 Y92.2967 Z-0.7 I0.0063 J-0.0108
G2 X42.0687 Y92.2859 Z-0.7333 I-0.0125 J0.0
G2 Y92.3075 Z-0.7667 I0.0062 J0.0108
G2 X42.0874 Y92.2967 Z-0.8 I0.0063 J-0.0108
G2 X42.0687 Y92.2859 Z-0.8333 I-0.0125 J0.0
G2 Y92.3075 Z-0.8667 I0.0062 J0.0108
G2 X42.0874 Y92.2967 Z-0.9 I0.0063 J-0.0108
G2 X42.0687 Y92.2859 Z-0.9333 I-0.0125 J0.0
G2 Y92.3075 Z-0.9667 I0.0062 J0.0108
G2 X42.0874 Y92.2967 Z-1.0 I0.0063 J-0.0108
G2 X42.0687 Y92.2859 Z-1.0333 I-0.0125 J0.0
G2 Y92.3075 Z-1.0667 I0.0062 J0.0108
G2 X42.0874 Y92.2967 Z-1.1 I0.0063 J-0.0108
G2 X42.0687 Y92.2859 Z-1.1333 I-0.0125 J0.0
G2 Y92.3075 Z-1.1667 I0.0062 J0.0108
G2 X42.0874 Y92.2967 Z-1.2 I0.0063 J-0.0108
G2 X42.0687 Y92.2859 Z-1.2333 I-0.0125 J0.0
G2 Y92.3075 Z-1.2667 I0.0062 J0.0108
G2 X42.0874 Y92.2967 Z-1.3 I0.0063 J-0.0108
G2 X42.0687 Y92.2859 Z-1.3333 I-0.0125 J0.0
G2 Y92.3075 Z-1.3667 I0.0062 J0.0108
G2 X42.0874 Y92.2967 Z-1.4 I0.0063 J-0.0108
G2 X42.0687 Y92.2859 Z-1.4333 I-0.0125 J0.0
G2 Y92.3075 Z-1.4667 I0.0062 J0.0108
G2 X42.0874 Y92.2967 Z-1.5 I0.0063 J-0.0108
G2 X42.0687 Y92.2859 Z-1.5333 I-0.0125 J0.0
G2 Y92.3075 Z-1.5667 I0.0062 J0.0108
G2 X42.0874 Y92.2967 Z-1.6 I0.0063 J-0.0108
G2 X42.0687 Y92.2859 Z-1.6333 I-0.0125 J0.0
G2 Y92.3075 Z-1.6667 I0.0062 J0.0108
G2 X42.0874 Y92.2967 Z-1.7 I0.0063 J-0.0108
G2 X42.0687 Y92.2859 Z-1.7333 I-0.0125 J0.0
G2 Y92.3075 Z-1.7667 I0.0062 J0.0108
G2 X42.0874 Y92.2967 Z-1.8 I0.0063 J-0.0108
G2 X42.0687 Y92.2859 Z-1.8333 I-0.0125 J0.0
G2 Y92.3075 Z-1.8667 I0.0062 J0.0108
G2 X42.0874 Y92.2967 Z-1.9 I0.0063 J-0.0108
G2 X42.0687 Y92.2859 Z-1.9333 I-0.0125 J0.0
G2 Y92.3075 Z-1.9667 I0.0062 J0.0108
G2 X42.0874 Y92.2967 Z-2.0 I0.0063 J-0.0108
G2 X42.0687 Y92.2859 Z-2.0333 I-0.0125 J0.0
G2 Y92.3075 Z-2.0667 I0.0062 J0.0108
G2 X42.0874 Y92.2967 Z-2.1 I0.0063 J-0.0108
G2 X42.0687 Y92.2859 Z-2.1333 I-0.0125 J0.0
G2 Y92.3075 Z-2.1667 I0.0062 J0.0108
G2 X42.0874 Y92.2967 Z-2.2 I0.0063 J-0.0108
G2 X42.0687 Y92.2859 Z-2.2333 I-0.0125 J0.0
G2 Y92.3075 Z-2.2667 I0.0062 J0.0108
G2 X42.0874 Y92.2967 Z-2.3 I0.0063 J-0.0108
G2 X42.0687 Y92.2859 Z-2.3333 I-0.0125 J0.0
G2 Y92.3075 Z-2.3667 I0.0062 J0.0108
G2 X42.0874 Y92.2967 Z-2.4 I0.0063 J-0.0108
G2 X42.0687 Y92.2859 Z-2.4333 I-0.0125 J0.0
G2 Y92.3075 Z-2.4667 I0.0062 J0.0108
G2 X42.0874 Y92.2967 Z-2.5 I0.0063 J-0.0108
G2 X42.0687 Y92.2859 Z-2.5333 I-0.0125 J0.0
G2 Y92.3075 Z-2.5667 I0.0062 J0.0108
G2 X42.0874 Y92.2967 Z-2.6 I0.0063 J-0.0108
G2 X42.0687 Y92.2859 Z-2.6333 I-0.0125 J0.0
G2 Y92.3075 Z-2.6667 I0.0062 J0.0108
G2 X42.0874 Y92.2967 Z-2.7 I0.0063 J-0.0108
G2 X42.0687 Y92.2859 Z-2.7333 I-0.0125 J0.0
G2 Y92.3075 Z-2.7667 I0.0062 J0.0108
G2 X42.0874 Y92.2967 Z-2.8 I0.0063 J-0.0108
G2 X42.0687 Y92.2859 Z-2.8333 I-0.0125 J0.0
G2 Y92.3075 Z-2.8667 I0.0062 J0.0108
G2 X42.0874 Y92.2967 Z-2.9 I0.0063 J-0.0108
G2 X42.0687 Y92.2859 Z-2.9333 I-0.0125 J0.0
G2 Y92.3075 Z-2.9667 I0.0063 J0.0108
G2 X42.0874 Y92.2967 Z-3.0 I0.0063 J-0.0108
G2 X42.0687 Y92.2859 Z-3.0333 I-0.0125 J0.0
G2 Y92.3075 Z-3.0667 I0.0063 J0.0108
G2 X42.0874 Y92.2967 Z-3.1 I0.0063 J-0.0108
G2 X42.0687 Y92.2859 Z-3.1333 I-0.0125 J0.0
G2 Y92.3075 Z-3.1667 I0.0063 J0.0108
G2 X42.0874 Y92.2967 Z-3.2 I0.0063 J-0.0108
G2 X42.0687 Y92.2859 I-0.0125 J0.0
G2 Y92.3075 I0.0063 J0.0108
G2 X42.0874 Y92.2967 I0.0062 J-0.0108
G0 Z3.0
G0 X44.3318 Y125.3138
G1 F1000.0 Z0.0
G2 F2000.0 X44.3131 Y125.303 Z-0.0333 I-0.0125 J0.0
G2 Y125.3246 Z-0.0667 I0.0062 J0.0108
G2 X44.3318 Y125.3138 Z-0.1 I0.0063 J-0.0108
G2 X44.3131 Y125.303 Z-0.1333 I-0.0125 J0.0
G2 Y125.3246 Z-0.1667 I0.0062 J0.0108
G2 X44.3318 Y125.3138 Z-0.2 I0.0063 J-0.0108
G2 X44.3131 Y125.303 Z-0.2333 I-0.0125 J0.0
G2 Y125.3246 Z-0.2667 I0.0062 J0.0108
G2 X44.3318 Y125.3138 Z-0.3 I0.0063 J-0.0108
G2 X44.3131 Y125.303 Z-0.3333 I-0.0125 J0.0
G2 Y125.3246 Z-0.3667 I0.0062 J0.0108
G2 X44.3318 Y125.3138 Z-0.4 I0.0063 J-0.0108
G2 X44.3131 Y125.303 Z-0.4333 I-0.0125 J0.0
G2 Y125.3246 Z-0.4667 I0.0062 J0.0108
G2 X44.3318 Y125.3138 Z-0.5 I0.0063 J-0.0108
G2 X44.3131 Y125.303 Z-0.5333 I-0.0125 J0.0
G2 Y125.3246 Z-0.5667 I0.0062 J0.0108
G2 X44.3318 Y125.3138 Z-0.6 I0.0063 J-0.0108
G2 X44.3131 Y125.303 Z-0.6333 I-0.0125 J0.0
G2 Y125.3246 Z-0.6667 I0.0062 J0.0108
G2 X44.3318 Y125.3138 Z-0.7 I0.0063 J-0.0108
G2 X44.3131 Y125.303 Z-0.7333 I-0.0125 J0.0
G2 Y125.3246 Z-0.7667 I0.0062 J0.0108
G2 X44.3318 Y125.3138 Z-0.8 I0.0063 J-0.0108
G2 X44.3131 Y125.303 Z-0.8333 I-0.0125 J0.0
G2 Y125.3246 Z-0.8667 I0.0062 J0.0108
G2 X44.3318 Y125.3138 Z-0.9 I0.0063 J-0.0108
G2 X44.3131 Y125.303 Z-0.9333 I-0.0125 J0.0
G2 Y125.3246 Z-0.9667 I0.0062 J0.0108
G2 X44.3318 Y125.3138 Z-1.0 I0.0063 J-0.0108
G2 X44.3131 Y125.303 Z-1.0333 I-0.0125 J0.0
G2 Y125.3246 Z-1.0667 I0.0062 J0.0108
G2 X44.3318 Y125.3138 Z-1.1 I0.0063 J-0.0108
G2 X44.3131 Y125.303 Z-1.1333 I-0.0125 J0.0
G2 Y125.3246 Z-1.1667 I0.0062 J0.0108
G2 X44.3318 Y125.3138 Z-1.2 I0.0063 J-0.0108
G2 X44.3131 Y125.303 Z-1.2333 I-0.0125 J0.0
G2 Y125.3246 Z-1.2667 I0.0062 J0.0108
G2 X44.3318 Y125.3138 Z-1.3 I0.0063 J-0.0108
G2 X44.3131 Y125.303 Z-1.3333 I-0.0125 J0.0
G2 Y125.3246 Z-1.3667 I0.0062 J0.0108
G2 X44.3318 Y125.3138 Z-1.4 I0.0063 J-0.0108
G2 X44.3131 Y125.303 Z-1.4333 I-0.0125 J0.0
G2 Y125.3246 Z-1.4667 I0.0062 J0.0108
G2 X44.3318 Y125.3138 Z-1.5 I0.0063 J-0.0108
G2 X44.3131 Y125.303 Z-1.5333 I-0.0125 J0.0
G2 Y125.3246 Z-1.5667 I0.0062 J0.0108
G2 X44.3318 Y125.3138 Z-1.6 I0.0063 J-0.0108
G2 X44.3131 Y125.303 Z-1.6333 I-0.0125 J0.0
G2 Y125.3246 Z-1.6667 I0.0062 J0.0108
G2 X44.3318 Y125.3138 Z-1.7 I0.0063 J-0.0108
G2 X44.3131 Y125.303 Z-1.7333 I-0.0125 J0.0
G2 Y125.3246 Z-1.7667 I0.0062 J0.0108
G2 X44.3318 Y125.3138 Z-1.8 I0.0063 J-0.0108
G2 X44.3131 Y125.303 Z-1.8333 I-0.0125 J0.0
G2 Y125.3246 Z-1.8667 I0.0062 J0.0108
G2 X44.3318 Y125.3138 Z-1.9 I0.0063 J-0.0108
G2 X44.3131 Y125.303 Z-1.9333 I-0.0125 J0.0
G2 Y125.3246 Z-1.9667 I0.0062 J0.0108
G2 X44.3318 Y125.3138 Z-2.0 I0.0063 J-0.0108
G2 X44.3131 Y125.303 Z-2.0333 I-0.0125 J0.0
G2 Y125.3246 Z-2.0667 I0.0062 J0.0108
G2 X44.3318 Y125.3138 Z-2.1 I0.0063 J-0.0108
G2 X44.3131 Y125.303 Z-2.1333 I-0.0125 J0.0
G2 Y125.3246 Z-2.1667 I0.0062 J0.0108
G2 X44.3318 Y125.3138 Z-2.2 I0.0063 J-0.0108
G2 X44.3131 Y125.303 Z-2.2333 I-0.0125 J0.0
G2 Y125.3246 Z-2.2667 I0.0062 J0.0108
G2 X44.3318 Y125.3138 Z-2.3 I0.0063 J-0.0108
G2 X44.3131 Y125.303 Z-2.3333 I-0.0125 J0.0
G2 Y125.3246 Z-2.3667 I0.0062 J0.0108
G2 X44.3318 Y125.3138 Z-2.4 I0.0063 J-0.0108
G2 X44.3131 Y125.303 Z-2.4333 I-0.0125 J0.0
G2 Y125.3246 Z-2.4667 I0.0062 J0.0108
G2 X44.3318 Y125.3138 Z-2.5 I0.0063 J-0.0108
G2 X44.3131 Y125.303 Z-2.5333 I-0.0125 J0.0
G2 Y125.3246 Z-2.5667 I0.0062 J0.0108
G2 X44.3318 Y125.3138 Z-2.6 I0.0063 J-0.0108
G2 X44.3131 Y125.303 Z-2.6333 I-0.0125 J0.0
G2 Y125.3246 Z-2.6667 I0.0062 J0.0108
G2 X44.3318 Y125.3138 Z-2.7 I0.0063 J-0.0108
G2 X44.3131 Y125.303 Z-2.7333 I-0.0125 J0.0
G2 Y125.3246 Z-2.7667 I0.0062 J0.0108
G2 X44.3318 Y125.3138 Z-2.8 I0.0063 J-0.0108
G2 X44.3131 Y125.303 Z-2.8333 I-0.0125 J0.0
G2 Y125.3246 Z-2.8667 I0.0062 J0.0108
G2 X44.3318 Y125.3138 Z-2.9 I0.0063 J-0.0108
G2 X44.3131 Y125.303 Z-2.9333 I-0.0125 J0.0
G2 Y125.3246 Z-2.9667 I0.0063 J0.0108
G2 X44.3318 Y125.3138 Z-3.0 I0.0063 J-0.0108
G2 X44.3131 Y125.303 Z-3.0333 I-0.0125 J0.0
G2 Y125.3246 Z-3.0667 I0.0063 J0.0108
G2 X44.3318 Y125.3138 Z-3.1 I0.0063 J-0.0108
G2 X44.3131 Y125.303 Z-3.1333 I-0.0125 J0.0
G2 Y125.3246 Z-3.1667 I0.0063 J0.0108
G2 X44.3318 Y125.3138 Z-3.2 I0.0063 J-0.0108
G2 X44.3131 Y125.303 I-0.0125 J0.0
G2 Y125.3246 I0.0063 J0.0108
G2 X44.3318 Y125.3138 I0.0062 J-0.0108
( cutout )
S1000
G0 Z3.0
G0 X18.286 Y-1.5801
G1 F1000.0 Z-0.1
G1 F2000.0 X0.0205
G2 X-1.567 Y0.0074 I0.0 J1.5875
G1 Y128.4775
G2 X0.0205 Y130.065 I1.5875 J0.0
G1 X50.5965
G2 X52.184 Y128.4775 I0.0 J-1.5875
G1 Y0.0074
G2 X50.5965 Y-1.5801 I-1.5875 J0.0
G1 X18.286
G1 F1000.0 Z-0.2
G1 F2000.0 X0.0205
G2 X-1.567 Y0.0074 I0.0 J1.5875
G1 Y128.4775
G2 X0.0205 Y130.065 I1.5875 J0.0
G1 X50.5965
G2 X52.184 Y128.4775 I0.0 J-1.5875
G1 Y0.0074
G2 X50.5965 Y-1.5801 I-1.5875 J0.0
G1 X18.286
G1 F1000.0 Z-0.3
G1 F2000.0 X0.0205
G2 X-1.567 Y0.0074 I0.0 J1.5875
G1 Y128.4775
G2 X0.0205 Y130.065 I1.5875 J0.0
G1 X50.5965
G2 X52.184 Y128.4775 I0.0 J-1.5875
G1 Y0.0074
G2 X50.5965 Y-1.5801 I-1.5875 J0.0
G1 X18.286
G1 F1000.0 Z-0.4
G1 F2000.0 X0.0205
G2 X-1.567 Y0.0074 I0.0 J1.5875
G1 Y128.4775
G2 X0.0205 Y130.065 I1.5875 J0.0
G1 X50.5965
G2 X52.184 Y128.4775 I0.0 J-1.5875
G1 Y0.0074
G2 X50.5965 Y-1.5801 I-1.5875 J0.0
G1 X18.286
G1 F1000.0 Z-0.5
G1 F2000.0 X0.0205
G2 X-1.567 Y0.0074 I0.0 J1.5875
G1 Y128.4775
G2 X0.0205 Y130.065 I1.5875 J0.0
G1 X50.5965
G2 X52.184 Y128.4775 I0.0 J-1.5875
G1 Y0.0074
G2 X50.5965 Y-1.5801 I-1.5875 J0.0
G1 X18.286
G1 F1000.0 Z-0.6
G1 F2000.0 X0.0205
G2 X-1.567 Y0.0074 I0.0 J1.5875
G1 Y128.4775
G2 X0.0205 Y130.065 I1.5875 J0.0
G1 X50.5965
G2 X52.184 Y128.4775 I0.0 J-1.5875
G1 Y0.0074
G2 X50.5965 Y-1.5801 I-1.5875 J0.0
G1 X18.286
G1 F1000.0 Z-0.7
G1 F2000.0 X0.0205
G2 X-1.567 Y0.0074 I0.0 J1.5875
G1 Y128.4775
G2 X0.0205 Y130.065 I1.5875 J0.0
G1 X50.5965
G2 X52.184 Y128.4775 I0.0 J-1.5875
G1 Y0.0074
G2 X50.5965 Y-1.5801 I-1.5875 J0.0
G1 X18.286
G1 F1000.0 Z-0.8
G1 F2000.0 X0.0205
G2 X-1.567 Y0.0074 I0.0 J1.5875
G1 Y128.4775
G2 X0.0205 Y130.065 I1.5875 J0.0
G1 X50.5965
G2 X52.184 Y128.4775 I0.0 J-1.5875
G1 Y0.0074
G2 X50.5965 Y-1.5801 I-1.5875 J0.0
G1 X18.286
G1 F1000.0 Z-0.9
G1 F2000.0 X0.0205
G2 X-1.567 Y0.0074 I0.0 J1.5875
G1 Y128.4775
G2 X0.0205 Y130.065 I1.5875 J0.0
G1 X50.5965
G2 X52.184 Y128.4775 I0.0 J-1.5875
G1 Y0.0074
G2 X50.5965 Y-1.5801 I-1.5875 J0.0
G1 X18.286
G1 F1000.0 Z-1.0
G1 F2000.0 X0.0205
G2 X-1.567 Y0.0074 I0.0 J1.5875
G1 Y128.4775
G2 X0.0205 Y130.065 I1.5875 J0.0
G1 X50.5965
G2 X52.184 Y128.4775 I0.0 J-1.5875
G1 Y0.0074
G2 X50.5965 Y-1.5801 I-1.5875 J0.0
G1 X18.286
G1 F1000.0 Z-1.1
G1 F2000.0 X0.0205
G2 X-1.567 Y0.0074 I0.0 J1.5875
G1 Y128.4775
G2 X0.0205 Y130.065 I1.5875 J0.0
G1 X50.5965
G2 X52.184 Y128.4775 I0.0 J-1.5875
G1 Y0.0074
G2 X50.5965 Y-1.5801 I-1.5875 J0.0
G1 X18.286
G1 F1000.0 Z-1.2
G1 F2000.0 X0.0205
G2 X-1.567 Y0.0074 I0.0 J1.5875
G1 Y128.4775
G2 X0.0205 Y130.065 I1.5875 J0.0
G1 X50.5965
G2 X52.184 Y128.4775 I0.0 J-1.5875
G1 Y0.0074
G2 X50.5965 Y-1.5801 I-1.5875 J0.0
G1 X18.286
G1 F1000.0 Z-1.3
G1 F2000.0 X0.0205
G2 X-1.567 Y0.0074 I0.0 J1.5875
G1 Y26.699
G1 Y28.7865 Z-1.2
G1 Y30.874 Z-1.3
G1 Y120.7885
G1 Y122.876 Z-1.2
G1 Y124.9635 Z-1.3
G1 Y128.4775
G2 X0.0205 Y130.065 I1.5875 J0.0
G1 X50.5965
G2 X52.184 Y128.4775 I0.0 J-1.5875
G1 Y92.6531
G1 Y90.5656 Z-1.2
G1 Y88.4781 Z-1.3
G1 Y0.0074
G2 X50.5965 Y-1.5801 I-1.5875 J0.0
G1 X49.1527
G1 X47.0652 Z-1.2
G1 X44.9777 Z-1.3
G1 X18.286
G1 F1000.0 Z-1.4
G1 F2000.0 X0.0205
G2 X-1.567 Y0.0074 I0.0 J1.5875
G1 Y26.699
G1 Y28.7865 Z-1.2
G1 Y30.874 Z-1.4
G1 Y120.7885
G1 Y122.876 Z-1.2
G1 Y124.9635 Z-1.4
G1 Y128.4775
G2 X0.0205 Y130.065 I1.5875 J0.0
G1 X50.5965
G2 X52.184 Y128.4775 I0.0 J-1.5875
G1 Y92.6531
G1 Y90.5656 Z-1.2
G1 Y88.4781 Z-1.4
G1 Y0.0074
G2 X50.5965 Y-1.5801 I-1.5875 J0.0
G1 X49.1527
G1 X47.0652 Z-1.2
G1 X44.9777 Z-1.4
G1 X18.286
G1 F1000.0 Z-1.5
G1 F2000.0 X0.0205
G2 X-1.567 Y0.0074 I0.0 J1.5875
G1 Y26.699
G1 Y28.7865 Z-1.2
G1 Y30.874 Z-1.5
G1 Y120.7885
G1 Y122.876 Z-1.2
G1 Y124.9635 Z-1.5
G1 Y128.4775
G2 X0.0205 Y130.065 I1.5875 J0.0
G1 X50.5965
G2 X52.184 Y128.4775 I0.0 J-1.5875
G1 Y92.6531
G1 Y90.5656 Z-1.2
G1 Y88.4781 Z-1.5
G1 Y0.0074
G2 X50.5965 Y-1.5801 I-1.5875 J0.0
G1 X49.1527
G1 X47.0652 Z-1.2
G1 X44.9777 Z-1.5
G1 X18.286
G1 F1000.0 Z-1.6
G1 F2000.0 X0.0205
G2 X-1.567 Y0.0074 I0.0 J1.5875
G1 Y26.699
G1 Y28.7865 Z-1.2
G1 Y30.874 Z-1.6
G1 Y120.7885
G1 Y122.876 Z-1.2
G1 Y124.9635 Z-1.6
G1 Y128.4775
G2 X0.0205 Y130.065 I1.5875 J0.0
G1 X50.5965
G2 X52.184 Y128.4775 I0.0 J-1.5875
G1 Y92.6531
G1 Y90.5656 Z-1.2
G1 Y88.4781 Z-1.6
G1 Y0.0074
G2 X50.5965 Y-1.5801 I-1.5875 J0.0
G1 X49.1527
G1 X47.0652 Z-1.2
G1 X44.9777 Z-1.6
G1 X18.286
G1 F1000.0 Z-1.7
G1 F2000.0 X0.0205
G2 X-1.567 Y0.0074 I0.0 J1.5875
G1 Y26.699
G1 Y28.7865 Z-1.2
G1 Y30.874 Z-1.7
G1 Y120.7885
G1 Y122.876 Z-1.2
G1 Y124.9635 Z-1.7
G1 Y128.4775
G2 X0.0205 Y130.065 I1.5875 J0.0
G1 X50.5965
G2 X52.184 Y128.4775 I0.0 J-1.5875
G1 Y92.6531
G1 Y90.5656 Z-1.2
G1 Y88.4781 Z-1.7
G1 Y0.0074
G2 X50.5965 Y-1.5801 I-1.5875 J0.0
G1 X49.1527
G1 X47.0652 Z-1.2
G1 X44.9777 Z-1.7
G1 X18.286
G1 F1000.0 Z-1.8
G1 F2000.0 X0.0205
G2 X-1.567 Y0.0074 I0.0 J1.5875
G1 Y26.699
G1 Y28.7865 Z-1.2
G1 Y30.874 Z-1.8
G1 Y120.7885
G1 Y122.876 Z-1.2
G1 Y124.9635 Z-1.8
G1 Y128.4775
G2 X0.0205 Y130.065 I1.5875 J0.0
G1 X50.5965
G2 X52.184 Y128.4775 I0.0 J-1.5875
G1 Y92.6531
G1 Y90.5656 Z-1.2
G1 Y88.4781 Z-1.8
G1 Y0.0074
G2 X50.5965 Y-1.5801 I-1.5875 J0.0
G1 X49.1527
G1 X47.0652 Z-1.2
G1 X44.9777 Z-1.8
G1 X18.286
G1 F1000.0 Z-1.9
G1 F2000.0 X0.0205
G2 X-1.567 Y0.0074 I0.0 J1.5875
G1 Y26.699
G1 Y28.7865 Z-1.2
G1 Y30.874 Z-1.9
G1 Y120.7885
G1 Y122.876 Z-1.2
G1 Y124.9635 Z-1.9
G1 Y128.4775
G2 X0.0205 Y130.065 I1.5875 J0.0
G1 X50.5965
G2 X52.184 Y128.4775 I0.0 J-1.5875
G1 Y92.6531
G1 Y90.5656 Z-1.2
G1 Y88.4781 Z-1.9
G1 Y0.0074
G2 X50.5965 Y-1.5801 I-1.5875 J0.0
G1 X49.1527
G1 X47.0652 Z-1.2
G1 X44.9777 Z-1.9
G1 X18.286
G1 F1000.0 Z-2.0
G1 F2000.0 X0.0205
G2 X-1.567 Y0.0074 I0.0 J1.5875
G1 Y26.699
G1 Y28.7865 Z-1.2
G1 Y30.874 Z-2.0
G1 Y120.7885
G1 Y122.876 Z-1.2
G1 Y124.9635 Z-2.0
G1 Y128.4775
G2 X0.0205 Y130.065 I1.5875 J0.0
G1 X50.5965
G2 X52.184 Y128.4775 I0.0 J-1.5875
G1 Y92.6531
G1 Y90.5656 Z-1.2
G1 Y88.4781 Z-2.0
G1 Y0.0074
G2 X50.5965 Y-1.5801 I-1.5875 J0.0
G1 X49.1527
G1 X47.0652 Z-1.2
G1 X44.9777 Z-2.0
G1 X18.286
G1 F1000.0 Z-2.1
G1 F2000.0 X0.0205
G2 X-1.567 Y0.0074 I0.0 J1.5875
G1 Y26.699
G1 Y28.7865 Z-1.2
G1 Y30.874 Z-2.1
G1 Y120.7885
G1 Y122.876 Z-1.2
G1 Y124.9635 Z-2.1
G1 Y128.4775
G2 X0.0205 Y130.065 I1.5875 J0.0
G1 X50.5965
G2 X52.184 Y128.4775 I0.0 J-1.5875
G1 Y92.6531
G1 Y90.5656 Z-1.2
G1 Y88.4781 Z-2.1
G1 Y0.0074
G2 X50.5965 Y-1.5801 I-1.5875 J0.0
G1 X49.1527
G1 X47.0652 Z-1.2
G1 X44.9777 Z-2.1
G1 X18.286
G1 F1000.0 Z-2.2
G1 F2000.0 X0.0205
G2 X-1.567 Y0.0074 I0.0 J1.5875
G1 Y26.699
G1 Y28.7865 Z-1.2
G1 Y30.874 Z-2.2
G1 Y120.7885
G1 Y122.876 Z-1.2
G1 Y124.9635 Z-2.2
G1 Y128.4775
G2 X0.0205 Y130.065 I1.5875 J0.0
G1 X50.5965
G2 X52.184 Y128.4775 I0.0 J-1.5875
G1 Y92.6531
G1 Y90.5656 Z-1.2
G1 Y88.4781 Z-2.2
G1 Y0.0074
G2 X50.5965 Y-1.5801 I-1.5875 J0.0
G1 X49.1527
G1 X47.0652 Z-1.2
G1 X44.9777 Z-2.2
G1 X18.286
G1 F1000.0 Z-2.3
G1 F2000.0 X0.0205
G2 X-1.567 Y0.0074 I0.0 J1.5875
G1 Y26.699
G1 Y28.7865 Z-1.2
G1 Y30.874 Z-2.3
G1 Y120.7885
G1 Y122.876 Z-1.2
G1 Y124.9635 Z-2.3
G1 Y128.4775
G2 X0.0205 Y130.065 I1.5875 J0.0
G1 X50.5965
G2 X52.184 Y128.4775 I0.0 J-1.5875
G1 Y92.6531
G1 Y90.5656 Z-1.2
G1 Y88.4781 Z-2.3
G1 Y0.0074
G2 X50.5965 Y-1.5801 I-1.5875 J0.0
G1 X49.1527
G1 X47.0652 Z-1.2
G1 X44.9777 Z-2.3
G1 X18.286
G1 F1000.0 Z-2.4
G1 F2000.0 X0.0205
G2 X-1.567 Y0.0074 I0.0 J1.5875
G1 Y26.699
G1 Y28.7865 Z-1.2
G1 Y30.874 Z-2.4
G1 Y120.7885
G1 Y122.876 Z-1.2
G1 Y124.9635 Z-2.4
G1 Y128.4775
G2 X0.0205 Y130.065 I1.5875 J0.0
G1 X50.5965
G2 X52.184 Y128.4775 I0.0 J-1.5875
G1 Y92.6531
G1 Y90.5656 Z-1.2
G1 Y88.4781 Z-2.4
G1 Y0.0074
G2 X50.5965 Y-1.5801 I-1.5875 J0.0
G1 X49.1527
G1 X47.0652 Z-1.2
G1 X44.9777 Z-2.4
G1 X18.286
G1 F1000.0 Z-2.5
G1 F2000.0 X0.0205
G2 X-1.567 Y0.0074 I0.0 J1.5875
G1 Y26.699
G1 Y28.7865 Z-1.2
G1 Y30.874 Z-2.5
G1 Y120.7885
G1 Y122.876 Z-1.2
G1 Y124.9635 Z-2.5
G1 Y128.4775
G2 X0.0205 Y130.065 I1.5875 J0.0
G1 X50.5965
G2 X52.184 Y128.4775 I0.0 J-1.5875
G1 Y92.6531
G1 Y90.5656 Z-1.2
G1 Y88.4781 Z-2.5
G1 Y0.0074
G2 X50.5965 Y-1.5801 I-1.5875 J0.0
G1 X49.1527
G1 X47.0652 Z-1.2
G1 X44.9777 Z-2.5
G1 X18.286
G1 F1000.0 Z-2.6
G1 F2000.0 X0.0205
G2 X-1.567 Y0.0074 I0.0 J1.5875
G1 Y26.699
G1 Y28.7865 Z-1.2
G1 Y30.874 Z-2.6
G1 Y120.7885
G1 Y122.876 Z-1.2
G1 Y124.9635 Z-2.6
G1 Y128.4775
G2 X0.0205 Y130.065 I1.5875 J0.0
G1 X50.5965
G2 X52.184 Y128.4775 I0.0 J-1.5875
G1 Y92.6531
G1 Y90.5656 Z-1.2
G1 Y88.4781 Z-2.6
G1 Y0.0074
G2 X50.5965 Y-1.5801 I-1.5875 J0.0
G1 X49.1527
G1 X47.0652 Z-1.2
G1 X44.9777 Z-2.6
G1 X18.286
G1 F1000.0 Z-2.7
G1 F2000.0 X0.0205
G2 X-1.567 Y0.0074 I0.0 J1.5875
G1 Y26.699
G1 Y28.7865 Z-1.2
G1 Y30.874 Z-2.7
G1 Y120.7885
G1 Y122.876 Z-1.2
G1 Y124.9635 Z-2.7
G1 Y128.4775
G2 X0.0205 Y130.065 I1.5875 J0.0
G1 X50.5965
G2 X52.184 Y128.4775 I0.0 J-1.5875
G1 Y92.6531
G1 Y90.5656 Z-1.2
G1 Y88.4781 Z-2.7
G1 Y0.0074
G2 X50.5965 Y-1.5801 I-1.5875 J0.0
G1 X49.1527
G1 X47.0652 Z-1.2
G1 X44.9777 Z-2.7
G1 X18.286
G1 F1000.0 Z-2.8
G1 F2000.0 X0.0205
G2 X-1.567 Y0.0074 I0.0 J1.5875
G1 Y26.699
G1 Y28.7865 Z-1.2
G1 Y30.874 Z-2.8
G1 Y120.7885
G1 Y122.876 Z-1.2
G1 Y124.9635 Z-2.8
G1 Y128.4775
G2 X0.0205 Y130.065 I1.5875 J0.0
G1 X50.5965
G2 X52.184 Y128.4775 I0.0 J-1.5875
G1 Y92.6531
G1 Y90.5656 Z-1.2
G1 Y88.4781 Z-2.8
G1 Y0.0074
G2 X50.5965 Y-1.5801 I-1.5875 J0.0
G1 X49.1527
G1 X47.0652 Z-1.2
G1 X44.9777 Z-2.8
G1 X18.286
G1 F1000.0 Z-2.9
G1 F2000.0 X0.0205
G2 X-1.567 Y0.0074 I0.0 J1.5875
G1 Y26.699
G1 Y28.7865 Z-1.2
G1 Y30.874 Z-2.9
G1 Y120.7885
G1 Y122.876 Z-1.2
G1 Y124.9635 Z-2.9
G1 Y128.4775
G2 X0.0205 Y130.065 I1.5875 J0.0
G1 X50.5965
G2 X52.184 Y128.4775 I0.0 J-1.5875
G1 Y92.6531
G1 Y90.5656 Z-1.2
G1 Y88.4781 Z-2.9
G1 Y0.0074
G2 X50.5965 Y-1.5801 I-1.5875 J0.0
G1 X49.1527
G1 X47.0652 Z-1.2
G1 X44.9777 Z-2.9
G1 X18.286
G1 F1000.0 Z-3.0
G1 F2000.0 X0.0205
G2 X-1.567 Y0.0074 I0.0 J1.5875
G1 Y26.699
G1 Y28.7865 Z-1.2
G1 Y30.874 Z-3.0
G1 Y120.7885
G1 Y122.876 Z-1.2
G1 Y124.9635 Z-3.0
G1 Y128.4775
G2 X0.0205 Y130.065 I1.5875 J0.0
G1 X50.5965
G2 X52.184 Y128.4775 I0.0 J-1.5875
G1 Y92.6531
G1 Y90.5656 Z-1.2
G1 Y88.4781 Z-3.0
G1 Y0.0074
G2 X50.5965 Y-1.5801 I-1.5875 J0.0
G1 X49.1527
G1 X47.0652 Z-1.2
G1 X44.9777 Z-3.0
G1 X18.286
G1 F1000.0 Z-3.1
G1 F2000.0 X0.0205
G2 X-1.567 Y0.0074 I0.0 J1.5875
G1 Y26.699
G1 Y28.7865 Z-1.2
G1 Y30.874 Z-3.1
G1 Y120.7885
G1 Y122.876 Z-1.2
G1 Y124.9635 Z-3.1
G1 Y128.4775
G2 X0.0205 Y130.065 I1.5875 J0.0
G1 X50.5965
G2 X52.184 Y128.4775 I0.0 J-1.5875
G1 Y92.6531
G1 Y90.5656 Z-1.2
G1 Y88.4781 Z-3.1
G1 Y0.0074
G2 X50.5965 Y-1.5801 I-1.5875 J0.0
G1 X49.1527
G1 X47.0652 Z-1.2
G1 X44.9777 Z-3.1
G1 X18.286
G1 F1000.0 Z-3.2
G1 F2000.0 X0.0205
G2 X-1.567 Y0.0074 I0.0 J1.5875
G1 Y26.699
G1 Y28.7865 Z-1.2
G1 Y30.874 Z-3.2
G1 Y120.7885
G1 Y122.876 Z-1.2
G1 Y124.9635 Z-3.2
G1 Y128.4775
G2 X0.0205 Y130.065 I1.5875 J0.0
G1 X50.5965
G2 X52.184 Y128.4775 I0.0 J-1.5875
G1 Y92.6531
G1 Y90.5656 Z-1.2
G1 Y88.4781 Z-3.2
G1 Y0.0074
G2 X50.5965 Y-1.5801 I-1.5875 J0.0
G1 X49.1527
G1 X47.0652 Z-1.2
G1 X44.9777 Z-3.2
G1 X18.286
G0 Z3.0
M5
M30
