(/Applications/pcbgcode.repo/pcb-gcode.ulp)
(Copyright 2005 - 2012 by John Johnson)
(See readme.txt for licensing terms.)
(This file generated from the board:)
(.../eagle/atmega_midi_x0x_heart.brd)
(Current profile is .../pcbgcode.repo/profiles/mach.pp  )
(This file generated 2/14/16 3:22 PM)
(Settings from pcb-machine.h)
(spindle on time = 0.0000)
(  Tool Size)
(0.0100  )
(spindle speed = 30000.0000)
(tool change at 0.0000  0.0000  3.0000  )
(feed rate xy = F20    )
(feed rate z  = F10    )
(Z Axis Settings)
(  High     Up        Down     Drill)
(1.0000  	0.0500  	-0.0040 	-0.0730 )
(Settings from pcb-defaults.h)
(isolate min = 0.0010)
(isolate max = 0.0170)
(isolate step = 0.0017)
(Generated bottom outlines, bottom drill, )
(Unit of measure: inch)
(Inch Mode)
G20
(Absolute Coordinates)
G90
S30000
G00 Z1.0000  
G00 X0.0000  Y0.0000  
M03
G04 P0.000000
G00 Z0.0500  
G00 X-0.2574 Y0.5865  
G01 Z-0.0040 F10    
G01 X-0.2615 Y0.5824  F20    
G01 X-0.4824 Y0.3615  
G01 X-0.4865 Y0.3574  
G01 X-0.4915 Y0.3545  
G01 X-0.4971 Y0.3530  
G01 X-1.8779 Y0.3530  
G01 X-1.8835 Y0.3545  
G01 X-1.8885 Y0.3574  
G01 X-2.0385 Y0.5074  
G01 X-2.0426 Y0.5115  
G01 X-2.0455 Y0.5165  
G01 X-2.0470 Y0.5221  
G01 X-2.0470 Y1.9487  
G01 X-2.0472 Y1.9502  
G01 X-2.0470 Y1.9516  
G01 X-2.0470 Y1.9529  
G01 X-2.0466 Y1.9544  
G01 X-2.0464 Y1.9560  
G01 X-2.0458 Y1.9572  
G01 X-2.0455 Y1.9585  
G01 X-2.0447 Y1.9599  
G01 X-2.0441 Y1.9613  
G01 X-2.0433 Y1.9624  
G01 X-2.0426 Y1.9635  
G01 X-2.0415 Y1.9646  
G01 X-2.0405 Y1.9659  
G01 X-2.0395 Y1.9667  
G01 X-2.0385 Y1.9676  
G01 X-2.0371 Y1.9684  
G01 X-1.8395 Y2.1167  
G01 X-1.7720 Y2.1841  
G01 X-1.7720 Y2.3780  
G01 X-1.8112 Y2.3780  
G01 X-1.8322 Y2.3570  
G01 X-1.8678 Y2.3570  
G01 X-1.8888 Y2.3780  
G01 X-1.9112 Y2.3780  
G01 X-1.9322 Y2.3570  
G01 X-1.9678 Y2.3570  
G01 X-1.9930 Y2.3822  
G01 X-1.9930 Y2.4178  
G01 X-1.9678 Y2.4430  
G01 X-1.9322 Y2.4430  
G01 X-1.9112 Y2.4220  
G01 X-1.8888 Y2.4220  
G01 X-1.8678 Y2.4430  
G01 X-1.8322 Y2.4430  
G01 X-1.8112 Y2.4220  
G01 X-1.7471 Y2.4220  
G01 X-1.7415 Y2.4205  
G01 X-1.7365 Y2.4176  
G01 X-1.7324 Y2.4135  
G01 X-1.7295 Y2.4085  
G01 X-1.7280 Y2.4029  
G01 X-1.7280 Y2.1721  
G01 X-1.7295 Y2.1665  
G01 X-1.7324 Y2.1615  
G01 X-1.7365 Y2.1574  
G01 X-1.8085 Y2.0854  
G01 X-1.8095 Y2.0841  
G01 X-1.8105 Y2.0833  
G01 X-1.8115 Y2.0824  
G01 X-1.8129 Y2.0816  
G01 X-2.0030 Y1.9390  
G01 X-2.0030 Y0.5341  
G01 X-1.8659 Y0.3970  
G01 X-0.5091 Y0.3970  
G01 X-0.2970 Y0.6091  
G01 X-0.2970 Y0.9132  
G01 X-0.3616 Y0.9563  
G01 X-0.3635 Y0.9574  
G01 X-0.3640 Y0.9579  
G01 X-0.3646 Y0.9583  
G01 X-0.3661 Y0.9599  
G01 X-0.3676 Y0.9615  
G01 X-0.3680 Y0.9621  
G01 X-0.3684 Y0.9627  
G01 X-0.3694 Y0.9646  
G01 X-0.3705 Y0.9665  
G01 X-0.3707 Y0.9672  
G01 X-0.3710 Y0.9678  
G01 X-0.3714 Y0.9700  
G01 X-0.3720 Y0.9721  
G01 X-0.3720 Y0.9728  
G01 X-0.3721 Y0.9735  
G01 X-0.3720 Y0.9757  
G01 X-0.3720 Y1.0267  
G01 X-0.3733 Y1.0280  
G01 X-0.4409 Y1.0280  
G01 X-0.4680 Y1.0009  
G01 X-0.4680 Y0.9968  
G01 X-0.4692 Y0.9907  
G01 X-0.4716 Y0.9848  
G01 X-0.4751 Y0.9796  
G01 X-0.4796 Y0.9751  
G01 X-0.4848 Y0.9716  
G01 X-0.4907 Y0.9692  
G01 X-0.4968 Y0.9680  
G01 X-0.5032 Y0.9680  
G01 X-0.5093 Y0.9692  
G01 X-0.5152 Y0.9716  
G01 X-0.5204 Y0.9751  
G01 X-0.5249 Y0.9796  
G01 X-0.5284 Y0.9848  
G01 X-0.5308 Y0.9907  
G01 X-0.5320 Y0.9968  
G01 X-0.5320 Y1.0552  
G01 X-0.5308 Y1.0613  
G01 X-0.5284 Y1.0672  
G01 X-0.5249 Y1.0724  
G01 X-0.5204 Y1.0769  
G01 X-0.5152 Y1.0804  
G01 X-0.5093 Y1.0828  
G01 X-0.5032 Y1.0840  
G01 X-0.4968 Y1.0840  
G01 X-0.4907 Y1.0828  
G01 X-0.4848 Y1.0804  
G01 X-0.4796 Y1.0769  
G01 X-0.4751 Y1.0724  
G01 X-0.4716 Y1.0672  
G01 X-0.4694 Y1.0617  
G01 X-0.4692 Y1.0619  
G01 X-0.4547 Y1.1053  
G01 X-0.4547 Y1.1499  
G01 X-0.4538 Y1.1521  
G01 X-0.4521 Y1.1538  
G01 X-0.4499 Y1.1547  
G01 X-0.4001 Y1.1547  
G01 X-0.3979 Y1.1538  
G01 X-0.3962 Y1.1521  
G01 X-0.3953 Y1.1499  
G01 X-0.3953 Y1.1001  
G01 X-0.3962 Y1.0979  
G01 X-0.3979 Y1.0962  
G01 X-0.4001 Y1.0953  
G01 X-0.4117 Y1.0953  
G01 X-0.4195 Y1.0720  
G01 X-0.3733 Y1.0720  
G01 X-0.3633 Y1.0820  
G01 X-0.3367 Y1.0820  
G01 X-0.3180 Y1.0633  
G01 X-0.3180 Y1.0367  
G01 X-0.3280 Y1.0267  
G01 X-0.3280 Y0.9868  
G01 X-0.2634 Y0.9437  
G01 X-0.2615 Y0.9426  
G01 X-0.2610 Y0.9421  
G01 X-0.2604 Y0.9417  
G01 X-0.2589 Y0.9401  
G01 X-0.2574 Y0.9385  
G01 X-0.2570 Y0.9379  
G01 X-0.2566 Y0.9373  
G01 X-0.2556 Y0.9354  
G01 X-0.2545 Y0.9335  
G01 X-0.2543 Y0.9328  
G01 X-0.2540 Y0.9322  
G01 X-0.2536 Y0.9300  
G01 X-0.2530 Y0.9279  
G01 X-0.2530 Y0.9272  
G01 X-0.2529 Y0.9265  
G01 X-0.2530 Y0.9243  
G01 X-0.2530 Y0.5971  
G01 X-0.2545 Y0.5915  
G01 X-0.2574 Y0.5865  
G00 Z0.0500  
G00 X-0.3180 Y0.6367  
G01 Z-0.0040 F10    
G01 X-0.3367 Y0.6180  F20    
G01 X-0.3633 Y0.6180  
G01 X-0.3820 Y0.6367  
G01 X-0.3820 Y0.6633  
G01 X-0.3751 Y0.6702  
G01 X-0.3941 Y0.8030  
G01 X-0.6732 Y0.8030  
G01 X-0.6742 Y0.8028  
G01 X-0.6761 Y0.8030  
G01 X-0.6779 Y0.8030  
G01 X-0.6789 Y0.8033  
G01 X-0.6800 Y0.8034  
G01 X-0.6817 Y0.8040  
G01 X-0.6835 Y0.8045  
G01 X-0.6844 Y0.8050  
G01 X-0.6854 Y0.8054  
G01 X-0.6869 Y0.8065  
G01 X-0.6885 Y0.8074  
G01 X-0.6893 Y0.8082  
G01 X-0.6901 Y0.8088  
G01 X-0.6913 Y0.8102  
G01 X-0.6926 Y0.8115  
G01 X-0.6931 Y0.8124  
G01 X-0.6938 Y0.8133  
G01 X-0.6946 Y0.8149  
G01 X-0.6955 Y0.8165  
G01 X-0.6958 Y0.8175  
G01 X-0.6962 Y0.8185  
G01 X-0.6965 Y0.8203  
G01 X-0.6970 Y0.8221  
G01 X-0.6970 Y0.8232  
G01 X-0.7215 Y0.9703  
G01 X-0.7220 Y0.9721  
G01 X-0.7220 Y0.9732  
G01 X-0.7222 Y0.9742  
G01 X-0.7220 Y0.9761  
G01 X-0.7220 Y0.9767  
G01 X-0.7249 Y0.9796  
G01 X-0.7284 Y0.9848  
G01 X-0.7308 Y0.9907  
G01 X-0.7320 Y0.9968  
G01 X-0.7320 Y1.0552  
G01 X-0.7308 Y1.0613  
G01 X-0.7284 Y1.0672  
G01 X-0.7249 Y1.0724  
G01 X-0.7204 Y1.0769  
G01 X-0.7152 Y1.0804  
G01 X-0.7093 Y1.0828  
G01 X-0.7081 Y1.0830  
G01 X-0.6735 Y1.1522  
G01 X-0.6749 Y1.1536  
G01 X-0.6784 Y1.1588  
G01 X-0.6808 Y1.1647  
G01 X-0.6820 Y1.1708  
G01 X-0.6820 Y1.2292  
G01 X-0.6808 Y1.2353  
G01 X-0.6784 Y1.2412  
G01 X-0.6749 Y1.2464  
G01 X-0.6704 Y1.2509  
G01 X-0.6652 Y1.2544  
G01 X-0.6593 Y1.2568  
G01 X-0.6532 Y1.2580  
G01 X-0.6468 Y1.2580  
G01 X-0.6407 Y1.2568  
G01 X-0.6348 Y1.2544  
G01 X-0.6296 Y1.2509  
G01 X-0.6251 Y1.2464  
G01 X-0.6216 Y1.2412  
G01 X-0.6192 Y1.2353  
G01 X-0.6180 Y1.2292  
G01 X-0.6180 Y1.1708  
G01 X-0.6192 Y1.1647  
G01 X-0.6216 Y1.1588  
G01 X-0.6251 Y1.1536  
G01 X-0.6280 Y1.1507  
G01 X-0.6279 Y1.1484  
G01 X-0.6280 Y1.1478  
G01 X-0.6280 Y1.1471  
G01 X-0.6286 Y1.1449  
G01 X-0.6290 Y1.1428  
G01 X-0.6293 Y1.1422  
G01 X-0.6295 Y1.1415  
G01 X-0.6306 Y1.1396  
G01 X-0.6695 Y1.0619  
G01 X-0.6692 Y1.0613  
G01 X-0.6680 Y1.0552  
G01 X-0.6680 Y0.9968  
G01 X-0.6692 Y0.9907  
G01 X-0.6716 Y0.9848  
G01 X-0.6751 Y0.9796  
G01 X-0.6780 Y0.9768  
G01 X-0.6564 Y0.8470  
G01 X-0.3766 Y0.8470  
G01 X-0.3752 Y0.8472  
G01 X-0.3737 Y0.8470  
G01 X-0.3721 Y0.8470  
G01 X-0.3708 Y0.8467  
G01 X-0.3695 Y0.8465  
G01 X-0.3680 Y0.8459  
G01 X-0.3665 Y0.8455  
G01 X-0.3654 Y0.8448  
G01 X-0.3641 Y0.8443  
G01 X-0.3629 Y0.8434  
G01 X-0.3615 Y0.8426  
G01 X-0.3605 Y0.8417  
G01 X-0.3595 Y0.8409  
G01 X-0.3585 Y0.8396  
G01 X-0.3574 Y0.8385  
G01 X-0.3567 Y0.8374  
G01 X-0.3559 Y0.8363  
G01 X-0.3553 Y0.8349  
G01 X-0.3545 Y0.8335  
G01 X-0.3542 Y0.8322  
G01 X-0.3536 Y0.8310  
G01 X-0.3534 Y0.8294  
G01 X-0.3530 Y0.8279  
G01 X-0.3530 Y0.8266  
G01 X-0.3316 Y0.6769  
G01 X-0.3180 Y0.6633  
G01 X-0.3180 Y0.6367  
G00 Z0.0500  
G00 X-0.4692 Y0.6387  
G01 Z-0.0040 F10    
G01 X-0.4716 Y0.6328  F20    
G01 X-0.4751 Y0.6276  
G01 X-0.4796 Y0.6231  
G01 X-0.4848 Y0.6196  
G01 X-0.4907 Y0.6172  
G01 X-0.4968 Y0.6160  
G01 X-0.5032 Y0.6160  
G01 X-0.5093 Y0.6172  
G01 X-0.5152 Y0.6196  
G01 X-0.5204 Y0.6231  
G01 X-0.5249 Y0.6276  
G01 X-0.5284 Y0.6328  
G01 X-0.5308 Y0.6387  
G01 X-0.5320 Y0.6448  
G01 X-0.5320 Y0.7032  
G01 X-0.5308 Y0.7093  
G01 X-0.5284 Y0.7152  
G01 X-0.5249 Y0.7204  
G01 X-0.5204 Y0.7249  
G01 X-0.5152 Y0.7284  
G01 X-0.5093 Y0.7308  
G01 X-0.5032 Y0.7320  
G01 X-0.4968 Y0.7320  
G01 X-0.4907 Y0.7308  
G01 X-0.4848 Y0.7284  
G01 X-0.4796 Y0.7249  
G01 X-0.4751 Y0.7204  
G01 X-0.4716 Y0.7152  
G01 X-0.4692 Y0.7093  
G01 X-0.4680 Y0.7032  
G01 X-0.4680 Y0.6448  
G01 X-0.4692 Y0.6387  
G00 Z0.0500  
G00 X-0.5220 Y0.5828  
G01 Z-0.0040 F10    
G01 X-0.5172 Y0.5780  F20    
G01 X-0.5132 Y0.5725  
G01 X-0.5102 Y0.5665  
G01 X-0.5081 Y0.5601  
G01 X-0.5070 Y0.5534  
G01 X-0.5070 Y0.5466  
G01 X-0.5081 Y0.5399  
G01 X-0.5102 Y0.5335  
G01 X-0.5132 Y0.5275  
G01 X-0.5172 Y0.5220  
G01 X-0.5197 Y0.5195  
G01 X-0.5098 Y0.4801  
G01 X-0.4930 Y0.4633  
G01 X-0.4930 Y0.4367  
G01 X-0.5117 Y0.4180  
G01 X-0.5383 Y0.4180  
G01 X-0.5570 Y0.4367  
G01 X-0.5570 Y0.4633  
G01 X-0.5522 Y0.4681  
G01 X-0.5624 Y0.5088  
G01 X-0.5665 Y0.5102  
G01 X-0.5725 Y0.5132  
G01 X-0.5780 Y0.5172  
G01 X-0.5828 Y0.5220  
G01 X-0.5868 Y0.5275  
G01 X-0.5898 Y0.5335  
G01 X-0.5919 Y0.5399  
G01 X-0.5930 Y0.5466  
G01 X-0.5930 Y0.5534  
G01 X-0.5919 Y0.5601  
G01 X-0.5898 Y0.5665  
G01 X-0.5868 Y0.5725  
G01 X-0.5862 Y0.5733  
G01 X-0.5945 Y0.5897  
G01 X-0.5956 Y0.5919  
G01 X-0.5958 Y0.5923  
G01 X-0.5960 Y0.5928  
G01 X-0.5965 Y0.5951  
G01 X-0.6017 Y0.6160  
G01 X-0.6032 Y0.6160  
G01 X-0.6093 Y0.6172  
G01 X-0.6152 Y0.6196  
G01 X-0.6204 Y0.6231  
G01 X-0.6249 Y0.6276  
G01 X-0.6284 Y0.6328  
G01 X-0.6308 Y0.6387  
G01 X-0.6320 Y0.6448  
G01 X-0.6320 Y0.7032  
G01 X-0.6308 Y0.7093  
G01 X-0.6284 Y0.7152  
G01 X-0.6249 Y0.7204  
G01 X-0.6204 Y0.7249  
G01 X-0.6152 Y0.7284  
G01 X-0.6093 Y0.7308  
G01 X-0.6032 Y0.7320  
G01 X-0.5968 Y0.7320  
G01 X-0.5907 Y0.7308  
G01 X-0.5848 Y0.7284  
G01 X-0.5796 Y0.7249  
G01 X-0.5751 Y0.7204  
G01 X-0.5716 Y0.7152  
G01 X-0.5692 Y0.7093  
G01 X-0.5680 Y0.7032  
G01 X-0.5680 Y0.6627  
G01 X-0.5542 Y0.6077  
G01 X-0.5469 Y0.5930  
G01 X-0.5466 Y0.5930  
G01 X-0.5399 Y0.5919  
G01 X-0.5335 Y0.5898  
G01 X-0.5275 Y0.5868  
G01 X-0.5220 Y0.5828  
G00 Z0.0500  
G00 X-0.6751 Y0.6276  
G01 Z-0.0040 F10    
G01 X-0.6796 Y0.6231  F20    
G01 X-0.6848 Y0.6196  
G01 X-0.6907 Y0.6172  
G01 X-0.6915 Y0.6171  
G01 X-0.7030 Y0.5482  
G01 X-0.7030 Y0.5471  
G01 X-0.7035 Y0.5453  
G01 X-0.7038 Y0.5435  
G01 X-0.7042 Y0.5425  
G01 X-0.7045 Y0.5415  
G01 X-0.7054 Y0.5399  
G01 X-0.7062 Y0.5383  
G01 X-0.7069 Y0.5374  
G01 X-0.7074 Y0.5365  
G01 X-0.7087 Y0.5352  
G01 X-0.7099 Y0.5338  
G01 X-0.7107 Y0.5332  
G01 X-0.7115 Y0.5324  
G01 X-0.7131 Y0.5315  
G01 X-0.7146 Y0.5304  
G01 X-0.7156 Y0.5300  
G01 X-0.7165 Y0.5295  
G01 X-0.7183 Y0.5290  
G01 X-0.7200 Y0.5284  
G01 X-0.7211 Y0.5283  
G01 X-0.7221 Y0.5280  
G01 X-0.7239 Y0.5280  
G01 X-0.7258 Y0.5278  
G01 X-0.7268 Y0.5280  
G01 X-0.8129 Y0.5280  
G01 X-0.8132 Y0.5275  
G01 X-0.8172 Y0.5220  
G01 X-0.8220 Y0.5172  
G01 X-0.8275 Y0.5132  
G01 X-0.8335 Y0.5102  
G01 X-0.8399 Y0.5081  
G01 X-0.8466 Y0.5070  
G01 X-0.8534 Y0.5070  
G01 X-0.8601 Y0.5081  
G01 X-0.8665 Y0.5102  
G01 X-0.8725 Y0.5132  
G01 X-0.8780 Y0.5172  
G01 X-0.8828 Y0.5220  
G01 X-0.8868 Y0.5275  
G01 X-0.8871 Y0.5280  
G01 X-1.0421 Y0.5280  
G01 X-1.0426 Y0.5273  
G01 X-1.0476 Y0.5223  
G01 X-1.0534 Y0.5184  
G01 X-1.0599 Y0.5157  
G01 X-1.0668 Y0.5143  
G01 X-1.1332 Y0.5143  
G01 X-1.1401 Y0.5157  
G01 X-1.1466 Y0.5184  
G01 X-1.1524 Y0.5223  
G01 X-1.1574 Y0.5273  
G01 X-1.1613 Y0.5331  
G01 X-1.1640 Y0.5396  
G01 X-1.1654 Y0.5465  
G01 X-1.1654 Y0.5535  
G01 X-1.1640 Y0.5604  
G01 X-1.1619 Y0.5656  
G01 X-1.3099 Y0.4340  
G01 X-1.3115 Y0.4324  
G01 X-1.3121 Y0.4321  
G01 X-1.3125 Y0.4316  
G01 X-1.3146 Y0.4306  
G01 X-1.3165 Y0.4295  
G01 X-1.3171 Y0.4293  
G01 X-1.3177 Y0.4290  
G01 X-1.3199 Y0.4286  
G01 X-1.3221 Y0.4280  
G01 X-1.3228 Y0.4280  
G01 X-1.3234 Y0.4279  
G01 X-1.3256 Y0.4280  
G01 X-1.5529 Y0.4280  
G01 X-1.5585 Y0.4295  
G01 X-1.5635 Y0.4324  
G01 X-1.5676 Y0.4365  
G01 X-1.5705 Y0.4415  
G01 X-1.5720 Y0.4471  
G01 X-1.5720 Y0.4921  
G01 X-1.5727 Y0.4926  
G01 X-1.5777 Y0.4976  
G01 X-1.5816 Y0.5034  
G01 X-1.5843 Y0.5099  
G01 X-1.5857 Y0.5168  
G01 X-1.5857 Y0.5280  
G01 X-1.6143 Y0.5280  
G01 X-1.6143 Y0.5168  
G01 X-1.6157 Y0.5099  
G01 X-1.6184 Y0.5034  
G01 X-1.6223 Y0.4976  
G01 X-1.6273 Y0.4926  
G01 X-1.6331 Y0.4887  
G01 X-1.6396 Y0.4860  
G01 X-1.6435 Y0.4852  
G01 X-1.6530 Y0.4473  
G01 X-1.6530 Y0.4471  
G01 X-1.6537 Y0.4445  
G01 X-1.6544 Y0.4419  
G01 X-1.6545 Y0.4417  
G01 X-1.6545 Y0.4415  
G01 X-1.6559 Y0.4392  
G01 X-1.6572 Y0.4368  
G01 X-1.6573 Y0.4367  
G01 X-1.6574 Y0.4365  
G01 X-1.6593 Y0.4346  
G01 X-1.6612 Y0.4326  
G01 X-1.6614 Y0.4325  
G01 X-1.6615 Y0.4324  
G01 X-1.6638 Y0.4310  
G01 X-1.6662 Y0.4296  
G01 X-1.6663 Y0.4296  
G01 X-1.6665 Y0.4295  
G01 X-1.6691 Y0.4288  
G01 X-1.6717 Y0.4281  
G01 X-1.6719 Y0.4280  
G01 X-1.6721 Y0.4280  
G01 X-1.6748 Y0.4280  
G01 X-1.6775 Y0.4280  
G01 X-1.6777 Y0.4280  
G01 X-1.8779 Y0.4280  
G01 X-1.8835 Y0.4295  
G01 X-1.8885 Y0.4324  
G01 X-1.9885 Y0.5324  
G01 X-1.9926 Y0.5365  
G01 X-1.9955 Y0.5415  
G01 X-1.9970 Y0.5471  
G01 X-1.9970 Y1.9029  
G01 X-1.9955 Y1.9085  
G01 X-1.9926 Y1.9135  
G01 X-1.9885 Y1.9176  
G01 X-1.9835 Y1.9205  
G01 X-1.9779 Y1.9220  
G01 X-1.4970 Y1.9220  
G01 X-1.4970 Y2.0030  
G01 X-1.5190 Y2.0030  
G01 X-1.5190 Y2.0018  
G01 X-1.5518 Y1.9690  
G01 X-1.5982 Y1.9690  
G01 X-1.6310 Y2.0018  
G01 X-1.6310 Y2.0482  
G01 X-1.5982 Y2.0810  
G01 X-1.5518 Y2.0810  
G01 X-1.5190 Y2.0482  
G01 X-1.5190 Y2.0470  
G01 X-1.4970 Y2.0470  
G01 X-1.4970 Y2.1964  
G01 X-1.5202 Y2.2659  
G01 X-1.5205 Y2.2665  
G01 X-1.5211 Y2.2687  
G01 X-1.5218 Y2.2708  
G01 X-1.5218 Y2.2715  
G01 X-1.5220 Y2.2721  
G01 X-1.5220 Y2.2743  
G01 X-1.5221 Y2.2766  
G01 X-1.5220 Y2.2772  
G01 X-1.5220 Y2.3190  
G01 X-1.5375 Y2.3345  
G01 X-1.5375 Y2.3655  
G01 X-1.5307 Y2.3724  
G01 X-1.5702 Y2.4909  
G01 X-1.5705 Y2.4915  
G01 X-1.5711 Y2.4937  
G01 X-1.5718 Y2.4958  
G01 X-1.5718 Y2.4965  
G01 X-1.5720 Y2.4971  
G01 X-1.5720 Y2.4993  
G01 X-1.5721 Y2.5016  
G01 X-1.5720 Y2.5022  
G01 X-1.5720 Y2.5267  
G01 X-1.5820 Y2.5367  
G01 X-1.5820 Y2.5509  
G01 X-1.6091 Y2.5780  
G01 X-1.8112 Y2.5780  
G01 X-1.8322 Y2.5570  
G01 X-1.8678 Y2.5570  
G01 X-1.8798 Y2.5690  
G01 X-1.9202 Y2.5690  
G01 X-1.9322 Y2.5570  
G01 X-1.9678 Y2.5570  
G01 X-1.9930 Y2.5822  
G01 X-1.9930 Y2.6178  
G01 X-1.9810 Y2.6298  
G01 X-1.9810 Y2.6702  
G01 X-1.9930 Y2.6822  
G01 X-1.9930 Y2.7178  
G01 X-1.9810 Y2.7298  
G01 X-1.9810 Y2.7702  
G01 X-1.9930 Y2.7822  
G01 X-1.9930 Y2.8178  
G01 X-1.9678 Y2.8430  
G01 X-1.9322 Y2.8430  
G01 X-1.9202 Y2.8310  
G01 X-1.8798 Y2.8310  
G01 X-1.8678 Y2.8430  
G01 X-1.8322 Y2.8430  
G01 X-1.8112 Y2.8220  
G01 X-1.5079 Y2.8220  
G01 X-1.5074 Y2.8227  
G01 X-1.5024 Y2.8277  
G01 X-1.4966 Y2.8316  
G01 X-1.4901 Y2.8343  
G01 X-1.4832 Y2.8357  
G01 X-1.4168 Y2.8357  
G01 X-1.4099 Y2.8343  
G01 X-1.4034 Y2.8316  
G01 X-1.3976 Y2.8277  
G01 X-1.3926 Y2.8227  
G01 X-1.3921 Y2.8220  
G01 X-1.2516 Y2.8220  
G01 X-1.2502 Y2.8222  
G01 X-1.2487 Y2.8220  
G01 X-1.2471 Y2.8220  
G01 X-1.2458 Y2.8217  
G01 X-1.2445 Y2.8215  
G01 X-1.2430 Y2.8209  
G01 X-1.2415 Y2.8205  
G01 X-1.2404 Y2.8198  
G01 X-1.2391 Y2.8193  
G01 X-1.2379 Y2.8184  
G01 X-1.2365 Y2.8176  
G01 X-1.2355 Y2.8167  
G01 X-1.1560 Y2.7570  
G01 X-1.1367 Y2.7570  
G01 X-1.1180 Y2.7383  
G01 X-1.1180 Y2.7117  
G01 X-1.1367 Y2.6930  
G01 X-1.1633 Y2.6930  
G01 X-1.1820 Y2.7117  
G01 X-1.1820 Y2.7215  
G01 X-1.2573 Y2.7780  
G01 X-1.3921 Y2.7780  
G01 X-1.3926 Y2.7773  
G01 X-1.3976 Y2.7723  
G01 X-1.4034 Y2.7684  
G01 X-1.4099 Y2.7657  
G01 X-1.4168 Y2.7643  
G01 X-1.4832 Y2.7643  
G01 X-1.4901 Y2.7657  
G01 X-1.4966 Y2.7684  
G01 X-1.5024 Y2.7723  
G01 X-1.5074 Y2.7773  
G01 X-1.5079 Y2.7780  
G01 X-1.8112 Y2.7780  
G01 X-1.8190 Y2.7702  
G01 X-1.8190 Y2.7298  
G01 X-1.8070 Y2.7178  
G01 X-1.8070 Y2.6822  
G01 X-1.8190 Y2.6702  
G01 X-1.8190 Y2.6298  
G01 X-1.8112 Y2.6220  
G01 X-1.5971 Y2.6220  
G01 X-1.5915 Y2.6205  
G01 X-1.5865 Y2.6176  
G01 X-1.5824 Y2.6135  
G01 X-1.5509 Y2.5820  
G01 X-1.5367 Y2.5820  
G01 X-1.5180 Y2.5633  
G01 X-1.5180 Y2.5367  
G01 X-1.5280 Y2.5267  
G01 X-1.5280 Y2.5036  
G01 X-1.4893 Y2.3875  
G01 X-1.4845 Y2.3875  
G01 X-1.4625 Y2.3655  
G01 X-1.4625 Y2.3345  
G01 X-1.4780 Y2.3190  
G01 X-1.4780 Y2.2786  
G01 X-1.4548 Y2.2091  
G01 X-1.4545 Y2.2085  
G01 X-1.4539 Y2.2063  
G01 X-1.4532 Y2.2042  
G01 X-1.4532 Y2.2035  
G01 X-1.4530 Y2.2029  
G01 X-1.4530 Y2.2007  
G01 X-1.4529 Y2.1984  
G01 X-1.4530 Y2.1978  
G01 X-1.4530 Y1.9220  
G01 X-1.3167 Y1.9220  
G01 X-1.3214 Y1.9251  
G01 X-1.3259 Y1.9296  
G01 X-1.3294 Y1.9348  
G01 X-1.3318 Y1.9407  
G01 X-1.3330 Y1.9468  
G01 X-1.3330 Y1.9532  
G01 X-1.3318 Y1.9593  
G01 X-1.3294 Y1.9652  
G01 X-1.3259 Y1.9704  
G01 X-1.3214 Y1.9749  
G01 X-1.3162 Y1.9784  
G01 X-1.3103 Y1.9808  
G01 X-1.3042 Y1.9820  
G01 X-1.2690 Y1.9820  
G01 X-1.1895 Y2.0417  
G01 X-1.1885 Y2.0426  
G01 X-1.1871 Y2.0434  
G01 X-1.1859 Y2.0443  
G01 X-1.1846 Y2.0448  
G01 X-1.1835 Y2.0455  
G01 X-1.1820 Y2.0459  
G01 X-1.1805 Y2.0465  
G01 X-1.1792 Y2.0467  
G01 X-1.1779 Y2.0470  
G01 X-1.1763 Y2.0470  
G01 X-1.1748 Y2.0472  
G01 X-1.1734 Y2.0470  
G01 X-0.9757 Y2.0470  
G01 X-0.9734 Y2.0471  
G01 X-0.9728 Y2.0470  
G01 X-0.9721 Y2.0470  
G01 X-0.9699 Y2.0464  
G01 X-0.9678 Y2.0460  
G01 X-0.9672 Y2.0457  
G01 X-0.9665 Y2.0455  
G01 X-0.9646 Y2.0444  
G01 X-0.9626 Y2.0434  
G01 X-0.9621 Y2.0429  
G01 X-0.9615 Y2.0426  
G01 X-0.9599 Y2.0410  
G01 X-0.9582 Y2.0395  
G01 X-0.9579 Y2.0390  
G01 X-0.9574 Y2.0385  
G01 X-0.9563 Y2.0366  
G01 X-0.9550 Y2.0347  
G01 X-0.9548 Y2.0341  
G01 X-0.9545 Y2.0335  
G01 X-0.9539 Y2.0313  
G01 X-0.9380 Y1.9834  
G01 X-0.9332 Y1.9815  
G01 X-0.9274 Y1.9776  
G01 X-0.9224 Y1.9726  
G01 X-0.9185 Y1.9668  
G01 X-0.9159 Y1.9604  
G01 X-0.9145 Y1.9535  
G01 X-0.9145 Y1.9465  
G01 X-0.9159 Y1.9396  
G01 X-0.9185 Y1.9332  
G01 X-0.9219 Y1.9282  
G01 X-0.9078 Y1.8720  
G01 X-0.7720 Y1.8720  
G01 X-0.7720 Y1.9220  
G01 X-0.7726 Y1.9224  
G01 X-0.7776 Y1.9274  
G01 X-0.7815 Y1.9332  
G01 X-0.7841 Y1.9396  
G01 X-0.7855 Y1.9465  
G01 X-0.7855 Y1.9535  
G01 X-0.7841 Y1.9604  
G01 X-0.7815 Y1.9668  
G01 X-0.7776 Y1.9726  
G01 X-0.7726 Y1.9776  
G01 X-0.7720 Y1.9780  
G01 X-0.7720 Y2.0448  
G01 X-0.8086 Y2.1180  
G01 X-0.8133 Y2.1180  
G01 X-0.8320 Y2.1367  
G01 X-0.8320 Y2.1633  
G01 X-0.8133 Y2.1820  
G01 X-0.8086 Y2.1820  
G01 X-0.7801 Y2.2390  
G01 X-0.7808 Y2.2407  
G01 X-0.7820 Y2.2468  
G01 X-0.7820 Y2.2532  
G01 X-0.7808 Y2.2593  
G01 X-0.7784 Y2.2652  
G01 X-0.7749 Y2.2704  
G01 X-0.7704 Y2.2749  
G01 X-0.7652 Y2.2784  
G01 X-0.7593 Y2.2808  
G01 X-0.7532 Y2.2820  
G01 X-0.7468 Y2.2820  
G01 X-0.7407 Y2.2808  
G01 X-0.7348 Y2.2784  
G01 X-0.7296 Y2.2749  
G01 X-0.7267 Y2.2720  
G01 X-0.6052 Y2.2720  
G01 X-0.5320 Y2.3086  
G01 X-0.5320 Y2.3292  
G01 X-0.5308 Y2.3353  
G01 X-0.5284 Y2.3412  
G01 X-0.5249 Y2.3464  
G01 X-0.5204 Y2.3509  
G01 X-0.5152 Y2.3544  
G01 X-0.5093 Y2.3568  
G01 X-0.5032 Y2.3580  
G01 X-0.4968 Y2.3580  
G01 X-0.4907 Y2.3568  
G01 X-0.4848 Y2.3544  
G01 X-0.4796 Y2.3509  
G01 X-0.4751 Y2.3464  
G01 X-0.4716 Y2.3412  
G01 X-0.4692 Y2.3353  
G01 X-0.4680 Y2.3292  
G01 X-0.4680 Y2.2708  
G01 X-0.4692 Y2.2647  
G01 X-0.4716 Y2.2588  
G01 X-0.4751 Y2.2536  
G01 X-0.4796 Y2.2491  
G01 X-0.4848 Y2.2456  
G01 X-0.4907 Y2.2432  
G01 X-0.4968 Y2.2420  
G01 X-0.5032 Y2.2420  
G01 X-0.5093 Y2.2432  
G01 X-0.5152 Y2.2456  
G01 X-0.5204 Y2.2491  
G01 X-0.5249 Y2.2536  
G01 X-0.5284 Y2.2588  
G01 X-0.5292 Y2.2608  
G01 X-0.5896 Y2.2306  
G01 X-0.5915 Y2.2295  
G01 X-0.5922 Y2.2293  
G01 X-0.5928 Y2.2290  
G01 X-0.5949 Y2.2286  
G01 X-0.5971 Y2.2280  
G01 X-0.5978 Y2.2280  
G01 X-0.5984 Y2.2279  
G01 X-0.6007 Y2.2280  
G01 X-0.7267 Y2.2280  
G01 X-0.7296 Y2.2251  
G01 X-0.7348 Y2.2216  
G01 X-0.7407 Y2.2192  
G01 X-0.7408 Y2.2192  
G01 X-0.7685 Y2.1638  
G01 X-0.7680 Y2.1633  
G01 X-0.7680 Y2.1367  
G01 X-0.7685 Y2.1362  
G01 X-0.7306 Y2.0604  
G01 X-0.7295 Y2.0585  
G01 X-0.7293 Y2.0578  
G01 X-0.7290 Y2.0572  
G01 X-0.7286 Y2.0551  
G01 X-0.7280 Y2.0529  
G01 X-0.7280 Y2.0522  
G01 X-0.7279 Y2.0516  
G01 X-0.7280 Y2.0493  
G01 X-0.7280 Y1.9780  
G01 X-0.7274 Y1.9776  
G01 X-0.7224 Y1.9726  
G01 X-0.7185 Y1.9668  
G01 X-0.7159 Y1.9604  
G01 X-0.7145 Y1.9535  
G01 X-0.7145 Y1.9465  
G01 X-0.7159 Y1.9396  
G01 X-0.7185 Y1.9332  
G01 X-0.7224 Y1.9274  
G01 X-0.7274 Y1.9224  
G01 X-0.7280 Y1.9220  
G01 X-0.7280 Y1.8720  
G01 X-0.3983 Y1.8720  
G01 X-0.3883 Y1.8820  
G01 X-0.3617 Y1.8820  
G01 X-0.3430 Y1.8633  
G01 X-0.3430 Y1.8367  
G01 X-0.3617 Y1.8180  
G01 X-0.3883 Y1.8180  
G01 X-0.3983 Y1.8280  
G01 X-0.9223 Y1.8280  
G01 X-0.9225 Y1.8280  
G01 X-0.9252 Y1.8280  
G01 X-0.9279 Y1.8280  
G01 X-0.9281 Y1.8280  
G01 X-0.9283 Y1.8281  
G01 X-0.9309 Y1.8288  
G01 X-0.9335 Y1.8295  
G01 X-0.9337 Y1.8296  
G01 X-0.9338 Y1.8296  
G01 X-0.9362 Y1.8310  
G01 X-0.9385 Y1.8324  
G01 X-0.9386 Y1.8325  
G01 X-0.9388 Y1.8326  
G01 X-0.9407 Y1.8346  
G01 X-0.9426 Y1.8365  
G01 X-0.9427 Y1.8367  
G01 X-0.9428 Y1.8368  
G01 X-0.9441 Y1.8392  
G01 X-0.9455 Y1.8415  
G01 X-0.9455 Y1.8417  
G01 X-0.9456 Y1.8419  
G01 X-0.9463 Y1.8445  
G01 X-0.9470 Y1.8471  
G01 X-0.9470 Y1.8473  
G01 X-0.9646 Y1.9176  
G01 X-0.9668 Y1.9185  
G01 X-0.9726 Y1.9224  
G01 X-0.9776 Y1.9274  
G01 X-0.9815 Y1.9332  
G01 X-0.9841 Y1.9396  
G01 X-0.9855 Y1.9465  
G01 X-0.9855 Y1.9535  
G01 X-0.9841 Y1.9604  
G01 X-0.9815 Y1.9668  
G01 X-0.9797 Y1.9695  
G01 X-0.9909 Y2.0030  
G01 X-1.1677 Y2.0030  
G01 X-1.2200 Y1.9637  
G01 X-1.2182 Y1.9593  
G01 X-1.2170 Y1.9532  
G01 X-1.2170 Y1.9468  
G01 X-1.2182 Y1.9407  
G01 X-1.2206 Y1.9348  
G01 X-1.2241 Y1.9296  
G01 X-1.2286 Y1.9251  
G01 X-1.2338 Y1.9216  
G01 X-1.2397 Y1.9192  
G01 X-1.2458 Y1.9180  
G01 X-1.2530 Y1.9180  
G01 X-1.2530 Y1.7786  
G01 X-1.2375 Y1.7320  
G01 X-1.2367 Y1.7320  
G01 X-1.2180 Y1.7133  
G01 X-1.2180 Y1.6867  
G01 X-1.2185 Y1.6862  
G01 X-1.1809 Y1.6111  
G01 X-1.1454 Y1.5577  
G01 X-1.1407 Y1.5568  
G01 X-1.1348 Y1.5544  
G01 X-1.1296 Y1.5509  
G01 X-1.1251 Y1.5464  
G01 X-1.1216 Y1.5412  
G01 X-1.1192 Y1.5353  
G01 X-1.1180 Y1.5292  
G01 X-1.1180 Y1.4708  
G01 X-1.1192 Y1.4647  
G01 X-1.1216 Y1.4588  
G01 X-1.1251 Y1.4536  
G01 X-1.1296 Y1.4491  
G01 X-1.1348 Y1.4456  
G01 X-1.1407 Y1.4432  
G01 X-1.1468 Y1.4420  
G01 X-1.1519 Y1.4420  
G01 X-1.2047 Y1.3892  
G01 X-1.2280 Y1.2728  
G01 X-1.2280 Y1.2493  
G01 X-1.2251 Y1.2464  
G01 X-1.2216 Y1.2412  
G01 X-1.2192 Y1.2353  
G01 X-1.2180 Y1.2292  
G01 X-1.2180 Y1.1708  
G01 X-1.2192 Y1.1647  
G01 X-1.2215 Y1.1591  
G01 X-1.2074 Y1.1166  
G01 X-1.1154 Y1.0799  
G01 X-1.1133 Y1.0820  
G01 X-1.0867 Y1.0820  
G01 X-1.0680 Y1.0633  
G01 X-1.0680 Y1.0367  
G01 X-1.0867 Y1.0180  
G01 X-1.1133 Y1.0180  
G01 X-1.1320 Y1.0367  
G01 X-1.1320 Y1.0391  
G01 X-1.2313 Y1.0788  
G01 X-1.2322 Y1.0790  
G01 X-1.2340 Y1.0799  
G01 X-1.2359 Y1.0806  
G01 X-1.2366 Y1.0812  
G01 X-1.2374 Y1.0816  
G01 X-1.2389 Y1.0829  
G01 X-1.2405 Y1.0841  
G01 X-1.2411 Y1.0848  
G01 X-1.2418 Y1.0855  
G01 X-1.2429 Y1.0871  
G01 X-1.2441 Y1.0887  
G01 X-1.2444 Y1.0895  
G01 X-1.2450 Y1.0903  
G01 X-1.2456 Y1.0922  
G01 X-1.2464 Y1.0940  
G01 X-1.2465 Y1.0949  
G01 X-1.2631 Y1.1448  
G01 X-1.2652 Y1.1456  
G01 X-1.2704 Y1.1491  
G01 X-1.2749 Y1.1536  
G01 X-1.2784 Y1.1588  
G01 X-1.2808 Y1.1647  
G01 X-1.2820 Y1.1708  
G01 X-1.2820 Y1.2292  
G01 X-1.2808 Y1.2353  
G01 X-1.2784 Y1.2412  
G01 X-1.2749 Y1.2464  
G01 X-1.2720 Y1.2493  
G01 X-1.2720 Y1.2743  
G01 X-1.2721 Y1.2765  
G01 X-1.2720 Y1.2772  
G01 X-1.2720 Y1.2779  
G01 X-1.2714 Y1.2800  
G01 X-1.2470 Y1.4022  
G01 X-1.2470 Y1.4029  
G01 X-1.2464 Y1.4050  
G01 X-1.2460 Y1.4072  
G01 X-1.2457 Y1.4078  
G01 X-1.2455 Y1.4085  
G01 X-1.2444 Y1.4104  
G01 X-1.2434 Y1.4123  
G01 X-1.2430 Y1.4129  
G01 X-1.2426 Y1.4135  
G01 X-1.2411 Y1.4151  
G01 X-1.2396 Y1.4167  
G01 X-1.2390 Y1.4171  
G01 X-1.1820 Y1.4741  
G01 X-1.1820 Y1.5292  
G01 X-1.1814 Y1.5324  
G01 X-1.2175 Y1.5865  
G01 X-1.2184 Y1.5876  
G01 X-1.2191 Y1.5889  
G01 X-1.2199 Y1.5902  
G01 X-1.2204 Y1.5915  
G01 X-1.2586 Y1.6680  
G01 X-1.2633 Y1.6680  
G01 X-1.2820 Y1.6867  
G01 X-1.2820 Y1.7133  
G01 X-1.2787 Y1.7165  
G01 X-1.2952 Y1.7659  
G01 X-1.2955 Y1.7665  
G01 X-1.2961 Y1.7687  
G01 X-1.2968 Y1.7708  
G01 X-1.2968 Y1.7715  
G01 X-1.2970 Y1.7721  
G01 X-1.2970 Y1.7743  
G01 X-1.2971 Y1.7766  
G01 X-1.2970 Y1.7772  
G01 X-1.2970 Y1.8780  
G01 X-1.5780 Y1.8780  
G01 X-1.5780 Y1.8579  
G01 X-1.5773 Y1.8574  
G01 X-1.5723 Y1.8524  
G01 X-1.5684 Y1.8466  
G01 X-1.5657 Y1.8401  
G01 X-1.5643 Y1.8332  
G01 X-1.5643 Y1.7668  
G01 X-1.5657 Y1.7599  
G01 X-1.5684 Y1.7534  
G01 X-1.5723 Y1.7476  
G01 X-1.5773 Y1.7426  
G01 X-1.5831 Y1.7387  
G01 X-1.5896 Y1.7360  
G01 X-1.5965 Y1.7346  
G01 X-1.6035 Y1.7346  
G01 X-1.6104 Y1.7360  
G01 X-1.6169 Y1.7387  
G01 X-1.6227 Y1.7426  
G01 X-1.6277 Y1.7476  
G01 X-1.6316 Y1.7534  
G01 X-1.6343 Y1.7599  
G01 X-1.6357 Y1.7668  
G01 X-1.6357 Y1.7780  
G01 X-1.6643 Y1.7780  
G01 X-1.6643 Y1.7668  
G01 X-1.6657 Y1.7599  
G01 X-1.6684 Y1.7534  
G01 X-1.6723 Y1.7476  
G01 X-1.6773 Y1.7426  
G01 X-1.6831 Y1.7387  
G01 X-1.6896 Y1.7360  
G01 X-1.6965 Y1.7346  
G01 X-1.7035 Y1.7346  
G01 X-1.7104 Y1.7360  
G01 X-1.7169 Y1.7387  
G01 X-1.7227 Y1.7426  
G01 X-1.7277 Y1.7476  
G01 X-1.7316 Y1.7534  
G01 X-1.7343 Y1.7599  
G01 X-1.7357 Y1.7668  
G01 X-1.7357 Y1.8332  
G01 X-1.7343 Y1.8401  
G01 X-1.7316 Y1.8466  
G01 X-1.7277 Y1.8524  
G01 X-1.7227 Y1.8574  
G01 X-1.7169 Y1.8613  
G01 X-1.7104 Y1.8640  
G01 X-1.7035 Y1.8654  
G01 X-1.6965 Y1.8654  
G01 X-1.6896 Y1.8640  
G01 X-1.6831 Y1.8613  
G01 X-1.6773 Y1.8574  
G01 X-1.6723 Y1.8524  
G01 X-1.6684 Y1.8466  
G01 X-1.6657 Y1.8401  
G01 X-1.6643 Y1.8332  
G01 X-1.6643 Y1.8220  
G01 X-1.6357 Y1.8220  
G01 X-1.6357 Y1.8332  
G01 X-1.6343 Y1.8401  
G01 X-1.6316 Y1.8466  
G01 X-1.6277 Y1.8524  
G01 X-1.6227 Y1.8574  
G01 X-1.6220 Y1.8579  
G01 X-1.6220 Y1.8780  
G01 X-1.9530 Y1.8780  
G01 X-1.9530 Y0.5591  
G01 X-1.8659 Y0.4720  
G01 X-1.6922 Y0.4720  
G01 X-1.6833 Y0.5075  
G01 X-1.6843 Y0.5099  
G01 X-1.6857 Y0.5168  
G01 X-1.6857 Y0.5832  
G01 X-1.6843 Y0.5901  
G01 X-1.6816 Y0.5966  
G01 X-1.6777 Y0.6024  
G01 X-1.6727 Y0.6074  
G01 X-1.6720 Y0.6079  
G01 X-1.6720 Y0.6390  
G01 X-1.7621 Y0.7066  
G01 X-1.7635 Y0.7074  
G01 X-1.7645 Y0.7083  
G01 X-1.7655 Y0.7091  
G01 X-1.7665 Y0.7104  
G01 X-1.7676 Y0.7115  
G01 X-1.7683 Y0.7126  
G01 X-1.7691 Y0.7137  
G01 X-1.7697 Y0.7151  
G01 X-1.7705 Y0.7165  
G01 X-1.7708 Y0.7178  
G01 X-1.7714 Y0.7190  
G01 X-1.7716 Y0.7206  
G01 X-1.7720 Y0.7221  
G01 X-1.7720 Y0.7234  
G01 X-1.7722 Y0.7248  
G01 X-1.7720 Y0.7263  
G01 X-1.7720 Y0.9231  
G01 X-1.7722 Y0.9241  
G01 X-1.7720 Y0.9260  
G01 X-1.7720 Y0.9279  
G01 X-1.7717 Y0.9289  
G01 X-1.7716 Y0.9299  
G01 X-1.7710 Y0.9317  
G01 X-1.7705 Y0.9335  
G01 X-1.7700 Y0.9344  
G01 X-1.7696 Y0.9353  
G01 X-1.7686 Y0.9369  
G01 X-1.7676 Y0.9385  
G01 X-1.7669 Y0.9392  
G01 X-1.7663 Y0.9400  
G01 X-1.7649 Y0.9413  
G01 X-1.7635 Y0.9426  
G01 X-1.7626 Y0.9431  
G01 X-1.6320 Y1.0520  
G01 X-1.6320 Y1.0633  
G01 X-1.6133 Y1.0820  
G01 X-1.5867 Y1.0820  
G01 X-1.5680 Y1.0633  
G01 X-1.5680 Y1.0367  
G01 X-1.5867 Y1.0180  
G01 X-1.6040 Y1.0180  
G01 X-1.7280 Y0.9147  
G01 X-1.7280 Y0.7360  
G01 X-1.6379 Y0.6684  
G01 X-1.6365 Y0.6676  
G01 X-1.6355 Y0.6667  
G01 X-1.6345 Y0.6659  
G01 X-1.6335 Y0.6646  
G01 X-1.6324 Y0.6635  
G01 X-1.6317 Y0.6624  
G01 X-1.6309 Y0.6613  
G01 X-1.6303 Y0.6599  
G01 X-1.6295 Y0.6585  
G01 X-1.6292 Y0.6572  
G01 X-1.6286 Y0.6560  
G01 X-1.6284 Y0.6544  
G01 X-1.6280 Y0.6529  
G01 X-1.6280 Y0.6516  
G01 X-1.6278 Y0.6502  
G01 X-1.6280 Y0.6487  
G01 X-1.6280 Y0.6079  
G01 X-1.6273 Y0.6074  
G01 X-1.6223 Y0.6024  
G01 X-1.6184 Y0.5966  
G01 X-1.6157 Y0.5901  
G01 X-1.6143 Y0.5832  
G01 X-1.6143 Y0.5720  
G01 X-1.5857 Y0.5720  
G01 X-1.5857 Y0.5832  
G01 X-1.5843 Y0.5901  
G01 X-1.5816 Y0.5966  
G01 X-1.5777 Y0.6024  
G01 X-1.5727 Y0.6074  
G01 X-1.5669 Y0.6113  
G01 X-1.5604 Y0.6140  
G01 X-1.5535 Y0.6154  
G01 X-1.5465 Y0.6154  
G01 X-1.5396 Y0.6140  
G01 X-1.5331 Y0.6113  
G01 X-1.5273 Y0.6074  
G01 X-1.5223 Y0.6024  
G01 X-1.5184 Y0.5966  
G01 X-1.5157 Y0.5901  
G01 X-1.5143 Y0.5832  
G01 X-1.5143 Y0.5168  
G01 X-1.5157 Y0.5099  
G01 X-1.5184 Y0.5034  
G01 X-1.5223 Y0.4976  
G01 X-1.5273 Y0.4926  
G01 X-1.5280 Y0.4921  
G01 X-1.5280 Y0.4720  
G01 X-1.3334 Y0.4720  
G01 X-1.1168 Y0.6645  
G01 X-1.1146 Y0.6665  
G01 X-1.1125 Y0.6684  
G01 X-1.1098 Y0.6697  
G01 X-1.1073 Y0.6710  
G01 X-0.8673 Y0.7909  
G01 X-0.8220 Y0.9042  
G01 X-0.8220 Y0.9767  
G01 X-0.8249 Y0.9796  
G01 X-0.8284 Y0.9848  
G01 X-0.8308 Y0.9907  
G01 X-0.8320 Y0.9968  
G01 X-0.8320 Y1.0552  
G01 X-0.8308 Y1.0613  
G01 X-0.8284 Y1.0672  
G01 X-0.8249 Y1.0724  
G01 X-0.8204 Y1.0769  
G01 X-0.8152 Y1.0804  
G01 X-0.8093 Y1.0828  
G01 X-0.8032 Y1.0840  
G01 X-0.7968 Y1.0840  
G01 X-0.7907 Y1.0828  
G01 X-0.7848 Y1.0804  
G01 X-0.7796 Y1.0769  
G01 X-0.7751 Y1.0724  
G01 X-0.7716 Y1.0672  
G01 X-0.7692 Y1.0613  
G01 X-0.7680 Y1.0552  
G01 X-0.7680 Y0.9968  
G01 X-0.7692 Y0.9907  
G01 X-0.7716 Y0.9848  
G01 X-0.7751 Y0.9796  
G01 X-0.7780 Y0.9767  
G01 X-0.7780 Y0.9016  
G01 X-0.7778 Y0.9003  
G01 X-0.7780 Y0.8987  
G01 X-0.7780 Y0.8971  
G01 X-0.7783 Y0.8958  
G01 X-0.7785 Y0.8945  
G01 X-0.7791 Y0.8930  
G01 X-0.7795 Y0.8915  
G01 X-0.7802 Y0.8904  
G01 X-0.8293 Y0.7674  
G01 X-0.8300 Y0.7653  
G01 X-0.8304 Y0.7647  
G01 X-0.8306 Y0.7641  
G01 X-0.8320 Y0.7623  
G01 X-0.8332 Y0.7605  
G01 X-0.8337 Y0.7600  
G01 X-0.8341 Y0.7595  
G01 X-0.8359 Y0.7581  
G01 X-0.8376 Y0.7566  
G01 X-0.8382 Y0.7563  
G01 X-0.8387 Y0.7559  
G01 X-0.8407 Y0.7550  
G01 X-1.0876 Y0.6316  
G01 X-1.1414 Y0.5838  
G01 X-1.1401 Y0.5843  
G01 X-1.1332 Y0.5857  
G01 X-1.0668 Y0.5857  
G01 X-1.0599 Y0.5843  
G01 X-1.0534 Y0.5816  
G01 X-1.0476 Y0.5777  
G01 X-1.0426 Y0.5727  
G01 X-1.0421 Y0.5720  
G01 X-0.8871 Y0.5720  
G01 X-0.8868 Y0.5725  
G01 X-0.8828 Y0.5780  
G01 X-0.8780 Y0.5828  
G01 X-0.8725 Y0.5868  
G01 X-0.8665 Y0.5898  
G01 X-0.8601 Y0.5919  
G01 X-0.8534 Y0.5930  
G01 X-0.8466 Y0.5930  
G01 X-0.8399 Y0.5919  
G01 X-0.8335 Y0.5898  
G01 X-0.8275 Y0.5868  
G01 X-0.8220 Y0.5828  
G01 X-0.8172 Y0.5780  
G01 X-0.8132 Y0.5725  
G01 X-0.8129 Y0.5720  
G01 X-0.7436 Y0.5720  
G01 X-0.7317 Y0.6435  
G01 X-0.7320 Y0.6448  
G01 X-0.7320 Y0.7032  
G01 X-0.7308 Y0.7093  
G01 X-0.7284 Y0.7152  
G01 X-0.7249 Y0.7204  
G01 X-0.7204 Y0.7249  
G01 X-0.7152 Y0.7284  
G01 X-0.7093 Y0.7308  
G01 X-0.7032 Y0.7320  
G01 X-0.6968 Y0.7320  
G01 X-0.6907 Y0.7308  
G01 X-0.6848 Y0.7284  
G01 X-0.6796 Y0.7249  
G01 X-0.6751 Y0.7204  
G01 X-0.6716 Y0.7152  
G01 X-0.6692 Y0.7093  
G01 X-0.6680 Y0.7032  
G01 X-0.6680 Y0.6448  
G01 X-0.6692 Y0.6387  
G01 X-0.6716 Y0.6328  
G01 X-0.6751 Y0.6276  
G00 Z0.0500  
G00 X-0.7751 Y0.6276  
G01 Z-0.0040 F10    
G01 X-0.7796 Y0.6231  F20    
G01 X-0.7848 Y0.6196  
G01 X-0.7907 Y0.6172  
G01 X-0.7968 Y0.6160  
G01 X-0.8032 Y0.6160  
G01 X-0.8093 Y0.6172  
G01 X-0.8152 Y0.6196  
G01 X-0.8204 Y0.6231  
G01 X-0.8249 Y0.6276  
G01 X-0.8284 Y0.6328  
G01 X-0.8308 Y0.6387  
G01 X-0.8320 Y0.6448  
G01 X-0.8320 Y0.7032  
G01 X-0.8308 Y0.7093  
G01 X-0.8284 Y0.7152  
G01 X-0.8249 Y0.7204  
G01 X-0.8204 Y0.7249  
G01 X-0.8152 Y0.7284  
G01 X-0.8093 Y0.7308  
G01 X-0.8032 Y0.7320  
G01 X-0.7968 Y0.7320  
G01 X-0.7907 Y0.7308  
G01 X-0.7848 Y0.7284  
G01 X-0.7796 Y0.7249  
G01 X-0.7751 Y0.7204  
G01 X-0.7716 Y0.7152  
G01 X-0.7692 Y0.7093  
G01 X-0.7680 Y0.7032  
G01 X-0.7680 Y0.6448  
G01 X-0.7692 Y0.6387  
G01 X-0.7716 Y0.6328  
G01 X-0.7751 Y0.6276  
G00 Z0.0500  
G00 X-0.9117 Y0.4820  
G01 Z-0.0040 F10    
G01 X-0.8930 Y0.4633  F20    
G01 X-0.8930 Y0.4367  
G01 X-0.9117 Y0.4180  
G01 X-0.9383 Y0.4180  
G01 X-0.9483 Y0.4280  
G01 X-1.0421 Y0.4280  
G01 X-1.0426 Y0.4273  
G01 X-1.0476 Y0.4223  
G01 X-1.0534 Y0.4184  
G01 X-1.0599 Y0.4157  
G01 X-1.0668 Y0.4143  
G01 X-1.1332 Y0.4143  
G01 X-1.1401 Y0.4157  
G01 X-1.1466 Y0.4184  
G01 X-1.1524 Y0.4223  
G01 X-1.1574 Y0.4273  
G01 X-1.1613 Y0.4331  
G01 X-1.1640 Y0.4396  
G01 X-1.1654 Y0.4465  
G01 X-1.1654 Y0.4535  
G01 X-1.1640 Y0.4604  
G01 X-1.1613 Y0.4669  
G01 X-1.1574 Y0.4727  
G01 X-1.1524 Y0.4777  
G01 X-1.1466 Y0.4816  
G01 X-1.1401 Y0.4843  
G01 X-1.1332 Y0.4857  
G01 X-1.0668 Y0.4857  
G01 X-1.0599 Y0.4843  
G01 X-1.0534 Y0.4816  
G01 X-1.0476 Y0.4777  
G01 X-1.0426 Y0.4727  
G01 X-1.0421 Y0.4720  
G01 X-0.9483 Y0.4720  
G01 X-0.9383 Y0.4820  
G01 X-0.9117 Y0.4820  
G00 Z0.0500  
G00 X-0.9345 Y0.8341  
G01 Z-0.0040 F10    
G01 X-0.9355 Y0.8333  F20    
G01 X-0.9365 Y0.8324  
G01 X-0.9379 Y0.8316  
G01 X-1.3143 Y0.5493  
G01 X-1.3143 Y0.5168  
G01 X-1.3157 Y0.5099  
G01 X-1.3184 Y0.5034  
G01 X-1.3223 Y0.4976  
G01 X-1.3273 Y0.4926  
G01 X-1.3331 Y0.4887  
G01 X-1.3396 Y0.4860  
G01 X-1.3465 Y0.4846  
G01 X-1.3535 Y0.4846  
G01 X-1.3604 Y0.4860  
G01 X-1.3669 Y0.4887  
G01 X-1.3727 Y0.4926  
G01 X-1.3777 Y0.4976  
G01 X-1.3816 Y0.5034  
G01 X-1.3843 Y0.5099  
G01 X-1.3857 Y0.5168  
G01 X-1.3857 Y0.5832  
G01 X-1.3843 Y0.5901  
G01 X-1.3816 Y0.5966  
G01 X-1.3777 Y0.6024  
G01 X-1.3727 Y0.6074  
G01 X-1.3669 Y0.6113  
G01 X-1.3604 Y0.6140  
G01 X-1.3535 Y0.6154  
G01 X-1.3465 Y0.6154  
G01 X-1.3396 Y0.6140  
G01 X-1.3331 Y0.6113  
G01 X-1.3273 Y0.6074  
G01 X-1.3223 Y0.6024  
G01 X-1.3204 Y0.5997  
G01 X-0.9720 Y0.8610  
G01 X-0.9720 Y1.1507  
G01 X-0.9749 Y1.1536  
G01 X-0.9784 Y1.1588  
G01 X-0.9808 Y1.1647  
G01 X-0.9820 Y1.1708  
G01 X-0.9820 Y1.2292  
G01 X-0.9808 Y1.2353  
G01 X-0.9784 Y1.2412  
G01 X-0.9749 Y1.2464  
G01 X-0.9704 Y1.2509  
G01 X-0.9652 Y1.2544  
G01 X-0.9593 Y1.2568  
G01 X-0.9532 Y1.2580  
G01 X-0.9468 Y1.2580  
G01 X-0.9407 Y1.2568  
G01 X-0.9348 Y1.2544  
G01 X-0.9296 Y1.2509  
G01 X-0.9251 Y1.2464  
G01 X-0.9216 Y1.2412  
G01 X-0.9192 Y1.2353  
G01 X-0.9180 Y1.2292  
G01 X-0.9180 Y1.1708  
G01 X-0.9192 Y1.1647  
G01 X-0.9216 Y1.1588  
G01 X-0.9251 Y1.1536  
G01 X-0.9280 Y1.1507  
G01 X-0.9280 Y0.8513  
G01 X-0.9278 Y0.8498  
G01 X-0.9280 Y0.8484  
G01 X-0.9280 Y0.8471  
G01 X-0.9284 Y0.8456  
G01 X-0.9286 Y0.8440  
G01 X-0.9292 Y0.8428  
G01 X-0.9295 Y0.8415  
G01 X-0.9303 Y0.8401  
G01 X-0.9309 Y0.8387  
G01 X-0.9317 Y0.8376  
G01 X-0.9324 Y0.8365  
G01 X-0.9335 Y0.8354  
G01 X-0.9345 Y0.8341  
G00 Z0.0500  
G00 X-1.0680 Y0.8367  
G01 Z-0.0040 F10    
G01 X-1.0867 Y0.8180  F20    
G01 X-1.1009 Y0.8180  
G01 X-1.1074 Y0.8115  
G01 X-1.1115 Y0.8074  
G01 X-1.1180 Y0.8009  
G01 X-1.1180 Y0.7867  
G01 X-1.1367 Y0.7680  
G01 X-1.1633 Y0.7680  
G01 X-1.1820 Y0.7867  
G01 X-1.1820 Y0.8133  
G01 X-1.1633 Y0.8320  
G01 X-1.1631 Y0.8320  
G01 X-1.2496 Y0.9185  
G01 X-1.2518 Y0.9180  
G01 X-1.2582 Y0.9180  
G01 X-1.2643 Y0.9192  
G01 X-1.2702 Y0.9216  
G01 X-1.2754 Y0.9251  
G01 X-1.2783 Y0.9280  
G01 X-1.3529 Y0.9280  
G01 X-1.3585 Y0.9295  
G01 X-1.3635 Y0.9324  
G01 X-1.3676 Y0.9365  
G01 X-1.3705 Y0.9415  
G01 X-1.3720 Y0.9471  
G01 X-1.3720 Y1.1507  
G01 X-1.3749 Y1.1536  
G01 X-1.3784 Y1.1588  
G01 X-1.3808 Y1.1647  
G01 X-1.3820 Y1.1708  
G01 X-1.3820 Y1.2292  
G01 X-1.3808 Y1.2353  
G01 X-1.3784 Y1.2412  
G01 X-1.3749 Y1.2464  
G01 X-1.3704 Y1.2509  
G01 X-1.3652 Y1.2544  
G01 X-1.3593 Y1.2568  
G01 X-1.3532 Y1.2580  
G01 X-1.3468 Y1.2580  
G01 X-1.3407 Y1.2568  
G01 X-1.3348 Y1.2544  
G01 X-1.3296 Y1.2509  
G01 X-1.3251 Y1.2464  
G01 X-1.3216 Y1.2412  
G01 X-1.3192 Y1.2353  
G01 X-1.3180 Y1.2292  
G01 X-1.3180 Y1.1708  
G01 X-1.3192 Y1.1647  
G01 X-1.3216 Y1.1588  
G01 X-1.3251 Y1.1536  
G01 X-1.3280 Y1.1507  
G01 X-1.3280 Y0.9720  
G01 X-1.2783 Y0.9720  
G01 X-1.2754 Y0.9749  
G01 X-1.2702 Y0.9784  
G01 X-1.2643 Y0.9808  
G01 X-1.2582 Y0.9820  
G01 X-1.2518 Y0.9820  
G01 X-1.2457 Y0.9808  
G01 X-1.2398 Y0.9784  
G01 X-1.2346 Y0.9749  
G01 X-1.2301 Y0.9704  
G01 X-1.2266 Y0.9652  
G01 X-1.2242 Y0.9593  
G01 X-1.2232 Y0.9544  
G01 X-1.1320 Y0.8631  
G01 X-1.1320 Y0.8633  
G01 X-1.1133 Y0.8820  
G01 X-1.0867 Y0.8820  
G01 X-1.0680 Y0.8633  
G01 X-1.0680 Y0.8367  
G00 Z0.0500  
G00 X-1.0652 Y1.1456  
G01 Z-0.0040 F10    
G01 X-1.0704 Y1.1491  F20    
G01 X-1.0749 Y1.1536  
G01 X-1.0784 Y1.1588  
G01 X-1.0808 Y1.1647  
G01 X-1.0820 Y1.1708  
G01 X-1.0820 Y1.2292  
G01 X-1.0808 Y1.2353  
G01 X-1.0784 Y1.2412  
G01 X-1.0749 Y1.2464  
G01 X-1.0704 Y1.2509  
G01 X-1.0652 Y1.2544  
G01 X-1.0612 Y1.2560  
G01 X-1.0470 Y1.3272  
G01 X-1.0470 Y1.3279  
G01 X-1.0464 Y1.3300  
G01 X-1.0460 Y1.3322  
G01 X-1.0457 Y1.3328  
G01 X-1.0455 Y1.3335  
G01 X-1.0444 Y1.3354  
G01 X-1.0434 Y1.3373  
G01 X-1.0430 Y1.3379  
G01 X-1.0426 Y1.3385  
G01 X-1.0411 Y1.3401  
G01 X-1.0396 Y1.3417  
G01 X-1.0390 Y1.3421  
G01 X-1.0385 Y1.3426  
G01 X-1.0366 Y1.3437  
G01 X-1.0348 Y1.3449  
G01 X-1.0341 Y1.3451  
G01 X-1.0335 Y1.3455  
G01 X-1.0314 Y1.3461  
G01 X-1.0293 Y1.3468  
G01 X-1.0286 Y1.3468  
G01 X-1.0279 Y1.3470  
G01 X-1.0257 Y1.3470  
G01 X-1.0235 Y1.3471  
G01 X-1.0228 Y1.3470  
G01 X-0.3194 Y1.3470  
G01 X-0.2970 Y1.5264  
G01 X-0.2970 Y2.6909  
G01 X-0.6091 Y3.0030  
G01 X-1.9909 Y3.0030  
G01 X-2.0530 Y2.9409  
G01 X-2.0530 Y2.2649  
G01 X-1.9765 Y2.2343  
G01 X-1.9678 Y2.2430  
G01 X-1.9322 Y2.2430  
G01 X-1.9112 Y2.2220  
G01 X-1.8888 Y2.2220  
G01 X-1.8678 Y2.2430  
G01 X-1.8322 Y2.2430  
G01 X-1.8070 Y2.2178  
G01 X-1.8070 Y2.1822  
G01 X-1.8322 Y2.1570  
G01 X-1.8678 Y2.1570  
G01 X-1.8888 Y2.1780  
G01 X-1.9112 Y2.1780  
G01 X-1.9322 Y2.1570  
G01 X-1.9678 Y2.1570  
G01 X-1.9930 Y2.1822  
G01 X-1.9930 Y2.1935  
G01 X-2.0820 Y2.2291  
G01 X-2.0835 Y2.2295  
G01 X-2.0846 Y2.2302  
G01 X-2.0859 Y2.2306  
G01 X-2.0871 Y2.2316  
G01 X-2.0885 Y2.2324  
G01 X-2.0894 Y2.2333  
G01 X-2.0905 Y2.2341  
G01 X-2.0915 Y2.2354  
G01 X-2.0926 Y2.2365  
G01 X-2.0933 Y2.2376  
G01 X-2.0941 Y2.2387  
G01 X-2.0947 Y2.2401  
G01 X-2.0955 Y2.2415  
G01 X-2.0958 Y2.2428  
G01 X-2.0964 Y2.2440  
G01 X-2.0966 Y2.2456  
G01 X-2.0970 Y2.2471  
G01 X-2.0970 Y2.2484  
G01 X-2.0972 Y2.2497  
G01 X-2.0970 Y2.2513  
G01 X-2.0970 Y2.9529  
G01 X-2.0955 Y2.9585  
G01 X-2.0926 Y2.9635  
G01 X-2.0885 Y2.9676  
G01 X-2.0135 Y3.0426  
G01 X-2.0085 Y3.0455  
G01 X-2.0029 Y3.0470  
G01 X-0.5971 Y3.0470  
G01 X-0.5915 Y3.0455  
G01 X-0.5865 Y3.0426  
G01 X-0.2574 Y2.7135  
G01 X-0.2545 Y2.7085  
G01 X-0.2530 Y2.7029  
G01 X-0.2530 Y1.5265  
G01 X-0.2528 Y1.5251  
G01 X-0.2530 Y1.5236  
G01 X-0.2530 Y1.5221  
G01 X-0.2534 Y1.5208  
G01 X-0.2780 Y1.3236  
G01 X-0.2780 Y1.3221  
G01 X-0.2784 Y1.3208  
G01 X-0.2785 Y1.3194  
G01 X-0.2791 Y1.3180  
G01 X-0.2795 Y1.3165  
G01 X-0.2802 Y1.3153  
G01 X-0.2807 Y1.3140  
G01 X-0.2816 Y1.3128  
G01 X-0.2824 Y1.3115  
G01 X-0.2834 Y1.3105  
G01 X-0.2842 Y1.3094  
G01 X-0.2854 Y1.3085  
G01 X-0.2865 Y1.3074  
G01 X-0.2877 Y1.3067  
G01 X-0.2888 Y1.3059  
G01 X-0.2902 Y1.3053  
G01 X-0.2915 Y1.3045  
G01 X-0.2928 Y1.3041  
G01 X-0.2941 Y1.3036  
G01 X-0.2956 Y1.3034  
G01 X-0.2971 Y1.3030  
G01 X-0.2985 Y1.3030  
G01 X-0.2999 Y1.3028  
G01 X-0.3014 Y1.3030  
G01 X-1.0070 Y1.3030  
G01 X-1.0201 Y1.2374  
G01 X-1.0192 Y1.2353  
G01 X-1.0180 Y1.2292  
G01 X-1.0180 Y1.1708  
G01 X-1.0192 Y1.1647  
G01 X-1.0216 Y1.1588  
G01 X-1.0251 Y1.1536  
G01 X-1.0296 Y1.1491  
G01 X-1.0348 Y1.1456  
G01 X-1.0407 Y1.1432  
G01 X-1.0468 Y1.1420  
G01 X-1.0532 Y1.1420  
G01 X-1.0593 Y1.1432  
G01 X-1.0652 Y1.1456  
G00 Z0.0500  
G00 X-1.1251 Y1.1536  
G01 Z-0.0040 F10    
G01 X-1.1296 Y1.1491  F20    
G01 X-1.1348 Y1.1456  
G01 X-1.1407 Y1.1432  
G01 X-1.1468 Y1.1420  
G01 X-1.1532 Y1.1420  
G01 X-1.1593 Y1.1432  
G01 X-1.1652 Y1.1456  
G01 X-1.1704 Y1.1491  
G01 X-1.1749 Y1.1536  
G01 X-1.1784 Y1.1588  
G01 X-1.1808 Y1.1647  
G01 X-1.1820 Y1.1708  
G01 X-1.1820 Y1.2292  
G01 X-1.1808 Y1.2353  
G01 X-1.1784 Y1.2412  
G01 X-1.1749 Y1.2464  
G01 X-1.1704 Y1.2509  
G01 X-1.1652 Y1.2544  
G01 X-1.1593 Y1.2568  
G01 X-1.1584 Y1.2569  
G01 X-1.1220 Y1.4027  
G01 X-1.1220 Y1.4029  
G01 X-1.1213 Y1.4055  
G01 X-1.1206 Y1.4081  
G01 X-1.1205 Y1.4083  
G01 X-1.1205 Y1.4085  
G01 X-1.1191 Y1.4108  
G01 X-1.1178 Y1.4132  
G01 X-1.1177 Y1.4133  
G01 X-1.1176 Y1.4135  
G01 X-1.1157 Y1.4154  
G01 X-1.1138 Y1.4174  
G01 X-1.1136 Y1.4175  
G01 X-1.1135 Y1.4176  
G01 X-1.1112 Y1.4190  
G01 X-1.1088 Y1.4204  
G01 X-1.1087 Y1.4204  
G01 X-1.1085 Y1.4205  
G01 X-1.1059 Y1.4212  
G01 X-1.1033 Y1.4219  
G01 X-1.1031 Y1.4220  
G01 X-1.1029 Y1.4220  
G01 X-1.1002 Y1.4220  
G01 X-1.0975 Y1.4220  
G01 X-1.0973 Y1.4220  
G01 X-0.3930 Y1.4220  
G01 X-0.3720 Y1.5272  
G01 X-0.3720 Y1.5695  
G01 X-0.3953 Y1.5617  
G01 X-0.3953 Y1.5501  
G01 X-0.3962 Y1.5479  
G01 X-0.3979 Y1.5462  
G01 X-0.4001 Y1.5453  
G01 X-0.4499 Y1.5453  
G01 X-0.4521 Y1.5462  
G01 X-0.4538 Y1.5479  
G01 X-0.4547 Y1.5501  
G01 X-0.4547 Y1.5999  
G01 X-0.4538 Y1.6021  
G01 X-0.4521 Y1.6038  
G01 X-0.4499 Y1.6047  
G01 X-0.4053 Y1.6047  
G01 X-0.3820 Y1.6125  
G01 X-0.3820 Y1.6383  
G01 X-0.3815 Y1.6388  
G01 X-0.4136 Y1.7030  
G01 X-0.5882 Y1.7030  
G01 X-0.6145 Y1.6636  
G01 X-0.6145 Y1.6193  
G01 X-0.6154 Y1.6171  
G01 X-0.6171 Y1.6154  
G01 X-0.6193 Y1.6145  
G01 X-0.6807 Y1.6145  
G01 X-0.6829 Y1.6154  
G01 X-0.6846 Y1.6171  
G01 X-0.6855 Y1.6193  
G01 X-0.6855 Y1.6718  
G01 X-0.7136 Y1.7280  
G01 X-1.0280 Y1.7280  
G01 X-1.0280 Y1.7233  
G01 X-1.0180 Y1.7133  
G01 X-1.0180 Y1.6867  
G01 X-1.0367 Y1.6680  
G01 X-1.0633 Y1.6680  
G01 X-1.0820 Y1.6867  
G01 X-1.0820 Y1.7133  
G01 X-1.0720 Y1.7233  
G01 X-1.0720 Y1.7486  
G01 X-1.0932 Y1.9180  
G01 X-1.1042 Y1.9180  
G01 X-1.1103 Y1.9192  
G01 X-1.1162 Y1.9216  
G01 X-1.1214 Y1.9251  
G01 X-1.1259 Y1.9296  
G01 X-1.1294 Y1.9348  
G01 X-1.1318 Y1.9407  
G01 X-1.1330 Y1.9468  
G01 X-1.1330 Y1.9532  
G01 X-1.1318 Y1.9593  
G01 X-1.1294 Y1.9652  
G01 X-1.1259 Y1.9704  
G01 X-1.1214 Y1.9749  
G01 X-1.1162 Y1.9784  
G01 X-1.1103 Y1.9808  
G01 X-1.1042 Y1.9820  
G01 X-1.0458 Y1.9820  
G01 X-1.0397 Y1.9808  
G01 X-1.0338 Y1.9784  
G01 X-1.0286 Y1.9749  
G01 X-1.0241 Y1.9704  
G01 X-1.0206 Y1.9652  
G01 X-1.0182 Y1.9593  
G01 X-1.0170 Y1.9532  
G01 X-1.0170 Y1.9468  
G01 X-1.0182 Y1.9407  
G01 X-1.0206 Y1.9348  
G01 X-1.0241 Y1.9296  
G01 X-1.0286 Y1.9251  
G01 X-1.0338 Y1.9216  
G01 X-1.0397 Y1.9192  
G01 X-1.0458 Y1.9180  
G01 X-1.0488 Y1.9180  
G01 X-1.0306 Y1.7720  
G01 X-0.7022 Y1.7720  
G01 X-0.7016 Y1.7721  
G01 X-0.6993 Y1.7720  
G01 X-0.6971 Y1.7720  
G01 X-0.6965 Y1.7718  
G01 X-0.6958 Y1.7718  
G01 X-0.6937 Y1.7711  
G01 X-0.6915 Y1.7705  
G01 X-0.6909 Y1.7702  
G01 X-0.6903 Y1.7700  
G01 X-0.6884 Y1.7687  
G01 X-0.6865 Y1.7676  
G01 X-0.6860 Y1.7671  
G01 X-0.6855 Y1.7668  
G01 X-0.6840 Y1.7651  
G01 X-0.6824 Y1.7635  
G01 X-0.6821 Y1.7629  
G01 X-0.6816 Y1.7624  
G01 X-0.6806 Y1.7604  
G01 X-0.6795 Y1.7585  
G01 X-0.6793 Y1.7578  
G01 X-0.6473 Y1.6937  
G01 X-0.6187 Y1.7366  
G01 X-0.6176 Y1.7385  
G01 X-0.6171 Y1.7390  
G01 X-0.6167 Y1.7396  
G01 X-0.6151 Y1.7411  
G01 X-0.6135 Y1.7426  
G01 X-0.6129 Y1.7430  
G01 X-0.6123 Y1.7434  
G01 X-0.6104 Y1.7444  
G01 X-0.6085 Y1.7455  
G01 X-0.6078 Y1.7457  
G01 X-0.6072 Y1.7460  
G01 X-0.6050 Y1.7464  
G01 X-0.6029 Y1.7470  
G01 X-0.6022 Y1.7470  
G01 X-0.6015 Y1.7471  
G01 X-0.5993 Y1.7470  
G01 X-0.4022 Y1.7470  
G01 X-0.4016 Y1.7471  
G01 X-0.3993 Y1.7470  
G01 X-0.3971 Y1.7470  
G01 X-0.3965 Y1.7468  
G01 X-0.3958 Y1.7468  
G01 X-0.3937 Y1.7461  
G01 X-0.3915 Y1.7455  
G01 X-0.3909 Y1.7452  
G01 X-0.3903 Y1.7450  
G01 X-0.3884 Y1.7437  
G01 X-0.3865 Y1.7426  
G01 X-0.3860 Y1.7421  
G01 X-0.3855 Y1.7418  
G01 X-0.3840 Y1.7401  
G01 X-0.3824 Y1.7385  
G01 X-0.3821 Y1.7379  
G01 X-0.3816 Y1.7374  
G01 X-0.3806 Y1.7354  
G01 X-0.3795 Y1.7335  
G01 X-0.3793 Y1.7328  
G01 X-0.3414 Y1.6570  
G01 X-0.3367 Y1.6570  
G01 X-0.3180 Y1.6383  
G01 X-0.3180 Y1.6117  
G01 X-0.3280 Y1.6017  
G01 X-0.3280 Y1.6007  
G01 X-0.3279 Y1.5984  
G01 X-0.3280 Y1.5978  
G01 X-0.3280 Y1.5257  
G01 X-0.3279 Y1.5235  
G01 X-0.3280 Y1.5228  
G01 X-0.3280 Y1.5221  
G01 X-0.3286 Y1.5200  
G01 X-0.3530 Y1.3978  
G01 X-0.3530 Y1.3971  
G01 X-0.3536 Y1.3950  
G01 X-0.3540 Y1.3928  
G01 X-0.3543 Y1.3922  
G01 X-0.3545 Y1.3915  
G01 X-0.3556 Y1.3896  
G01 X-0.3566 Y1.3877  
G01 X-0.3570 Y1.3871  
G01 X-0.3574 Y1.3865  
G01 X-0.3589 Y1.3849  
G01 X-0.3604 Y1.3833  
G01 X-0.3610 Y1.3829  
G01 X-0.3615 Y1.3824  
G01 X-0.3634 Y1.3813  
G01 X-0.3652 Y1.3801  
G01 X-0.3659 Y1.3799  
G01 X-0.3665 Y1.3795  
G01 X-0.3686 Y1.3789  
G01 X-0.3707 Y1.3782  
G01 X-0.3714 Y1.3782  
G01 X-0.3721 Y1.3780  
G01 X-0.3743 Y1.3780  
G01 X-0.3765 Y1.3779  
G01 X-0.3772 Y1.3780  
G01 X-1.0828 Y1.3780  
G01 X-1.1189 Y1.2337  
G01 X-1.1180 Y1.2292  
G01 X-1.1180 Y1.1708  
G01 X-1.1192 Y1.1647  
G01 X-1.1216 Y1.1588  
G01 X-1.1251 Y1.1536  
G00 Z0.0500  
G00 X-0.8749 Y1.1536  
G01 Z-0.0040 F10    
G01 X-0.8784 Y1.1588  F20    
G01 X-0.8808 Y1.1647  
G01 X-0.8820 Y1.1708  
G01 X-0.8820 Y1.2292  
G01 X-0.8808 Y1.2353  
G01 X-0.8784 Y1.2412  
G01 X-0.8749 Y1.2464  
G01 X-0.8704 Y1.2509  
G01 X-0.8652 Y1.2544  
G01 X-0.8593 Y1.2568  
G01 X-0.8532 Y1.2580  
G01 X-0.8468 Y1.2580  
G01 X-0.8407 Y1.2568  
G01 X-0.8348 Y1.2544  
G01 X-0.8296 Y1.2509  
G01 X-0.8251 Y1.2464  
G01 X-0.8216 Y1.2412  
G01 X-0.8192 Y1.2353  
G01 X-0.8180 Y1.2292  
G01 X-0.8180 Y1.1708  
G01 X-0.8192 Y1.1647  
G01 X-0.8216 Y1.1588  
G01 X-0.8251 Y1.1536  
G01 X-0.8296 Y1.1491  
G01 X-0.8348 Y1.1456  
G01 X-0.8407 Y1.1432  
G01 X-0.8468 Y1.1420  
G01 X-0.8532 Y1.1420  
G01 X-0.8593 Y1.1432  
G01 X-0.8652 Y1.1456  
G01 X-0.8704 Y1.1491  
G01 X-0.8749 Y1.1536  
G00 Z0.0500  
G00 X-0.7749 Y1.1536  
G01 Z-0.0040 F10    
G01 X-0.7784 Y1.1588  F20    
G01 X-0.7808 Y1.1647  
G01 X-0.7820 Y1.1708  
G01 X-0.7820 Y1.2292  
G01 X-0.7808 Y1.2353  
G01 X-0.7784 Y1.2412  
G01 X-0.7749 Y1.2464  
G01 X-0.7704 Y1.2509  
G01 X-0.7652 Y1.2544  
G01 X-0.7593 Y1.2568  
G01 X-0.7532 Y1.2580  
G01 X-0.7468 Y1.2580  
G01 X-0.7407 Y1.2568  
G01 X-0.7348 Y1.2544  
G01 X-0.7296 Y1.2509  
G01 X-0.7251 Y1.2464  
G01 X-0.7216 Y1.2412  
G01 X-0.7192 Y1.2353  
G01 X-0.7180 Y1.2292  
G01 X-0.7180 Y1.1708  
G01 X-0.7192 Y1.1647  
G01 X-0.7216 Y1.1588  
G01 X-0.7251 Y1.1536  
G01 X-0.7296 Y1.1491  
G01 X-0.7348 Y1.1456  
G01 X-0.7407 Y1.1432  
G01 X-0.7468 Y1.1420  
G01 X-0.7532 Y1.1420  
G01 X-0.7593 Y1.1432  
G01 X-0.7652 Y1.1456  
G01 X-0.7704 Y1.1491  
G01 X-0.7749 Y1.1536  
G00 Z0.0500  
G00 X-0.5749 Y1.1536  
G01 Z-0.0040 F10    
G01 X-0.5784 Y1.1588  F20    
G01 X-0.5808 Y1.1647  
G01 X-0.5820 Y1.1708  
G01 X-0.5820 Y1.2292  
G01 X-0.5808 Y1.2353  
G01 X-0.5784 Y1.2412  
G01 X-0.5749 Y1.2464  
G01 X-0.5704 Y1.2509  
G01 X-0.5652 Y1.2544  
G01 X-0.5593 Y1.2568  
G01 X-0.5532 Y1.2580  
G01 X-0.5468 Y1.2580  
G01 X-0.5407 Y1.2568  
G01 X-0.5348 Y1.2544  
G01 X-0.5296 Y1.2509  
G01 X-0.5251 Y1.2464  
G01 X-0.5216 Y1.2412  
G01 X-0.5192 Y1.2353  
G01 X-0.5180 Y1.2292  
G01 X-0.5180 Y1.2262  
G01 X-0.3764 Y1.2439  
G01 X-0.3633 Y1.2570  
G01 X-0.3367 Y1.2570  
G01 X-0.3180 Y1.2383  
G01 X-0.3180 Y1.2167  
G01 X-0.3109 Y1.2060  
G01 X-0.2768 Y1.2060  
G01 X-0.2440 Y1.1732  
G01 X-0.2440 Y1.1268  
G01 X-0.2768 Y1.0940  
G01 X-0.3232 Y1.0940  
G01 X-0.3560 Y1.1268  
G01 X-0.3560 Y1.1732  
G01 X-0.3475 Y1.1817  
G01 X-0.3551 Y1.1930  
G01 X-0.3633 Y1.1930  
G01 X-0.3705 Y1.2003  
G01 X-0.5180 Y1.1818  
G01 X-0.5180 Y1.1708  
G01 X-0.5192 Y1.1647  
G01 X-0.5216 Y1.1588  
G01 X-0.5251 Y1.1536  
G01 X-0.5296 Y1.1491  
G01 X-0.5348 Y1.1456  
G01 X-0.5407 Y1.1432  
G01 X-0.5468 Y1.1420  
G01 X-0.5532 Y1.1420  
G01 X-0.5593 Y1.1432  
G01 X-0.5652 Y1.1456  
G01 X-0.5704 Y1.1491  
G01 X-0.5749 Y1.1536  
G00 Z0.0500  
G00 X-0.5796 Y1.0769  
G01 Z-0.0040 F10    
G01 X-0.5751 Y1.0724  F20    
G01 X-0.5716 Y1.0672  
G01 X-0.5692 Y1.0613  
G01 X-0.5680 Y1.0552  
G01 X-0.5680 Y0.9968  
G01 X-0.5692 Y0.9907  
G01 X-0.5716 Y0.9848  
G01 X-0.5751 Y0.9796  
G01 X-0.5796 Y0.9751  
G01 X-0.5848 Y0.9716  
G01 X-0.5907 Y0.9692  
G01 X-0.5968 Y0.9680  
G01 X-0.6032 Y0.9680  
G01 X-0.6093 Y0.9692  
G01 X-0.6152 Y0.9716  
G01 X-0.6204 Y0.9751  
G01 X-0.6249 Y0.9796  
G01 X-0.6284 Y0.9848  
G01 X-0.6308 Y0.9907  
G01 X-0.6320 Y0.9968  
G01 X-0.6320 Y1.0552  
G01 X-0.6308 Y1.0613  
G01 X-0.6284 Y1.0672  
G01 X-0.6249 Y1.0724  
G01 X-0.6204 Y1.0769  
G01 X-0.6152 Y1.0804  
G01 X-0.6093 Y1.0828  
G01 X-0.6032 Y1.0840  
G01 X-0.5968 Y1.0840  
G01 X-0.5907 Y1.0828  
G01 X-0.5848 Y1.0804  
G01 X-0.5796 Y1.0769  
G00 Z0.0500  
G00 X-0.5704 Y1.4491  
G01 Z-0.0040 F10    
G01 X-0.5749 Y1.4536  F20    
G01 X-0.5784 Y1.4588  
G01 X-0.5808 Y1.4647  
G01 X-0.5820 Y1.4708  
G01 X-0.5820 Y1.5292  
G01 X-0.5808 Y1.5353  
G01 X-0.5784 Y1.5412  
G01 X-0.5749 Y1.5464  
G01 X-0.5720 Y1.5493  
G01 X-0.5720 Y1.5767  
G01 X-0.5820 Y1.5867  
G01 X-0.5820 Y1.6133  
G01 X-0.5633 Y1.6320  
G01 X-0.5367 Y1.6320  
G01 X-0.5180 Y1.6133  
G01 X-0.5180 Y1.5867  
G01 X-0.5280 Y1.5767  
G01 X-0.5280 Y1.5493  
G01 X-0.5251 Y1.5464  
G01 X-0.5216 Y1.5412  
G01 X-0.5192 Y1.5353  
G01 X-0.5180 Y1.5292  
G01 X-0.5180 Y1.4708  
G01 X-0.5192 Y1.4647  
G01 X-0.5216 Y1.4588  
G01 X-0.5251 Y1.4536  
G01 X-0.5296 Y1.4491  
G01 X-0.5348 Y1.4456  
G01 X-0.5407 Y1.4432  
G01 X-0.5468 Y1.4420  
G01 X-0.5532 Y1.4420  
G01 X-0.5593 Y1.4432  
G01 X-0.5652 Y1.4456  
G01 X-0.5704 Y1.4491  
G00 Z0.0500  
G00 X-0.6251 Y1.4536  
G01 Z-0.0040 F10    
G01 X-0.6296 Y1.4491  F20    
G01 X-0.6348 Y1.4456  
G01 X-0.6407 Y1.4432  
G01 X-0.6468 Y1.4420  
G01 X-0.6532 Y1.4420  
G01 X-0.6593 Y1.4432  
G01 X-0.6652 Y1.4456  
G01 X-0.6704 Y1.4491  
G01 X-0.6749 Y1.4536  
G01 X-0.6784 Y1.4588  
G01 X-0.6808 Y1.4647  
G01 X-0.6820 Y1.4708  
G01 X-0.6820 Y1.5292  
G01 X-0.6808 Y1.5353  
G01 X-0.6784 Y1.5412  
G01 X-0.6749 Y1.5464  
G01 X-0.6704 Y1.5509  
G01 X-0.6652 Y1.5544  
G01 X-0.6593 Y1.5568  
G01 X-0.6532 Y1.5580  
G01 X-0.6468 Y1.5580  
G01 X-0.6407 Y1.5568  
G01 X-0.6348 Y1.5544  
G01 X-0.6296 Y1.5509  
G01 X-0.6251 Y1.5464  
G01 X-0.6216 Y1.5412  
G01 X-0.6192 Y1.5353  
G01 X-0.6180 Y1.5292  
G01 X-0.6180 Y1.4708  
G01 X-0.6192 Y1.4647  
G01 X-0.6216 Y1.4588  
G01 X-0.6251 Y1.4536  
G00 Z0.0500  
G00 X-0.7251 Y1.4536  
G01 Z-0.0040 F10    
G01 X-0.7296 Y1.4491  F20    
G01 X-0.7348 Y1.4456  
G01 X-0.7407 Y1.4432  
G01 X-0.7468 Y1.4420  
G01 X-0.7532 Y1.4420  
G01 X-0.7593 Y1.4432  
G01 X-0.7652 Y1.4456  
G01 X-0.7704 Y1.4491  
G01 X-0.7749 Y1.4536  
G01 X-0.7784 Y1.4588  
G01 X-0.7808 Y1.4647  
G01 X-0.7820 Y1.4708  
G01 X-0.7820 Y1.5292  
G01 X-0.7808 Y1.5353  
G01 X-0.7784 Y1.5412  
G01 X-0.7749 Y1.5464  
G01 X-0.7720 Y1.5493  
G01 X-0.7720 Y1.6220  
G01 X-0.7726 Y1.6224  
G01 X-0.7776 Y1.6274  
G01 X-0.7815 Y1.6332  
G01 X-0.7841 Y1.6396  
G01 X-0.7855 Y1.6465  
G01 X-0.7855 Y1.6535  
G01 X-0.7841 Y1.6604  
G01 X-0.7815 Y1.6668  
G01 X-0.7776 Y1.6726  
G01 X-0.7726 Y1.6776  
G01 X-0.7668 Y1.6815  
G01 X-0.7604 Y1.6841  
G01 X-0.7535 Y1.6855  
G01 X-0.7465 Y1.6855  
G01 X-0.7396 Y1.6841  
G01 X-0.7332 Y1.6815  
G01 X-0.7274 Y1.6776  
G01 X-0.7224 Y1.6726  
G01 X-0.7185 Y1.6668  
G01 X-0.7159 Y1.6604  
G01 X-0.7145 Y1.6535  
G01 X-0.7145 Y1.6465  
G01 X-0.7159 Y1.6396  
G01 X-0.7185 Y1.6332  
G01 X-0.7224 Y1.6274  
G01 X-0.7274 Y1.6224  
G01 X-0.7280 Y1.6220  
G01 X-0.7280 Y1.5493  
G01 X-0.7251 Y1.5464  
G01 X-0.7216 Y1.5412  
G01 X-0.7192 Y1.5353  
G01 X-0.7180 Y1.5292  
G01 X-0.7180 Y1.4708  
G01 X-0.7192 Y1.4647  
G01 X-0.7216 Y1.4588  
G01 X-0.7251 Y1.4536  
G00 Z0.0500  
G00 X-0.8251 Y1.4536  
G01 Z-0.0040 F10    
G01 X-0.8296 Y1.4491  F20    
G01 X-0.8348 Y1.4456  
G01 X-0.8407 Y1.4432  
G01 X-0.8468 Y1.4420  
G01 X-0.8532 Y1.4420  
G01 X-0.8593 Y1.4432  
G01 X-0.8652 Y1.4456  
G01 X-0.8704 Y1.4491  
G01 X-0.8749 Y1.4536  
G01 X-0.8784 Y1.4588  
G01 X-0.8808 Y1.4647  
G01 X-0.8820 Y1.4708  
G01 X-0.8820 Y1.5292  
G01 X-0.8808 Y1.5353  
G01 X-0.8784 Y1.5412  
G01 X-0.8749 Y1.5464  
G01 X-0.8720 Y1.5493  
G01 X-0.8720 Y1.6220  
G01 X-0.8726 Y1.6224  
G01 X-0.8776 Y1.6274  
G01 X-0.8815 Y1.6332  
G01 X-0.8841 Y1.6396  
G01 X-0.8855 Y1.6465  
G01 X-0.8855 Y1.6535  
G01 X-0.8841 Y1.6604  
G01 X-0.8815 Y1.6668  
G01 X-0.8776 Y1.6726  
G01 X-0.8726 Y1.6776  
G01 X-0.8668 Y1.6815  
G01 X-0.8604 Y1.6841  
G01 X-0.8535 Y1.6855  
G01 X-0.8465 Y1.6855  
G01 X-0.8396 Y1.6841  
G01 X-0.8332 Y1.6815  
G01 X-0.8274 Y1.6776  
G01 X-0.8224 Y1.6726  
G01 X-0.8185 Y1.6668  
G01 X-0.8159 Y1.6604  
G01 X-0.8145 Y1.6535  
G01 X-0.8145 Y1.6465  
G01 X-0.8159 Y1.6396  
G01 X-0.8185 Y1.6332  
G01 X-0.8224 Y1.6274  
G01 X-0.8274 Y1.6224  
G01 X-0.8280 Y1.6220  
G01 X-0.8280 Y1.5493  
G01 X-0.8251 Y1.5464  
G01 X-0.8216 Y1.5412  
G01 X-0.8192 Y1.5353  
G01 X-0.8180 Y1.5292  
G01 X-0.8180 Y1.4708  
G01 X-0.8192 Y1.4647  
G01 X-0.8216 Y1.4588  
G01 X-0.8251 Y1.4536  
G00 Z0.0500  
G00 X-0.9251 Y1.4536  
G01 Z-0.0040 F10    
G01 X-0.9296 Y1.4491  F20    
G01 X-0.9348 Y1.4456  
G01 X-0.9407 Y1.4432  
G01 X-0.9468 Y1.4420  
G01 X-0.9532 Y1.4420  
G01 X-0.9593 Y1.4432  
G01 X-0.9652 Y1.4456  
G01 X-0.9704 Y1.4491  
G01 X-0.9749 Y1.4536  
G01 X-0.9784 Y1.4588  
G01 X-0.9808 Y1.4647  
G01 X-0.9820 Y1.4708  
G01 X-0.9820 Y1.5292  
G01 X-0.9808 Y1.5353  
G01 X-0.9784 Y1.5412  
G01 X-0.9749 Y1.5464  
G01 X-0.9720 Y1.5493  
G01 X-0.9720 Y1.6220  
G01 X-0.9726 Y1.6224  
G01 X-0.9776 Y1.6274  
G01 X-0.9815 Y1.6332  
G01 X-0.9841 Y1.6396  
G01 X-0.9855 Y1.6465  
G01 X-0.9855 Y1.6535  
G01 X-0.9841 Y1.6604  
G01 X-0.9815 Y1.6668  
G01 X-0.9776 Y1.6726  
G01 X-0.9726 Y1.6776  
G01 X-0.9668 Y1.6815  
G01 X-0.9604 Y1.6841  
G01 X-0.9535 Y1.6855  
G01 X-0.9465 Y1.6855  
G01 X-0.9396 Y1.6841  
G01 X-0.9332 Y1.6815  
G01 X-0.9274 Y1.6776  
G01 X-0.9224 Y1.6726  
G01 X-0.9185 Y1.6668  
G01 X-0.9159 Y1.6604  
G01 X-0.9145 Y1.6535  
G01 X-0.9145 Y1.6465  
G01 X-0.9159 Y1.6396  
G01 X-0.9185 Y1.6332  
G01 X-0.9224 Y1.6274  
G01 X-0.9274 Y1.6224  
G01 X-0.9280 Y1.6220  
G01 X-0.9280 Y1.5493  
G01 X-0.9251 Y1.5464  
G01 X-0.9216 Y1.5412  
G01 X-0.9192 Y1.5353  
G01 X-0.9180 Y1.5292  
G01 X-0.9180 Y1.4708  
G01 X-0.9192 Y1.4647  
G01 X-0.9216 Y1.4588  
G01 X-0.9251 Y1.4536  
G00 Z0.0500  
G00 X-1.0251 Y1.4536  
G01 Z-0.0040 F10    
G01 X-1.0296 Y1.4491  F20    
G01 X-1.0348 Y1.4456  
G01 X-1.0407 Y1.4432  
G01 X-1.0468 Y1.4420  
G01 X-1.0532 Y1.4420  
G01 X-1.0593 Y1.4432  
G01 X-1.0652 Y1.4456  
G01 X-1.0704 Y1.4491  
G01 X-1.0749 Y1.4536  
G01 X-1.0784 Y1.4588  
G01 X-1.0808 Y1.4647  
G01 X-1.0820 Y1.4708  
G01 X-1.0820 Y1.5292  
G01 X-1.0808 Y1.5353  
G01 X-1.0784 Y1.5412  
G01 X-1.0759 Y1.5448  
G01 X-1.0904 Y1.5593  
G01 X-1.0924 Y1.5612  
G01 X-1.0925 Y1.5614  
G01 X-1.0926 Y1.5615  
G01 X-1.0940 Y1.5638  
G01 X-1.1680 Y1.6873  
G01 X-1.1688 Y1.6883  
G01 X-1.1695 Y1.6898  
G01 X-1.1704 Y1.6912  
G01 X-1.1707 Y1.6924  
G01 X-1.1712 Y1.6935  
G01 X-1.1715 Y1.6952  
G01 X-1.1719 Y1.6967  
G01 X-1.1720 Y1.6980  
G01 X-1.1920 Y1.8180  
G01 X-1.2042 Y1.8180  
G01 X-1.2103 Y1.8192  
G01 X-1.2162 Y1.8216  
G01 X-1.2214 Y1.8251  
G01 X-1.2259 Y1.8296  
G01 X-1.2294 Y1.8348  
G01 X-1.2318 Y1.8407  
G01 X-1.2330 Y1.8468  
G01 X-1.2330 Y1.8532  
G01 X-1.2318 Y1.8593  
G01 X-1.2294 Y1.8652  
G01 X-1.2259 Y1.8704  
G01 X-1.2214 Y1.8749  
G01 X-1.2162 Y1.8784  
G01 X-1.2103 Y1.8808  
G01 X-1.2042 Y1.8820  
G01 X-1.1458 Y1.8820  
G01 X-1.1397 Y1.8808  
G01 X-1.1338 Y1.8784  
G01 X-1.1286 Y1.8749  
G01 X-1.1241 Y1.8704  
G01 X-1.1206 Y1.8652  
G01 X-1.1182 Y1.8593  
G01 X-1.1170 Y1.8532  
G01 X-1.1170 Y1.8468  
G01 X-1.1182 Y1.8407  
G01 X-1.1206 Y1.8348  
G01 X-1.1241 Y1.8296  
G01 X-1.1286 Y1.8251  
G01 X-1.1338 Y1.8216  
G01 X-1.1397 Y1.8192  
G01 X-1.1458 Y1.8180  
G01 X-1.1474 Y1.8180  
G01 X-1.1290 Y1.7077  
G01 X-1.0575 Y1.5886  
G01 X-1.0324 Y1.5635  
G01 X-1.0295 Y1.5585  
G01 X-1.0280 Y1.5529  
G01 X-1.0280 Y1.5493  
G01 X-1.0251 Y1.5464  
G01 X-1.0216 Y1.5412  
G01 X-1.0192 Y1.5353  
G01 X-1.0180 Y1.5292  
G01 X-1.0180 Y1.4708  
G01 X-1.0192 Y1.4647  
G01 X-1.0216 Y1.4588  
G01 X-1.0251 Y1.4536  
G00 Z0.0500  
G00 X-1.2251 Y1.4536  
G01 Z-0.0040 F10    
G01 X-1.2296 Y1.4491  F20    
G01 X-1.2348 Y1.4456  
G01 X-1.2407 Y1.4432  
G01 X-1.2468 Y1.4420  
G01 X-1.2532 Y1.4420  
G01 X-1.2593 Y1.4432  
G01 X-1.2652 Y1.4456  
G01 X-1.2704 Y1.4491  
G01 X-1.2749 Y1.4536  
G01 X-1.2784 Y1.4588  
G01 X-1.2808 Y1.4647  
G01 X-1.2820 Y1.4708  
G01 X-1.2820 Y1.5292  
G01 X-1.2808 Y1.5353  
G01 X-1.2784 Y1.5412  
G01 X-1.2749 Y1.5464  
G01 X-1.2704 Y1.5509  
G01 X-1.2652 Y1.5544  
G01 X-1.2593 Y1.5568  
G01 X-1.2532 Y1.5580  
G01 X-1.2468 Y1.5580  
G01 X-1.2407 Y1.5568  
G01 X-1.2348 Y1.5544  
G01 X-1.2296 Y1.5509  
G01 X-1.2251 Y1.5464  
G01 X-1.2216 Y1.5412  
G01 X-1.2192 Y1.5353  
G01 X-1.2180 Y1.5292  
G01 X-1.2180 Y1.4708  
G01 X-1.2192 Y1.4647  
G01 X-1.2216 Y1.4588  
G01 X-1.2251 Y1.4536  
G00 Z0.0500  
G00 X-1.3251 Y1.4536  
G01 Z-0.0040 F10    
G01 X-1.3296 Y1.4491  F20    
G01 X-1.3348 Y1.4456  
G01 X-1.3407 Y1.4432  
G01 X-1.3468 Y1.4420  
G01 X-1.3532 Y1.4420  
G01 X-1.3593 Y1.4432  
G01 X-1.3652 Y1.4456  
G01 X-1.3704 Y1.4491  
G01 X-1.3749 Y1.4536  
G01 X-1.3784 Y1.4588  
G01 X-1.3808 Y1.4647  
G01 X-1.3820 Y1.4708  
G01 X-1.3820 Y1.5292  
G01 X-1.3808 Y1.5353  
G01 X-1.3784 Y1.5412  
G01 X-1.3749 Y1.5464  
G01 X-1.3704 Y1.5509  
G01 X-1.3652 Y1.5544  
G01 X-1.3593 Y1.5568  
G01 X-1.3532 Y1.5580  
G01 X-1.3468 Y1.5580  
G01 X-1.3407 Y1.5568  
G01 X-1.3348 Y1.5544  
G01 X-1.3296 Y1.5509  
G01 X-1.3251 Y1.5464  
G01 X-1.3216 Y1.5412  
G01 X-1.3192 Y1.5353  
G01 X-1.3180 Y1.5292  
G01 X-1.3180 Y1.4708  
G01 X-1.3192 Y1.4647  
G01 X-1.3216 Y1.4588  
G01 X-1.3251 Y1.4536  
G00 Z0.0500  
G00 X-1.4251 Y1.4536  
G01 Z-0.0040 F10    
G01 X-1.4296 Y1.4491  F20    
G01 X-1.4348 Y1.4456  
G01 X-1.4407 Y1.4432  
G01 X-1.4468 Y1.4420  
G01 X-1.4532 Y1.4420  
G01 X-1.4593 Y1.4432  
G01 X-1.4652 Y1.4456  
G01 X-1.4704 Y1.4491  
G01 X-1.4749 Y1.4536  
G01 X-1.4784 Y1.4588  
G01 X-1.4808 Y1.4647  
G01 X-1.4820 Y1.4708  
G01 X-1.4820 Y1.5292  
G01 X-1.4808 Y1.5353  
G01 X-1.4784 Y1.5412  
G01 X-1.4749 Y1.5464  
G01 X-1.4720 Y1.5493  
G01 X-1.4720 Y1.6228  
G01 X-1.4721 Y1.6234  
G01 X-1.4720 Y1.6257  
G01 X-1.4720 Y1.6279  
G01 X-1.4718 Y1.6285  
G01 X-1.4718 Y1.6292  
G01 X-1.4711 Y1.6313  
G01 X-1.4705 Y1.6335  
G01 X-1.4702 Y1.6341  
G01 X-1.4308 Y1.7522  
G01 X-1.4316 Y1.7534  
G01 X-1.4343 Y1.7599  
G01 X-1.4357 Y1.7668  
G01 X-1.4357 Y1.8332  
G01 X-1.4343 Y1.8401  
G01 X-1.4316 Y1.8466  
G01 X-1.4277 Y1.8524  
G01 X-1.4227 Y1.8574  
G01 X-1.4169 Y1.8613  
G01 X-1.4104 Y1.8640  
G01 X-1.4035 Y1.8654  
G01 X-1.3965 Y1.8654  
G01 X-1.3896 Y1.8640  
G01 X-1.3831 Y1.8613  
G01 X-1.3773 Y1.8574  
G01 X-1.3723 Y1.8524  
G01 X-1.3684 Y1.8466  
G01 X-1.3657 Y1.8401  
G01 X-1.3643 Y1.8332  
G01 X-1.3643 Y1.7668  
G01 X-1.3657 Y1.7599  
G01 X-1.3684 Y1.7534  
G01 X-1.3723 Y1.7476  
G01 X-1.3773 Y1.7426  
G01 X-1.3831 Y1.7387  
G01 X-1.3896 Y1.7360  
G01 X-1.3898 Y1.7360  
G01 X-1.4280 Y1.6214  
G01 X-1.4280 Y1.5493  
G01 X-1.4251 Y1.5464  
G01 X-1.4216 Y1.5412  
G01 X-1.4192 Y1.5353  
G01 X-1.4180 Y1.5292  
G01 X-1.4180 Y1.4708  
G01 X-1.4192 Y1.4647  
G01 X-1.4216 Y1.4588  
G01 X-1.4251 Y1.4536  
G00 Z0.0500  
G00 X-1.5251 Y1.4536  
G01 Z-0.0040 F10    
G01 X-1.5296 Y1.4491  F20    
G01 X-1.5348 Y1.4456  
G01 X-1.5407 Y1.4432  
G01 X-1.5468 Y1.4420  
G01 X-1.5532 Y1.4420  
G01 X-1.5593 Y1.4432  
G01 X-1.5652 Y1.4456  
G01 X-1.5704 Y1.4491  
G01 X-1.5749 Y1.4536  
G01 X-1.5784 Y1.4588  
G01 X-1.5808 Y1.4647  
G01 X-1.5820 Y1.4708  
G01 X-1.5820 Y1.5292  
G01 X-1.5808 Y1.5353  
G01 X-1.5784 Y1.5412  
G01 X-1.5749 Y1.5464  
G01 X-1.5720 Y1.5493  
G01 X-1.5720 Y1.5973  
G01 X-1.5720 Y1.5975  
G01 X-1.5720 Y1.6002  
G01 X-1.5720 Y1.6029  
G01 X-1.5720 Y1.6031  
G01 X-1.5719 Y1.6033  
G01 X-1.5712 Y1.6059  
G01 X-1.5705 Y1.6085  
G01 X-1.5704 Y1.6087  
G01 X-1.5298 Y1.7507  
G01 X-1.5316 Y1.7534  
G01 X-1.5343 Y1.7599  
G01 X-1.5357 Y1.7668  
G01 X-1.5357 Y1.8332  
G01 X-1.5343 Y1.8401  
G01 X-1.5316 Y1.8466  
G01 X-1.5277 Y1.8524  
G01 X-1.5227 Y1.8574  
G01 X-1.5169 Y1.8613  
G01 X-1.5104 Y1.8640  
G01 X-1.5035 Y1.8654  
G01 X-1.4965 Y1.8654  
G01 X-1.4896 Y1.8640  
G01 X-1.4831 Y1.8613  
G01 X-1.4773 Y1.8574  
G01 X-1.4723 Y1.8524  
G01 X-1.4684 Y1.8466  
G01 X-1.4657 Y1.8401  
G01 X-1.4643 Y1.8332  
G01 X-1.4643 Y1.7668  
G01 X-1.4657 Y1.7599  
G01 X-1.4684 Y1.7534  
G01 X-1.4723 Y1.7476  
G01 X-1.4773 Y1.7426  
G01 X-1.4831 Y1.7387  
G01 X-1.4881 Y1.7366  
G01 X-1.5280 Y1.5969  
G01 X-1.5280 Y1.5493  
G01 X-1.5251 Y1.5464  
G01 X-1.5216 Y1.5412  
G01 X-1.5192 Y1.5353  
G01 X-1.5180 Y1.5292  
G01 X-1.5180 Y1.4708  
G01 X-1.5192 Y1.4647  
G01 X-1.5216 Y1.4588  
G01 X-1.5251 Y1.4536  
G00 Z0.0500  
G00 X-1.6251 Y1.4536  
G01 Z-0.0040 F10    
G01 X-1.6296 Y1.4491  F20    
G01 X-1.6348 Y1.4456  
G01 X-1.6407 Y1.4432  
G01 X-1.6468 Y1.4420  
G01 X-1.6532 Y1.4420  
G01 X-1.6593 Y1.4432  
G01 X-1.6652 Y1.4456  
G01 X-1.6704 Y1.4491  
G01 X-1.6749 Y1.4536  
G01 X-1.6784 Y1.4588  
G01 X-1.6808 Y1.4647  
G01 X-1.6820 Y1.4708  
G01 X-1.6820 Y1.5292  
G01 X-1.6808 Y1.5353  
G01 X-1.6784 Y1.5412  
G01 X-1.6749 Y1.5464  
G01 X-1.6720 Y1.5493  
G01 X-1.6720 Y1.5677  
G01 X-1.7972 Y1.7346  
G01 X-1.8035 Y1.7346  
G01 X-1.8104 Y1.7360  
G01 X-1.8169 Y1.7387  
G01 X-1.8227 Y1.7426  
G01 X-1.8277 Y1.7476  
G01 X-1.8316 Y1.7534  
G01 X-1.8343 Y1.7599  
G01 X-1.8357 Y1.7668  
G01 X-1.8357 Y1.8332  
G01 X-1.8343 Y1.8401  
G01 X-1.8316 Y1.8466  
G01 X-1.8277 Y1.8524  
G01 X-1.8227 Y1.8574  
G01 X-1.8169 Y1.8613  
G01 X-1.8104 Y1.8640  
G01 X-1.8035 Y1.8654  
G01 X-1.7965 Y1.8654  
G01 X-1.7896 Y1.8640  
G01 X-1.7831 Y1.8613  
G01 X-1.7773 Y1.8574  
G01 X-1.7723 Y1.8524  
G01 X-1.7684 Y1.8466  
G01 X-1.7657 Y1.8401  
G01 X-1.7643 Y1.8332  
G01 X-1.7643 Y1.7668  
G01 X-1.7647 Y1.7647  
G01 X-1.6333 Y1.5895  
G01 X-1.6324 Y1.5885  
G01 X-1.6316 Y1.5871  
G01 X-1.6307 Y1.5859  
G01 X-1.6302 Y1.5846  
G01 X-1.6295 Y1.5835  
G01 X-1.6291 Y1.5820  
G01 X-1.6285 Y1.5805  
G01 X-1.6283 Y1.5792  
G01 X-1.6280 Y1.5779  
G01 X-1.6280 Y1.5763  
G01 X-1.6278 Y1.5748  
G01 X-1.6280 Y1.5734  
G01 X-1.6280 Y1.5493  
G01 X-1.6251 Y1.5464  
G01 X-1.6216 Y1.5412  
G01 X-1.6192 Y1.5353  
G01 X-1.6180 Y1.5292  
G01 X-1.6180 Y1.4708  
G01 X-1.6192 Y1.4647  
G01 X-1.6216 Y1.4588  
G01 X-1.6251 Y1.4536  
G00 Z0.0500  
G00 X-1.7251 Y1.4536  
G01 Z-0.0040 F10    
G01 X-1.7296 Y1.4491  F20    
G01 X-1.7348 Y1.4456  
G01 X-1.7407 Y1.4432  
G01 X-1.7468 Y1.4420  
G01 X-1.7532 Y1.4420  
G01 X-1.7593 Y1.4432  
G01 X-1.7652 Y1.4456  
G01 X-1.7704 Y1.4491  
G01 X-1.7749 Y1.4536  
G01 X-1.7784 Y1.4588  
G01 X-1.7808 Y1.4647  
G01 X-1.7820 Y1.4708  
G01 X-1.7820 Y1.5264  
G01 X-1.7950 Y1.5656  
G01 X-1.9007 Y1.7346  
G01 X-1.9035 Y1.7346  
G01 X-1.9104 Y1.7360  
G01 X-1.9169 Y1.7387  
G01 X-1.9227 Y1.7426  
G01 X-1.9277 Y1.7476  
G01 X-1.9316 Y1.7534  
G01 X-1.9343 Y1.7599  
G01 X-1.9357 Y1.7668  
G01 X-1.9357 Y1.8332  
G01 X-1.9343 Y1.8401  
G01 X-1.9316 Y1.8466  
G01 X-1.9277 Y1.8524  
G01 X-1.9227 Y1.8574  
G01 X-1.9169 Y1.8613  
G01 X-1.9104 Y1.8640  
G01 X-1.9035 Y1.8654  
G01 X-1.8965 Y1.8654  
G01 X-1.8896 Y1.8640  
G01 X-1.8831 Y1.8613  
G01 X-1.8773 Y1.8574  
G01 X-1.8723 Y1.8524  
G01 X-1.8684 Y1.8466  
G01 X-1.8657 Y1.8401  
G01 X-1.8643 Y1.8332  
G01 X-1.8643 Y1.7668  
G01 X-1.8654 Y1.7612  
G01 X-1.7565 Y1.5869  
G01 X-1.7550 Y1.5847  
G01 X-1.7550 Y1.5844  
G01 X-1.7548 Y1.5842  
G01 X-1.7540 Y1.5817  
G01 X-1.7461 Y1.5578  
G01 X-1.7407 Y1.5568  
G01 X-1.7348 Y1.5544  
G01 X-1.7296 Y1.5509  
G01 X-1.7251 Y1.5464  
G01 X-1.7216 Y1.5412  
G01 X-1.7192 Y1.5353  
G01 X-1.7180 Y1.5292  
G01 X-1.7180 Y1.4708  
G01 X-1.7192 Y1.4647  
G01 X-1.7216 Y1.4588  
G01 X-1.7251 Y1.4536  
G00 Z0.0500  
G00 X-1.8251 Y1.4536  
G01 Z-0.0040 F10    
G01 X-1.8296 Y1.4491  F20    
G01 X-1.8332 Y1.4467  
G01 X-1.8530 Y1.3478  
G01 X-1.8530 Y1.3471  
G01 X-1.8536 Y1.3450  
G01 X-1.8540 Y1.3428  
G01 X-1.8543 Y1.3422  
G01 X-1.8545 Y1.3415  
G01 X-1.8556 Y1.3396  
G01 X-1.8566 Y1.3377  
G01 X-1.8570 Y1.3371  
G01 X-1.8574 Y1.3365  
G01 X-1.8589 Y1.3349  
G01 X-1.8604 Y1.3333  
G01 X-1.8610 Y1.3329  
G01 X-1.9030 Y1.2909  
G01 X-1.9030 Y0.6802  
G01 X-1.8681 Y0.6105  
G01 X-1.8669 Y0.6113  
G01 X-1.8604 Y0.6140  
G01 X-1.8535 Y0.6154  
G01 X-1.8465 Y0.6154  
G01 X-1.8396 Y0.6140  
G01 X-1.8331 Y0.6113  
G01 X-1.8273 Y0.6074  
G01 X-1.8223 Y0.6024  
G01 X-1.8184 Y0.5966  
G01 X-1.8157 Y0.5901  
G01 X-1.8143 Y0.5832  
G01 X-1.8143 Y0.5168  
G01 X-1.8157 Y0.5099  
G01 X-1.8184 Y0.5034  
G01 X-1.8223 Y0.4976  
G01 X-1.8273 Y0.4926  
G01 X-1.8331 Y0.4887  
G01 X-1.8396 Y0.4860  
G01 X-1.8465 Y0.4846  
G01 X-1.8535 Y0.4846  
G01 X-1.8604 Y0.4860  
G01 X-1.8669 Y0.4887  
G01 X-1.8727 Y0.4926  
G01 X-1.8777 Y0.4976  
G01 X-1.8816 Y0.5034  
G01 X-1.8843 Y0.5099  
G01 X-1.8857 Y0.5168  
G01 X-1.8857 Y0.5546  
G01 X-1.8890 Y0.5579  
G01 X-1.8895 Y0.5582  
G01 X-1.8910 Y0.5599  
G01 X-1.8926 Y0.5615  
G01 X-1.8929 Y0.5621  
G01 X-1.8934 Y0.5626  
G01 X-1.8944 Y0.5646  
G01 X-1.8955 Y0.5665  
G01 X-1.8957 Y0.5672  
G01 X-1.9444 Y0.6646  
G01 X-1.9455 Y0.6665  
G01 X-1.9457 Y0.6672  
G01 X-1.9460 Y0.6678  
G01 X-1.9464 Y0.6699  
G01 X-1.9470 Y0.6721  
G01 X-1.9470 Y0.6728  
G01 X-1.9471 Y0.6734  
G01 X-1.9470 Y0.6757  
G01 X-1.9470 Y1.3029  
G01 X-1.9455 Y1.3085  
G01 X-1.9426 Y1.3135  
G01 X-1.9385 Y1.3176  
G01 X-1.8953 Y1.3608  
G01 X-1.8763 Y1.4557  
G01 X-1.8784 Y1.4588  
G01 X-1.8808 Y1.4647  
G01 X-1.8820 Y1.4708  
G01 X-1.8820 Y1.5292  
G01 X-1.8808 Y1.5353  
G01 X-1.8784 Y1.5412  
G01 X-1.8749 Y1.5464  
G01 X-1.8704 Y1.5509  
G01 X-1.8652 Y1.5544  
G01 X-1.8593 Y1.5568  
G01 X-1.8532 Y1.5580  
G01 X-1.8468 Y1.5580  
G01 X-1.8407 Y1.5568  
G01 X-1.8348 Y1.5544  
G01 X-1.8296 Y1.5509  
G01 X-1.8251 Y1.5464  
G01 X-1.8216 Y1.5412  
G01 X-1.8192 Y1.5353  
G01 X-1.8180 Y1.5292  
G01 X-1.8180 Y1.4708  
G01 X-1.8192 Y1.4647  
G01 X-1.8216 Y1.4588  
G01 X-1.8251 Y1.4536  
G00 Z0.0500  
G00 X-1.8296 Y1.2509  
G01 Z-0.0040 F10    
G01 X-1.8251 Y1.2464  F20    
G01 X-1.8216 Y1.2412  
G01 X-1.8192 Y1.2353  
G01 X-1.8180 Y1.2292  
G01 X-1.8180 Y1.1708  
G01 X-1.8192 Y1.1647  
G01 X-1.8216 Y1.1588  
G01 X-1.8251 Y1.1536  
G01 X-1.8296 Y1.1491  
G01 X-1.8348 Y1.1456  
G01 X-1.8407 Y1.1432  
G01 X-1.8468 Y1.1420  
G01 X-1.8532 Y1.1420  
G01 X-1.8593 Y1.1432  
G01 X-1.8652 Y1.1456  
G01 X-1.8704 Y1.1491  
G01 X-1.8749 Y1.1536  
G01 X-1.8784 Y1.1588  
G01 X-1.8808 Y1.1647  
G01 X-1.8820 Y1.1708  
G01 X-1.8820 Y1.2292  
G01 X-1.8808 Y1.2353  
G01 X-1.8784 Y1.2412  
G01 X-1.8749 Y1.2464  
G01 X-1.8704 Y1.2509  
G01 X-1.8652 Y1.2544  
G01 X-1.8593 Y1.2568  
G01 X-1.8532 Y1.2580  
G01 X-1.8468 Y1.2580  
G01 X-1.8407 Y1.2568  
G01 X-1.8348 Y1.2544  
G01 X-1.8296 Y1.2509  
G00 Z0.0500  
G00 X-1.7749 Y1.2464  
G01 Z-0.0040 F10    
G01 X-1.7704 Y1.2509  F20    
G01 X-1.7652 Y1.2544  
G01 X-1.7593 Y1.2568  
G01 X-1.7532 Y1.2580  
G01 X-1.7468 Y1.2580  
G01 X-1.7407 Y1.2568  
G01 X-1.7348 Y1.2544  
G01 X-1.7296 Y1.2509  
G01 X-1.7251 Y1.2464  
G01 X-1.7216 Y1.2412  
G01 X-1.7192 Y1.2353  
G01 X-1.7180 Y1.2292  
G01 X-1.7180 Y1.1708  
G01 X-1.7192 Y1.1647  
G01 X-1.7216 Y1.1588  
G01 X-1.7251 Y1.1536  
G01 X-1.7296 Y1.1491  
G01 X-1.7348 Y1.1456  
G01 X-1.7407 Y1.1432  
G01 X-1.7468 Y1.1420  
G01 X-1.7532 Y1.1420  
G01 X-1.7593 Y1.1432  
G01 X-1.7652 Y1.1456  
G01 X-1.7704 Y1.1491  
G01 X-1.7749 Y1.1536  
G01 X-1.7784 Y1.1588  
G01 X-1.7808 Y1.1647  
G01 X-1.7820 Y1.1708  
G01 X-1.7820 Y1.2292  
G01 X-1.7808 Y1.2353  
G01 X-1.7784 Y1.2412  
G01 X-1.7749 Y1.2464  
G00 Z0.0500  
G00 X-1.6749 Y1.2464  
G01 Z-0.0040 F10    
G01 X-1.6704 Y1.2509  F20    
G01 X-1.6652 Y1.2544  
G01 X-1.6593 Y1.2568  
G01 X-1.6532 Y1.2580  
G01 X-1.6468 Y1.2580  
G01 X-1.6407 Y1.2568  
G01 X-1.6348 Y1.2544  
G01 X-1.6296 Y1.2509  
G01 X-1.6251 Y1.2464  
G01 X-1.6216 Y1.2412  
G01 X-1.6192 Y1.2353  
G01 X-1.6180 Y1.2292  
G01 X-1.6180 Y1.1708  
G01 X-1.6192 Y1.1647  
G01 X-1.6216 Y1.1588  
G01 X-1.6251 Y1.1536  
G01 X-1.6280 Y1.1507  
G01 X-1.6280 Y1.1471  
G01 X-1.6295 Y1.1415  
G01 X-1.6324 Y1.1365  
G01 X-1.8030 Y0.9659  
G01 X-1.8030 Y0.7295  
G01 X-1.7540 Y0.6153  
G01 X-1.7535 Y0.6154  
G01 X-1.7465 Y0.6154  
G01 X-1.7396 Y0.6140  
G01 X-1.7331 Y0.6113  
G01 X-1.7273 Y0.6074  
G01 X-1.7223 Y0.6024  
G01 X-1.7184 Y0.5966  
G01 X-1.7157 Y0.5901  
G01 X-1.7143 Y0.5832  
G01 X-1.7143 Y0.5168  
G01 X-1.7157 Y0.5099  
G01 X-1.7184 Y0.5034  
G01 X-1.7223 Y0.4976  
G01 X-1.7273 Y0.4926  
G01 X-1.7331 Y0.4887  
G01 X-1.7396 Y0.4860  
G01 X-1.7465 Y0.4846  
G01 X-1.7535 Y0.4846  
G01 X-1.7604 Y0.4860  
G01 X-1.7669 Y0.4887  
G01 X-1.7727 Y0.4926  
G01 X-1.7777 Y0.4976  
G01 X-1.7816 Y0.5034  
G01 X-1.7843 Y0.5099  
G01 X-1.7857 Y0.5168  
G01 X-1.7857 Y0.5774  
G01 X-1.8447 Y0.7151  
G01 X-1.8455 Y0.7165  
G01 X-1.8458 Y0.7178  
G01 X-1.8464 Y0.7190  
G01 X-1.8466 Y0.7206  
G01 X-1.8470 Y0.7221  
G01 X-1.8470 Y0.7234  
G01 X-1.8472 Y0.7247  
G01 X-1.8470 Y0.7263  
G01 X-1.8470 Y0.9779  
G01 X-1.8455 Y0.9835  
G01 X-1.8426 Y0.9885  
G01 X-1.8385 Y0.9926  
G01 X-1.6759 Y1.1552  
G01 X-1.6784 Y1.1588  
G01 X-1.6808 Y1.1647  
G01 X-1.6820 Y1.1708  
G01 X-1.6820 Y1.2292  
G01 X-1.6808 Y1.2353  
G01 X-1.6784 Y1.2412  
G01 X-1.6749 Y1.2464  
G00 Z0.0500  
G00 X-1.5749 Y1.2464  
G01 Z-0.0040 F10    
G01 X-1.5704 Y1.2509  F20    
G01 X-1.5652 Y1.2544  
G01 X-1.5593 Y1.2568  
G01 X-1.5532 Y1.2580  
G01 X-1.5468 Y1.2580  
G01 X-1.5407 Y1.2568  
G01 X-1.5348 Y1.2544  
G01 X-1.5296 Y1.2509  
G01 X-1.5251 Y1.2464  
G01 X-1.5216 Y1.2412  
G01 X-1.5192 Y1.2353  
G01 X-1.5180 Y1.2292  
G01 X-1.5180 Y1.1708  
G01 X-1.5192 Y1.1647  
G01 X-1.5216 Y1.1588  
G01 X-1.5228 Y1.1571  
G01 X-1.5037 Y1.0805  
G01 X-1.5030 Y1.0779  
G01 X-1.5030 Y1.0777  
G01 X-1.5030 Y1.0775  
G01 X-1.5030 Y1.0748  
G01 X-1.5030 Y0.9772  
G01 X-1.5029 Y0.9766  
G01 X-1.5030 Y0.9743  
G01 X-1.5030 Y0.9721  
G01 X-1.5032 Y0.9715  
G01 X-1.5032 Y0.9708  
G01 X-1.5039 Y0.9687  
G01 X-1.5045 Y0.9665  
G01 X-1.5048 Y0.9659  
G01 X-1.5050 Y0.9653  
G01 X-1.5063 Y0.9634  
G01 X-1.5074 Y0.9615  
G01 X-1.5079 Y0.9610  
G01 X-1.5082 Y0.9605  
G01 X-1.5099 Y0.9590  
G01 X-1.5115 Y0.9574  
G01 X-1.5121 Y0.9571  
G01 X-1.5126 Y0.9566  
G01 X-1.5146 Y0.9556  
G01 X-1.5165 Y0.9545  
G01 X-1.5172 Y0.9543  
G01 X-1.6120 Y0.9069  
G01 X-1.6530 Y0.8659  
G01 X-1.6530 Y0.7872  
G01 X-1.4635 Y0.6688  
G01 X-1.4612 Y0.6674  
G01 X-1.4611 Y0.6672  
G01 X-1.4609 Y0.6671  
G01 X-1.4590 Y0.6651  
G01 X-1.4572 Y0.6632  
G01 X-1.4571 Y0.6630  
G01 X-1.4569 Y0.6629  
G01 X-1.4557 Y0.6605  
G01 X-1.4544 Y0.6581  
G01 X-1.4543 Y0.6579  
G01 X-1.4542 Y0.6578  
G01 X-1.4536 Y0.6551  
G01 X-1.4435 Y0.6148  
G01 X-1.4396 Y0.6140  
G01 X-1.4331 Y0.6113  
G01 X-1.4273 Y0.6074  
G01 X-1.4223 Y0.6024  
G01 X-1.4184 Y0.5966  
G01 X-1.4157 Y0.5901  
G01 X-1.4143 Y0.5832  
G01 X-1.4143 Y0.5168  
G01 X-1.4157 Y0.5099  
G01 X-1.4184 Y0.5034  
G01 X-1.4223 Y0.4976  
G01 X-1.4273 Y0.4926  
G01 X-1.4331 Y0.4887  
G01 X-1.4396 Y0.4860  
G01 X-1.4465 Y0.4846  
G01 X-1.4535 Y0.4846  
G01 X-1.4604 Y0.4860  
G01 X-1.4669 Y0.4887  
G01 X-1.4727 Y0.4926  
G01 X-1.4777 Y0.4976  
G01 X-1.4816 Y0.5034  
G01 X-1.4843 Y0.5099  
G01 X-1.4857 Y0.5168  
G01 X-1.4857 Y0.5832  
G01 X-1.4843 Y0.5901  
G01 X-1.4833 Y0.5925  
G01 X-1.4942 Y0.6360  
G01 X-1.6863 Y0.7561  
G01 X-1.6885 Y0.7574  
G01 X-1.6888 Y0.7577  
G01 X-1.6891 Y0.7579  
G01 X-1.6908 Y0.7597  
G01 X-1.6926 Y0.7615  
G01 X-1.6928 Y0.7618  
G01 X-1.6931 Y0.7621  
G01 X-1.6942 Y0.7643  
G01 X-1.6955 Y0.7665  
G01 X-1.6956 Y0.7669  
G01 X-1.6958 Y0.7672  
G01 X-1.6963 Y0.7697  
G01 X-1.6970 Y0.7721  
G01 X-1.6970 Y0.7725  
G01 X-1.6971 Y0.7729  
G01 X-1.6970 Y0.7754  
G01 X-1.6970 Y0.8779  
G01 X-1.6955 Y0.8835  
G01 X-1.6926 Y0.8885  
G01 X-1.6885 Y0.8926  
G01 X-1.6421 Y0.9390  
G01 X-1.6418 Y0.9395  
G01 X-1.6401 Y0.9410  
G01 X-1.6385 Y0.9426  
G01 X-1.6379 Y0.9429  
G01 X-1.6374 Y0.9434  
G01 X-1.6354 Y0.9444  
G01 X-1.6335 Y0.9455  
G01 X-1.6328 Y0.9457  
G01 X-1.5470 Y0.9886  
G01 X-1.5470 Y1.0723  
G01 X-1.5654 Y1.1458  
G01 X-1.5704 Y1.1491  
G01 X-1.5749 Y1.1536  
G01 X-1.5784 Y1.1588  
G01 X-1.5808 Y1.1647  
G01 X-1.5820 Y1.1708  
G01 X-1.5820 Y1.2292  
G01 X-1.5808 Y1.2353  
G01 X-1.5784 Y1.2412  
G01 X-1.5749 Y1.2464  
G00 Z0.0500  
G00 X-1.4749 Y1.2464  
G01 Z-0.0040 F10    
G01 X-1.4704 Y1.2509  F20    
G01 X-1.4652 Y1.2544  
G01 X-1.4593 Y1.2568  
G01 X-1.4532 Y1.2580  
G01 X-1.4468 Y1.2580  
G01 X-1.4407 Y1.2568  
G01 X-1.4348 Y1.2544  
G01 X-1.4296 Y1.2509  
G01 X-1.4251 Y1.2464  
G01 X-1.4216 Y1.2412  
G01 X-1.4192 Y1.2353  
G01 X-1.4180 Y1.2292  
G01 X-1.4180 Y1.1708  
G01 X-1.4192 Y1.1647  
G01 X-1.4216 Y1.1588  
G01 X-1.4251 Y1.1536  
G01 X-1.4280 Y1.1507  
G01 X-1.4280 Y0.9771  
G01 X-1.4246 Y0.9749  
G01 X-1.4201 Y0.9704  
G01 X-1.4166 Y0.9652  
G01 X-1.4142 Y0.9593  
G01 X-1.4130 Y0.9532  
G01 X-1.4130 Y0.9468  
G01 X-1.4142 Y0.9407  
G01 X-1.4166 Y0.9348  
G01 X-1.4201 Y0.9296  
G01 X-1.4246 Y0.9251  
G01 X-1.4280 Y0.9229  
G01 X-1.4280 Y0.8971  
G01 X-1.4295 Y0.8915  
G01 X-1.4324 Y0.8865  
G01 X-1.4365 Y0.8824  
G01 X-1.5180 Y0.8009  
G01 X-1.5180 Y0.7867  
G01 X-1.5367 Y0.7680  
G01 X-1.5633 Y0.7680  
G01 X-1.5820 Y0.7867  
G01 X-1.5820 Y0.8009  
G01 X-1.5991 Y0.8180  
G01 X-1.6133 Y0.8180  
G01 X-1.6320 Y0.8367  
G01 X-1.6320 Y0.8633  
G01 X-1.6133 Y0.8820  
G01 X-1.5867 Y0.8820  
G01 X-1.5680 Y0.8633  
G01 X-1.5680 Y0.8491  
G01 X-1.5509 Y0.8320  
G01 X-1.5491 Y0.8320  
G01 X-1.4720 Y0.9091  
G01 X-1.4720 Y0.9328  
G01 X-1.4734 Y0.9348  
G01 X-1.4758 Y0.9407  
G01 X-1.4770 Y0.9468  
G01 X-1.4770 Y0.9532  
G01 X-1.4758 Y0.9593  
G01 X-1.4734 Y0.9652  
G01 X-1.4720 Y0.9672  
G01 X-1.4720 Y1.1507  
G01 X-1.4749 Y1.1536  
G01 X-1.4784 Y1.1588  
G01 X-1.4808 Y1.1647  
G01 X-1.4820 Y1.1708  
G01 X-1.4820 Y1.2292  
G01 X-1.4808 Y1.2353  
G01 X-1.4784 Y1.2412  
G01 X-1.4749 Y1.2464  
G00 Z0.0500  
G00 X-1.5149 Y2.1213  
G01 Z-0.0040 F10    
G01 X-1.5198 Y2.1164  F20    
G01 X-1.5254 Y2.1124  
G01 X-1.5315 Y2.1092  
G01 X-1.5381 Y2.1071  
G01 X-1.5450 Y2.1060  
G01 X-1.5519 Y2.1060  
G01 X-1.5587 Y2.1071  
G01 X-1.5653 Y2.1092  
G01 X-1.5715 Y2.1124  
G01 X-1.5771 Y2.1164  
G01 X-1.5820 Y2.1213  
G01 X-1.5861 Y2.1269  
G01 X-1.5892 Y2.1331  
G01 X-1.5913 Y2.1397  
G01 X-1.5924 Y2.1465  
G01 X-1.5924 Y2.1535  
G01 X-1.5913 Y2.1603  
G01 X-1.5892 Y2.1669  
G01 X-1.5861 Y2.1731  
G01 X-1.5820 Y2.1787  
G01 X-1.5803 Y2.1804  
G01 X-1.6439 Y2.4348  
G01 X-1.7302 Y2.4780  
G01 X-1.8112 Y2.4780  
G01 X-1.8322 Y2.4570  
G01 X-1.8678 Y2.4570  
G01 X-1.8888 Y2.4780  
G01 X-1.9112 Y2.4780  
G01 X-1.9322 Y2.4570  
G01 X-1.9678 Y2.4570  
G01 X-1.9930 Y2.4822  
G01 X-1.9930 Y2.5178  
G01 X-1.9678 Y2.5430  
G01 X-1.9322 Y2.5430  
G01 X-1.9112 Y2.5220  
G01 X-1.8888 Y2.5220  
G01 X-1.8678 Y2.5430  
G01 X-1.8322 Y2.5430  
G01 X-1.8112 Y2.5220  
G01 X-1.7257 Y2.5220  
G01 X-1.7234 Y2.5221  
G01 X-1.7228 Y2.5220  
G01 X-1.7221 Y2.5220  
G01 X-1.7199 Y2.5214  
G01 X-1.7178 Y2.5210  
G01 X-1.7172 Y2.5207  
G01 X-1.7165 Y2.5205  
G01 X-1.7146 Y2.5194  
G01 X-1.6170 Y2.4706  
G01 X-1.6162 Y2.4704  
G01 X-1.6144 Y2.4693  
G01 X-1.6126 Y2.4684  
G01 X-1.6119 Y2.4678  
G01 X-1.6112 Y2.4674  
G01 X-1.6098 Y2.4659  
G01 X-1.6082 Y2.4645  
G01 X-1.6078 Y2.4638  
G01 X-1.6072 Y2.4632  
G01 X-1.6062 Y2.4614  
G01 X-1.6050 Y2.4597  
G01 X-1.6048 Y2.4589  
G01 X-1.6044 Y2.4581  
G01 X-1.6039 Y2.4562  
G01 X-1.6032 Y2.4542  
G01 X-1.6032 Y2.4534  
G01 X-1.5380 Y2.1929  
G01 X-1.5315 Y2.1908  
G01 X-1.5254 Y2.1876  
G01 X-1.5198 Y2.1836  
G01 X-1.5149 Y2.1787  
G01 X-1.5108 Y2.1731  
G01 X-1.5076 Y2.1669  
G01 X-1.5055 Y2.1603  
G01 X-1.5044 Y2.1535  
G01 X-1.5044 Y2.1465  
G01 X-1.5055 Y2.1397  
G01 X-1.5076 Y2.1331  
G01 X-1.5108 Y2.1269  
G01 X-1.5149 Y2.1213  
G00 Z0.0500  
G00 X-1.4135 Y2.1324  
G01 Z-0.0040 F10    
G01 X-1.4176 Y2.1365  F20    
G01 X-1.4205 Y2.1415  
G01 X-1.4220 Y2.1471  
G01 X-1.4220 Y2.3196  
G01 X-1.4239 Y2.3209  
G01 X-1.4291 Y2.3261  
G01 X-1.4332 Y2.3322  
G01 X-1.4361 Y2.3391  
G01 X-1.4375 Y2.3463  
G01 X-1.4375 Y2.3537  
G01 X-1.4361 Y2.3609  
G01 X-1.4332 Y2.3678  
G01 X-1.4291 Y2.3739  
G01 X-1.4239 Y2.3791  
G01 X-1.4178 Y2.3832  
G01 X-1.4112 Y2.3859  
G01 X-1.3720 Y2.5036  
G01 X-1.3720 Y2.5267  
G01 X-1.3820 Y2.5367  
G01 X-1.3820 Y2.5633  
G01 X-1.3633 Y2.5820  
G01 X-1.3367 Y2.5820  
G01 X-1.3267 Y2.5720  
G01 X-1.0733 Y2.5720  
G01 X-1.0704 Y2.5749  
G01 X-1.0652 Y2.5784  
G01 X-1.0593 Y2.5808  
G01 X-1.0532 Y2.5820  
G01 X-1.0468 Y2.5820  
G01 X-1.0407 Y2.5808  
G01 X-1.0348 Y2.5784  
G01 X-1.0296 Y2.5749  
G01 X-1.0251 Y2.5704  
G01 X-1.0216 Y2.5652  
G01 X-1.0192 Y2.5593  
G01 X-1.0180 Y2.5532  
G01 X-1.0180 Y2.5468  
G01 X-1.0192 Y2.5407  
G01 X-1.0216 Y2.5348  
G01 X-1.0251 Y2.5296  
G01 X-1.0296 Y2.5251  
G01 X-1.0348 Y2.5216  
G01 X-1.0407 Y2.5192  
G01 X-1.0468 Y2.5180  
G01 X-1.0532 Y2.5180  
G01 X-1.0593 Y2.5192  
G01 X-1.0652 Y2.5216  
G01 X-1.0704 Y2.5251  
G01 X-1.0733 Y2.5280  
G01 X-1.3267 Y2.5280  
G01 X-1.3280 Y2.5267  
G01 X-1.3280 Y2.5022  
G01 X-1.3279 Y2.5016  
G01 X-1.3280 Y2.4993  
G01 X-1.3280 Y2.4971  
G01 X-1.3282 Y2.4965  
G01 X-1.3282 Y2.4958  
G01 X-1.3289 Y2.4937  
G01 X-1.3295 Y2.4915  
G01 X-1.3298 Y2.4909  
G01 X-1.3695 Y2.3719  
G01 X-1.3668 Y2.3678  
G01 X-1.3639 Y2.3609  
G01 X-1.3625 Y2.3537  
G01 X-1.3625 Y2.3463  
G01 X-1.3639 Y2.3391  
G01 X-1.3668 Y2.3322  
G01 X-1.3709 Y2.3261  
G01 X-1.3761 Y2.3209  
G01 X-1.3780 Y2.3196  
G01 X-1.3780 Y2.1852  
G01 X-1.3746 Y2.1876  
G01 X-1.3685 Y2.1908  
G01 X-1.3619 Y2.1929  
G01 X-1.3550 Y2.1940  
G01 X-1.3481 Y2.1940  
G01 X-1.3413 Y2.1929  
G01 X-1.3347 Y2.1908  
G01 X-1.3285 Y2.1876  
G01 X-1.3229 Y2.1836  
G01 X-1.3180 Y2.1787  
G01 X-1.3139 Y2.1731  
G01 X-1.3134 Y2.1720  
G01 X-1.0233 Y2.1720  
G01 X-1.0133 Y2.1820  
G01 X-0.9867 Y2.1820  
G01 X-0.9680 Y2.1633  
G01 X-0.9680 Y2.1367  
G01 X-0.9867 Y2.1180  
G01 X-1.0133 Y2.1180  
G01 X-1.0233 Y2.1280  
G01 X-1.3134 Y2.1280  
G01 X-1.3139 Y2.1269  
G01 X-1.3180 Y2.1213  
G01 X-1.3229 Y2.1164  
G01 X-1.3285 Y2.1124  
G01 X-1.3347 Y2.1092  
G01 X-1.3413 Y2.1071  
G01 X-1.3481 Y2.1060  
G01 X-1.3550 Y2.1060  
G01 X-1.3619 Y2.1071  
G01 X-1.3685 Y2.1092  
G01 X-1.3746 Y2.1124  
G01 X-1.3802 Y2.1164  
G01 X-1.3851 Y2.1213  
G01 X-1.3892 Y2.1269  
G01 X-1.3897 Y2.1280  
G01 X-1.4029 Y2.1280  
G01 X-1.4085 Y2.1295  
G01 X-1.4135 Y2.1324  
G00 Z0.0500  
G00 X-1.2820 Y2.2367  
G01 Z-0.0040 F10    
G01 X-1.2820 Y2.2633  F20    
G01 X-1.2633 Y2.2820  
G01 X-1.2440 Y2.2820  
G01 X-1.1820 Y2.3285  
G01 X-1.1820 Y2.3383  
G01 X-1.1633 Y2.3570  
G01 X-1.1367 Y2.3570  
G01 X-1.1319 Y2.3522  
G01 X-1.0780 Y2.3657  
G01 X-1.0749 Y2.3704  
G01 X-1.0704 Y2.3749  
G01 X-1.0652 Y2.3784  
G01 X-1.0593 Y2.3808  
G01 X-1.0532 Y2.3820  
G01 X-1.0468 Y2.3820  
G01 X-1.0407 Y2.3808  
G01 X-1.0348 Y2.3784  
G01 X-1.0296 Y2.3749  
G01 X-1.0251 Y2.3704  
G01 X-1.0216 Y2.3652  
G01 X-1.0192 Y2.3593  
G01 X-1.0180 Y2.3532  
G01 X-1.0180 Y2.3468  
G01 X-1.0192 Y2.3407  
G01 X-1.0216 Y2.3348  
G01 X-1.0251 Y2.3296  
G01 X-1.0296 Y2.3251  
G01 X-1.0348 Y2.3216  
G01 X-1.0407 Y2.3192  
G01 X-1.0468 Y2.3180  
G01 X-1.0532 Y2.3180  
G01 X-1.0593 Y2.3192  
G01 X-1.0652 Y2.3216  
G01 X-1.0672 Y2.3230  
G01 X-1.1199 Y2.3098  
G01 X-1.1367 Y2.2930  
G01 X-1.1560 Y2.2930  
G01 X-1.2180 Y2.2465  
G01 X-1.2180 Y2.2367  
G01 X-1.2367 Y2.2180  
G01 X-1.2633 Y2.2180  
G01 X-1.2820 Y2.2367  
G00 Z0.0500  
G00 X-1.0808 Y2.2407  
G01 Z-0.0040 F10    
G01 X-1.0820 Y2.2468  F20    
G01 X-1.0820 Y2.2532  
G01 X-1.0808 Y2.2593  
G01 X-1.0784 Y2.2652  
G01 X-1.0749 Y2.2704  
G01 X-1.0704 Y2.2749  
G01 X-1.0652 Y2.2784  
G01 X-1.0593 Y2.2808  
G01 X-1.0532 Y2.2820  
G01 X-1.0468 Y2.2820  
G01 X-1.0407 Y2.2808  
G01 X-1.0348 Y2.2784  
G01 X-1.0296 Y2.2749  
G01 X-1.0251 Y2.2704  
G01 X-1.0216 Y2.2652  
G01 X-1.0192 Y2.2593  
G01 X-1.0180 Y2.2532  
G01 X-1.0180 Y2.2491  
G01 X-1.0159 Y2.2470  
G01 X-0.9266 Y2.2470  
G01 X-0.9253 Y2.2472  
G01 X-0.9237 Y2.2470  
G01 X-0.9221 Y2.2470  
G01 X-0.9208 Y2.2467  
G01 X-0.9195 Y2.2465  
G01 X-0.9180 Y2.2459  
G01 X-0.9165 Y2.2455  
G01 X-0.9154 Y2.2448  
G01 X-0.9141 Y2.2444  
G01 X-0.9129 Y2.2434  
G01 X-0.9115 Y2.2426  
G01 X-0.9106 Y2.2417  
G01 X-0.9095 Y2.2409  
G01 X-0.9085 Y2.2396  
G01 X-0.9074 Y2.2385  
G01 X-0.9067 Y2.2374  
G01 X-0.9059 Y2.2363  
G01 X-0.9053 Y2.2349  
G01 X-0.9045 Y2.2335  
G01 X-0.9042 Y2.2322  
G01 X-0.8303 Y2.0599  
G01 X-0.8295 Y2.0585  
G01 X-0.8292 Y2.0572  
G01 X-0.8286 Y2.0560  
G01 X-0.8284 Y2.0544  
G01 X-0.8280 Y2.0529  
G01 X-0.8280 Y2.0516  
G01 X-0.8278 Y2.0503  
G01 X-0.8280 Y2.0487  
G01 X-0.8280 Y1.9780  
G01 X-0.8274 Y1.9776  
G01 X-0.8224 Y1.9726  
G01 X-0.8185 Y1.9668  
G01 X-0.8159 Y1.9604  
G01 X-0.8145 Y1.9535  
G01 X-0.8145 Y1.9465  
G01 X-0.8159 Y1.9396  
G01 X-0.8185 Y1.9332  
G01 X-0.8224 Y1.9274  
G01 X-0.8274 Y1.9224  
G01 X-0.8332 Y1.9185  
G01 X-0.8396 Y1.9159  
G01 X-0.8465 Y1.9145  
G01 X-0.8535 Y1.9145  
G01 X-0.8604 Y1.9159  
G01 X-0.8668 Y1.9185  
G01 X-0.8726 Y1.9224  
G01 X-0.8776 Y1.9274  
G01 X-0.8815 Y1.9332  
G01 X-0.8841 Y1.9396  
G01 X-0.8855 Y1.9465  
G01 X-0.8855 Y1.9535  
G01 X-0.8841 Y1.9604  
G01 X-0.8815 Y1.9668  
G01 X-0.8776 Y1.9726  
G01 X-0.8726 Y1.9776  
G01 X-0.8720 Y1.9780  
G01 X-0.8720 Y2.0455  
G01 X-0.9395 Y2.2030  
G01 X-1.0279 Y2.2030  
G01 X-1.0335 Y2.2045  
G01 X-1.0385 Y2.2074  
G01 X-1.0426 Y2.2115  
G01 X-1.0491 Y2.2180  
G01 X-1.0532 Y2.2180  
G01 X-1.0593 Y2.2192  
G01 X-1.0652 Y2.2216  
G01 X-1.0704 Y2.2251  
G01 X-1.0749 Y2.2296  
G01 X-1.0784 Y2.2348  
G01 X-1.0808 Y2.2407  
G00 Z0.0500  
G00 X-1.0704 Y2.4251  
G01 Z-0.0040 F10    
G01 X-1.0749 Y2.4296  F20    
G01 X-1.0784 Y2.4348  
G01 X-1.0808 Y2.4407  
G01 X-1.0820 Y2.4468  
G01 X-1.0820 Y2.4532  
G01 X-1.0808 Y2.4593  
G01 X-1.0784 Y2.4652  
G01 X-1.0749 Y2.4704  
G01 X-1.0704 Y2.4749  
G01 X-1.0652 Y2.4784  
G01 X-1.0593 Y2.4808  
G01 X-1.0532 Y2.4820  
G01 X-1.0491 Y2.4820  
G01 X-0.9970 Y2.5341  
G01 X-0.9970 Y2.6030  
G01 X-1.2279 Y2.6030  
G01 X-1.2335 Y2.6045  
G01 X-1.2385 Y2.6074  
G01 X-1.2491 Y2.6180  
G01 X-1.2633 Y2.6180  
G01 X-1.2801 Y2.6348  
G01 X-1.4075 Y2.6667  
G01 X-1.4099 Y2.6657  
G01 X-1.4168 Y2.6643  
G01 X-1.4832 Y2.6643  
G01 X-1.4901 Y2.6657  
G01 X-1.4966 Y2.6684  
G01 X-1.5024 Y2.6723  
G01 X-1.5074 Y2.6773  
G01 X-1.5113 Y2.6831  
G01 X-1.5140 Y2.6896  
G01 X-1.5154 Y2.6965  
G01 X-1.5154 Y2.7035  
G01 X-1.5140 Y2.7104  
G01 X-1.5113 Y2.7169  
G01 X-1.5074 Y2.7227  
G01 X-1.5024 Y2.7277  
G01 X-1.4966 Y2.7316  
G01 X-1.4901 Y2.7343  
G01 X-1.4832 Y2.7357  
G01 X-1.4168 Y2.7357  
G01 X-1.4099 Y2.7343  
G01 X-1.4034 Y2.7316  
G01 X-1.3976 Y2.7277  
G01 X-1.3926 Y2.7227  
G01 X-1.3887 Y2.7169  
G01 X-1.3860 Y2.7104  
G01 X-1.3852 Y2.7065  
G01 X-1.2681 Y2.6772  
G01 X-1.2633 Y2.6820  
G01 X-1.2367 Y2.6820  
G01 X-1.2180 Y2.6633  
G01 X-1.2180 Y2.6491  
G01 X-1.2159 Y2.6470  
G01 X-0.9721 Y2.6470  
G01 X-0.9665 Y2.6455  
G01 X-0.9615 Y2.6426  
G01 X-0.9574 Y2.6385  
G01 X-0.9545 Y2.6335  
G01 X-0.9530 Y2.6279  
G01 X-0.9530 Y2.5221  
G01 X-0.9545 Y2.5165  
G01 X-0.9574 Y2.5115  
G01 X-0.9615 Y2.5074  
G01 X-1.0180 Y2.4509  
G01 X-1.0180 Y2.4468  
G01 X-1.0192 Y2.4407  
G01 X-1.0216 Y2.4348  
G01 X-1.0251 Y2.4296  
G01 X-1.0296 Y2.4251  
G01 X-1.0348 Y2.4216  
G01 X-1.0407 Y2.4192  
G01 X-1.0468 Y2.4180  
G01 X-1.0532 Y2.4180  
G01 X-1.0593 Y2.4192  
G01 X-1.0652 Y2.4216  
G01 X-1.0704 Y2.4251  
G00 Z0.0500  
G00 X-1.0383 Y2.6680  
G01 Z-0.0040 F10    
G01 X-1.0570 Y2.6867  F20    
G01 X-1.0570 Y2.7127  
G01 X-1.1881 Y2.9530  
G01 X-1.9659 Y2.9530  
G01 X-2.0030 Y2.9159  
G01 X-2.0030 Y2.3220  
G01 X-1.9888 Y2.3220  
G01 X-1.9678 Y2.3430  
G01 X-1.9322 Y2.3430  
G01 X-1.9112 Y2.3220  
G01 X-1.8888 Y2.3220  
G01 X-1.8678 Y2.3430  
G01 X-1.8322 Y2.3430  
G01 X-1.8070 Y2.3178  
G01 X-1.8070 Y2.2822  
G01 X-1.8322 Y2.2570  
G01 X-1.8678 Y2.2570  
G01 X-1.8888 Y2.2780  
G01 X-1.9112 Y2.2780  
G01 X-1.9322 Y2.2570  
G01 X-1.9678 Y2.2570  
G01 X-1.9888 Y2.2780  
G01 X-2.0279 Y2.2780  
G01 X-2.0335 Y2.2795  
G01 X-2.0385 Y2.2824  
G01 X-2.0426 Y2.2865  
G01 X-2.0455 Y2.2915  
G01 X-2.0470 Y2.2971  
G01 X-2.0470 Y2.9279  
G01 X-2.0455 Y2.9335  
G01 X-2.0426 Y2.9385  
G01 X-2.0385 Y2.9426  
G01 X-1.9885 Y2.9926  
G01 X-1.9835 Y2.9955  
G01 X-1.9779 Y2.9970  
G01 X-1.1776 Y2.9970  
G01 X-1.1774 Y2.9971  
G01 X-1.1747 Y2.9970  
G01 X-1.1721 Y2.9970  
G01 X-1.1718 Y2.9969  
G01 X-1.1716 Y2.9969  
G01 X-1.1690 Y2.9962  
G01 X-1.1665 Y2.9955  
G01 X-1.1663 Y2.9954  
G01 X-1.1660 Y2.9953  
G01 X-1.1638 Y2.9939  
G01 X-1.1615 Y2.9926  
G01 X-1.1613 Y2.9924  
G01 X-1.1611 Y2.9923  
G01 X-1.1593 Y2.9904  
G01 X-1.1574 Y2.9885  
G01 X-1.1573 Y2.9883  
G01 X-1.1571 Y2.9881  
G01 X-1.1558 Y2.9858  
G01 X-1.1545 Y2.9835  
G01 X-1.1544 Y2.9832  
G01 X-1.0174 Y2.7320  
G01 X-1.0117 Y2.7320  
G01 X-0.9930 Y2.7133  
G01 X-0.9930 Y2.6867  
G01 X-1.0117 Y2.6680  
G01 X-1.0383 Y2.6680  
G00 Z0.0500  
G00 X-0.7676 Y2.5885  
G01 Z-0.0040 F10    
G01 X-0.6570 Y2.6991  F20    
G01 X-0.6570 Y2.7133  
G01 X-0.6383 Y2.7320  
G01 X-0.6202 Y2.7320  
G01 X-0.5320 Y2.8026  
G01 X-0.5320 Y2.8133  
G01 X-0.5133 Y2.8320  
G01 X-0.4867 Y2.8320  
G01 X-0.4680 Y2.8133  
G01 X-0.4680 Y2.7867  
G01 X-0.4867 Y2.7680  
G01 X-0.5048 Y2.7680  
G01 X-0.5930 Y2.6974  
G01 X-0.5930 Y2.6867  
G01 X-0.6117 Y2.6680  
G01 X-0.6259 Y2.6680  
G01 X-0.7245 Y2.5694  
G01 X-0.7216 Y2.5652  
G01 X-0.7192 Y2.5593  
G01 X-0.7180 Y2.5532  
G01 X-0.7180 Y2.5468  
G01 X-0.7192 Y2.5407  
G01 X-0.7216 Y2.5348  
G01 X-0.7251 Y2.5296  
G01 X-0.7296 Y2.5251  
G01 X-0.7348 Y2.5216  
G01 X-0.7407 Y2.5192  
G01 X-0.7468 Y2.5180  
G01 X-0.7532 Y2.5180  
G01 X-0.7593 Y2.5192  
G01 X-0.7652 Y2.5216  
G01 X-0.7704 Y2.5251  
G01 X-0.7749 Y2.5296  
G01 X-0.7784 Y2.5348  
G01 X-0.7808 Y2.5407  
G01 X-0.7820 Y2.5468  
G01 X-0.7820 Y2.5532  
G01 X-0.7808 Y2.5593  
G01 X-0.7784 Y2.5652  
G01 X-0.7749 Y2.5704  
G01 X-0.7720 Y2.5733  
G01 X-0.7720 Y2.5779  
G01 X-0.7705 Y2.5835  
G01 X-0.7676 Y2.5885  
G00 Z0.0500  
G00 X-0.7652 Y2.4784  
G01 Z-0.0040 F10    
G01 X-0.7593 Y2.4808  F20    
G01 X-0.7532 Y2.4820  
G01 X-0.7468 Y2.4820  
G01 X-0.7429 Y2.4812  
G01 X-0.6890 Y2.5171  
G01 X-0.6885 Y2.5176  
G01 X-0.6866 Y2.5187  
G01 X-0.6848 Y2.5199  
G01 X-0.6841 Y2.5201  
G01 X-0.6835 Y2.5205  
G01 X-0.6814 Y2.5211  
G01 X-0.6793 Y2.5218  
G01 X-0.6786 Y2.5218  
G01 X-0.6779 Y2.5220  
G01 X-0.6757 Y2.5220  
G01 X-0.6735 Y2.5221  
G01 X-0.6728 Y2.5220  
G01 X-0.5763 Y2.5220  
G01 X-0.5748 Y2.5222  
G01 X-0.5734 Y2.5220  
G01 X-0.5721 Y2.5220  
G01 X-0.5706 Y2.5216  
G01 X-0.5690 Y2.5214  
G01 X-0.5678 Y2.5208  
G01 X-0.5665 Y2.5205  
G01 X-0.5651 Y2.5197  
G01 X-0.5637 Y2.5191  
G01 X-0.5626 Y2.5183  
G01 X-0.5615 Y2.5176  
G01 X-0.5604 Y2.5165  
G01 X-0.5591 Y2.5155  
G01 X-0.5583 Y2.5145  
G01 X-0.5574 Y2.5135  
G01 X-0.5566 Y2.5121  
G01 X-0.4965 Y2.4320  
G01 X-0.4867 Y2.4320  
G01 X-0.4767 Y2.4220  
G01 X-0.4527 Y2.4220  
G01 X-0.4525 Y2.4220  
G01 X-0.4498 Y2.4220  
G01 X-0.4471 Y2.4220  
G01 X-0.4469 Y2.4220  
G01 X-0.4467 Y2.4219  
G01 X-0.4441 Y2.4212  
G01 X-0.4415 Y2.4205  
G01 X-0.4413 Y2.4204  
G01 X-0.4412 Y2.4204  
G01 X-0.4388 Y2.4190  
G01 X-0.4365 Y2.4176  
G01 X-0.4364 Y2.4175  
G01 X-0.4362 Y2.4174  
G01 X-0.4343 Y2.4154  
G01 X-0.4324 Y2.4135  
G01 X-0.4323 Y2.4133  
G01 X-0.4322 Y2.4132  
G01 X-0.4309 Y2.4108  
G01 X-0.4295 Y2.4085  
G01 X-0.4295 Y2.4083  
G01 X-0.4294 Y2.4081  
G01 X-0.4287 Y2.4055  
G01 X-0.4280 Y2.4029  
G01 X-0.4280 Y2.4027  
G01 X-0.3916 Y2.2569  
G01 X-0.3907 Y2.2568  
G01 X-0.3848 Y2.2544  
G01 X-0.3796 Y2.2509  
G01 X-0.3751 Y2.2464  
G01 X-0.3716 Y2.2412  
G01 X-0.3692 Y2.2353  
G01 X-0.3680 Y2.2292  
G01 X-0.3680 Y2.1708  
G01 X-0.3692 Y2.1647  
G01 X-0.3716 Y2.1588  
G01 X-0.3751 Y2.1536  
G01 X-0.3796 Y2.1491  
G01 X-0.3848 Y2.1456  
G01 X-0.3907 Y2.1432  
G01 X-0.3968 Y2.1420  
G01 X-0.4032 Y2.1420  
G01 X-0.4093 Y2.1432  
G01 X-0.4152 Y2.1456  
G01 X-0.4204 Y2.1491  
G01 X-0.4249 Y2.1536  
G01 X-0.4284 Y2.1588  
G01 X-0.4308 Y2.1647  
G01 X-0.4320 Y2.1708  
G01 X-0.4320 Y2.2292  
G01 X-0.4311 Y2.2337  
G01 X-0.4672 Y2.3780  
G01 X-0.4767 Y2.3780  
G01 X-0.4867 Y2.3680  
G01 X-0.5133 Y2.3680  
G01 X-0.5320 Y2.3867  
G01 X-0.5320 Y2.4060  
G01 X-0.5860 Y2.4780  
G01 X-0.6683 Y2.4780  
G01 X-0.7184 Y2.4446  
G01 X-0.7192 Y2.4407  
G01 X-0.7216 Y2.4348  
G01 X-0.7251 Y2.4296  
G01 X-0.7296 Y2.4251  
G01 X-0.7348 Y2.4216  
G01 X-0.7407 Y2.4192  
G01 X-0.7468 Y2.4180  
G01 X-0.7532 Y2.4180  
G01 X-0.7593 Y2.4192  
G01 X-0.7652 Y2.4216  
G01 X-0.7704 Y2.4251  
G01 X-0.7749 Y2.4296  
G01 X-0.7784 Y2.4348  
G01 X-0.7808 Y2.4407  
G01 X-0.7820 Y2.4468  
G01 X-0.7820 Y2.4532  
G01 X-0.7808 Y2.4593  
G01 X-0.7784 Y2.4652  
G01 X-0.7749 Y2.4704  
G01 X-0.7704 Y2.4749  
G01 X-0.7652 Y2.4784  
G00 Z0.0500  
G00 X-0.7652 Y2.3784  
G01 Z-0.0040 F10    
G01 X-0.7593 Y2.3808  F20    
G01 X-0.7532 Y2.3820  
G01 X-0.7468 Y2.3820  
G01 X-0.7446 Y2.3816  
G01 X-0.6820 Y2.4285  
G01 X-0.6820 Y2.4383  
G01 X-0.6633 Y2.4570  
G01 X-0.6367 Y2.4570  
G01 X-0.6180 Y2.4383  
G01 X-0.6180 Y2.4117  
G01 X-0.6367 Y2.3930  
G01 X-0.6560 Y2.3930  
G01 X-0.7181 Y2.3464  
G01 X-0.7192 Y2.3407  
G01 X-0.7216 Y2.3348  
G01 X-0.7251 Y2.3296  
G01 X-0.7296 Y2.3251  
G01 X-0.7348 Y2.3216  
G01 X-0.7407 Y2.3192  
G01 X-0.7468 Y2.3180  
G01 X-0.7532 Y2.3180  
G01 X-0.7593 Y2.3192  
G01 X-0.7652 Y2.3216  
G01 X-0.7704 Y2.3251  
G01 X-0.7749 Y2.3296  
G01 X-0.7784 Y2.3348  
G01 X-0.7808 Y2.3407  
G01 X-0.7820 Y2.3468  
G01 X-0.7820 Y2.3532  
G01 X-0.7808 Y2.3593  
G01 X-0.7784 Y2.3652  
G01 X-0.7749 Y2.3704  
G01 X-0.7704 Y2.3749  
G01 X-0.7652 Y2.3784  
G00 Z0.0500  
G00 X-0.6820 Y2.0383  
G01 Z-0.0040 F10    
G01 X-0.6633 Y2.0570  F20    
G01 X-0.6367 Y2.0570  
G01 X-0.6180 Y2.0383  
G01 X-0.6180 Y2.0117  
G01 X-0.6280 Y2.0017  
G01 X-0.6280 Y1.9780  
G01 X-0.6274 Y1.9776  
G01 X-0.6224 Y1.9726  
G01 X-0.6185 Y1.9668  
G01 X-0.6159 Y1.9604  
G01 X-0.6145 Y1.9535  
G01 X-0.6145 Y1.9465  
G01 X-0.6159 Y1.9396  
G01 X-0.6185 Y1.9332  
G01 X-0.6224 Y1.9274  
G01 X-0.6274 Y1.9224  
G01 X-0.6332 Y1.9185  
G01 X-0.6396 Y1.9159  
G01 X-0.6465 Y1.9145  
G01 X-0.6535 Y1.9145  
G01 X-0.6604 Y1.9159  
G01 X-0.6668 Y1.9185  
G01 X-0.6726 Y1.9224  
G01 X-0.6776 Y1.9274  
G01 X-0.6815 Y1.9332  
G01 X-0.6841 Y1.9396  
G01 X-0.6855 Y1.9465  
G01 X-0.6855 Y1.9535  
G01 X-0.6841 Y1.9604  
G01 X-0.6815 Y1.9668  
G01 X-0.6776 Y1.9726  
G01 X-0.6726 Y1.9776  
G01 X-0.6720 Y1.9780  
G01 X-0.6720 Y2.0017  
G01 X-0.6820 Y2.0117  
G01 X-0.6820 Y2.0383  
G00 Z0.0500  
G00 X-0.5820 Y2.0133  
G01 Z-0.0040 F10    
G01 X-0.5633 Y2.0320  F20    
G01 X-0.5367 Y2.0320  
G01 X-0.5267 Y2.0220  
G01 X-0.4221 Y2.0220  
G01 X-0.4165 Y2.0205  
G01 X-0.4115 Y2.0176  
G01 X-0.3759 Y1.9820  
G01 X-0.3617 Y1.9820  
G01 X-0.3430 Y1.9633  
G01 X-0.3430 Y1.9367  
G01 X-0.3617 Y1.9180  
G01 X-0.3883 Y1.9180  
G01 X-0.4070 Y1.9367  
G01 X-0.4070 Y1.9509  
G01 X-0.4341 Y1.9780  
G01 X-0.5267 Y1.9780  
G01 X-0.5367 Y1.9680  
G01 X-0.5633 Y1.9680  
G01 X-0.5820 Y1.9867  
G01 X-0.5820 Y2.0133  
G00 Z0.0500  
G00 X-0.5204 Y2.0491  
G01 Z-0.0040 F10    
G01 X-0.5249 Y2.0536  F20    
G01 X-0.5284 Y2.0588  
G01 X-0.5308 Y2.0647  
G01 X-0.5320 Y2.0708  
G01 X-0.5320 Y2.1292  
G01 X-0.5308 Y2.1353  
G01 X-0.5284 Y2.1412  
G01 X-0.5249 Y2.1464  
G01 X-0.5204 Y2.1509  
G01 X-0.5152 Y2.1544  
G01 X-0.5093 Y2.1568  
G01 X-0.5032 Y2.1580  
G01 X-0.4968 Y2.1580  
G01 X-0.4907 Y2.1568  
G01 X-0.4848 Y2.1544  
G01 X-0.4796 Y2.1509  
G01 X-0.4751 Y2.1464  
G01 X-0.4716 Y2.1412  
G01 X-0.4692 Y2.1353  
G01 X-0.4680 Y2.1292  
G01 X-0.4680 Y2.0708  
G01 X-0.4692 Y2.0647  
G01 X-0.4716 Y2.0588  
G01 X-0.4751 Y2.0536  
G01 X-0.4796 Y2.0491  
G01 X-0.4848 Y2.0456  
G01 X-0.4907 Y2.0432  
G01 X-0.4968 Y2.0420  
G01 X-0.5032 Y2.0420  
G01 X-0.5093 Y2.0432  
G01 X-0.5152 Y2.0456  
G01 X-0.5204 Y2.0491  
G00 Z0.0500  
G00 X-1.8070 Y2.8822  
G01 Z-0.0040 F10    
G01 X-1.8322 Y2.8570  F20    
G01 X-1.8678 Y2.8570  
G01 X-1.8930 Y2.8822  
G01 X-1.8930 Y2.9178  
G01 X-1.8678 Y2.9430  
G01 X-1.8322 Y2.9430  
G01 X-1.8070 Y2.9178  
G01 X-1.8070 Y2.8822  
G00 Z0.0500  
G00 X-1.9070 Y2.8822  
G01 Z-0.0040 F10    
G01 X-1.9322 Y2.8570  F20    
G01 X-1.9678 Y2.8570  
G01 X-1.9930 Y2.8822  
G01 X-1.9930 Y2.9178  
G01 X-1.9678 Y2.9430  
G01 X-1.9322 Y2.9430  
G01 X-1.9070 Y2.9178  
G01 X-1.9070 Y2.8822  
G00 Z0.0500  
G00 X-0.2566 Y0.5849  
G01 Z-0.0040 F10    
G01 X-0.2599 Y0.5816  F20    
G01 X-0.4816 Y0.3599  
G01 X-0.4849 Y0.3566  
G01 X-0.4888 Y0.3540  
G01 X-0.4931 Y0.3522  
G01 X-0.4977 Y0.3513  
G01 X-1.8773 Y0.3513  
G01 X-1.8819 Y0.3522  
G01 X-1.8862 Y0.3540  
G01 X-1.8901 Y0.3566  
G01 X-2.0401 Y0.5066  
G01 X-2.0434 Y0.5099  
G01 X-2.0460 Y0.5138  
G01 X-2.0478 Y0.5181  
G01 X-2.0487 Y0.5227  
G01 X-2.0487 Y1.9494  
G01 X-2.0488 Y1.9510  
G01 X-2.0487 Y1.9517  
G01 X-2.0487 Y1.9523  
G01 X-2.0484 Y1.9540  
G01 X-2.0481 Y1.9557  
G01 X-2.0479 Y1.9563  
G01 X-2.0478 Y1.9569  
G01 X-2.0471 Y1.9585  
G01 X-2.0466 Y1.9601  
G01 X-2.0463 Y1.9606  
G01 X-2.0460 Y1.9612  
G01 X-2.0451 Y1.9626  
G01 X-2.0442 Y1.9641  
G01 X-2.0438 Y1.9646  
G01 X-2.0434 Y1.9651  
G01 X-2.0422 Y1.9663  
G01 X-2.0411 Y1.9676  
G01 X-2.0406 Y1.9679  
G01 X-2.0401 Y1.9684  
G01 X-2.0387 Y1.9693  
G01 X-1.8406 Y2.1179  
G01 X-1.7737 Y2.1848  
G01 X-1.7737 Y2.3763  
G01 X-1.8105 Y2.3763  
G01 X-1.8315 Y2.3553  
G01 X-1.8685 Y2.3553  
G01 X-1.8895 Y2.3763  
G01 X-1.9105 Y2.3763  
G01 X-1.9315 Y2.3553  
G01 X-1.9685 Y2.3553  
G01 X-1.9947 Y2.3815  
G01 X-1.9947 Y2.4185  
G01 X-1.9685 Y2.4447  
G01 X-1.9315 Y2.4447  
G01 X-1.9105 Y2.4237  
G01 X-1.8895 Y2.4237  
G01 X-1.8685 Y2.4447  
G01 X-1.8315 Y2.4447  
G01 X-1.8105 Y2.4237  
G01 X-1.7477 Y2.4237  
G01 X-1.7431 Y2.4228  
G01 X-1.7388 Y2.4210  
G01 X-1.7349 Y2.4184  
G01 X-1.7316 Y2.4151  
G01 X-1.7290 Y2.4112  
G01 X-1.7272 Y2.4069  
G01 X-1.7263 Y2.4023  
G01 X-1.7263 Y2.1727  
G01 X-1.7272 Y2.1681  
G01 X-1.7290 Y2.1638  
G01 X-1.7316 Y2.1599  
G01 X-1.7349 Y2.1566  
G01 X-1.8078 Y2.0837  
G01 X-1.8089 Y2.0824  
G01 X-1.8094 Y2.0821  
G01 X-1.8099 Y2.0816  
G01 X-1.8113 Y2.0807  
G01 X-2.0013 Y1.9381  
G01 X-2.0013 Y0.5348  
G01 X-1.8652 Y0.3987  
G01 X-0.5098 Y0.3987  
G01 X-0.2987 Y0.6098  
G01 X-0.2987 Y0.9123  
G01 X-0.3612 Y0.9540  
G01 X-0.3632 Y0.9553  
G01 X-0.3651 Y0.9566  
G01 X-0.3667 Y0.9582  
G01 X-0.3684 Y0.9599  
G01 X-0.3697 Y0.9618  
G01 X-0.3710 Y0.9638  
G01 X-0.3719 Y0.9659  
G01 X-0.3728 Y0.9681  
G01 X-0.3732 Y0.9704  
G01 X-0.3737 Y0.9726  
G01 X-0.3737 Y0.9750  
G01 X-0.3737 Y0.9773  
G01 X-0.3737 Y1.0260  
G01 X-0.3740 Y1.0263  
G01 X-0.4402 Y1.0263  
G01 X-0.4663 Y1.0002  
G01 X-0.4663 Y0.9967  
G01 X-0.4676 Y0.9902  
G01 X-0.4701 Y0.9840  
G01 X-0.4738 Y0.9785  
G01 X-0.4785 Y0.9738  
G01 X-0.4840 Y0.9701  
G01 X-0.4902 Y0.9676  
G01 X-0.4967 Y0.9663  
G01 X-0.5033 Y0.9663  
G01 X-0.5098 Y0.9676  
G01 X-0.5160 Y0.9701  
G01 X-0.5215 Y0.9738  
G01 X-0.5262 Y0.9785  
G01 X-0.5299 Y0.9840  
G01 X-0.5324 Y0.9902  
G01 X-0.5337 Y0.9967  
G01 X-0.5337 Y1.0553  
G01 X-0.5324 Y1.0618  
G01 X-0.5299 Y1.0680  
G01 X-0.5262 Y1.0735  
G01 X-0.5215 Y1.0782  
G01 X-0.5160 Y1.0819  
G01 X-0.5098 Y1.0844  
G01 X-0.5033 Y1.0857  
G01 X-0.4967 Y1.0857  
G01 X-0.4902 Y1.0844  
G01 X-0.4840 Y1.0819  
G01 X-0.4785 Y1.0782  
G01 X-0.4738 Y1.0735  
G01 X-0.4701 Y1.0680  
G01 X-0.4695 Y1.0664  
G01 X-0.4564 Y1.1056  
G01 X-0.4564 Y1.1503  
G01 X-0.4553 Y1.1531  
G01 X-0.4531 Y1.1553  
G01 X-0.4503 Y1.1564  
G01 X-0.3997 Y1.1564  
G01 X-0.3969 Y1.1553  
G01 X-0.3947 Y1.1531  
G01 X-0.3936 Y1.1503  
G01 X-0.3936 Y1.0997  
G01 X-0.3947 Y1.0969  
G01 X-0.3969 Y1.0947  
G01 X-0.3997 Y1.0936  
G01 X-0.4105 Y1.0936  
G01 X-0.4171 Y1.0737  
G01 X-0.3740 Y1.0737  
G01 X-0.3640 Y1.0837  
G01 X-0.3360 Y1.0837  
G01 X-0.3163 Y1.0640  
G01 X-0.3163 Y1.0360  
G01 X-0.3263 Y1.0260  
G01 X-0.3263 Y0.9877  
G01 X-0.2638 Y0.9460  
G01 X-0.2618 Y0.9447  
G01 X-0.2599 Y0.9434  
G01 X-0.2583 Y0.9418  
G01 X-0.2566 Y0.9401  
G01 X-0.2553 Y0.9382  
G01 X-0.2540 Y0.9362  
G01 X-0.2531 Y0.9341  
G01 X-0.2522 Y0.9319  
G01 X-0.2518 Y0.9296  
G01 X-0.2513 Y0.9274  
G01 X-0.2513 Y0.9250  
G01 X-0.2513 Y0.9227  
G01 X-0.2513 Y0.5977  
G01 X-0.2522 Y0.5931  
G01 X-0.2540 Y0.5888  
G01 X-0.2566 Y0.5849  
G00 Z0.0500  
G00 X-0.3163 Y0.6360  
G01 Z-0.0040 F10    
G01 X-0.3360 Y0.6163  F20    
G01 X-0.3640 Y0.6163  
G01 X-0.3837 Y0.6360  
G01 X-0.3837 Y0.6640  
G01 X-0.3769 Y0.6708  
G01 X-0.3956 Y0.8013  
G01 X-0.6730 Y0.8013  
G01 X-0.6734 Y0.8012  
G01 X-0.6754 Y0.8013  
G01 X-0.6773 Y0.8013  
G01 X-0.6777 Y0.8014  
G01 X-0.6781 Y0.8014  
G01 X-0.6800 Y0.8018  
G01 X-0.6819 Y0.8022  
G01 X-0.6823 Y0.8024  
G01 X-0.6826 Y0.8024  
G01 X-0.6844 Y0.8032  
G01 X-0.6862 Y0.8040  
G01 X-0.6865 Y0.8042  
G01 X-0.6869 Y0.8044  
G01 X-0.6885 Y0.8055  
G01 X-0.6901 Y0.8066  
G01 X-0.6904 Y0.8069  
G01 X-0.6907 Y0.8071  
G01 X-0.6920 Y0.8085  
G01 X-0.6934 Y0.8099  
G01 X-0.6936 Y0.8102  
G01 X-0.6939 Y0.8105  
G01 X-0.6949 Y0.8121  
G01 X-0.6960 Y0.8138  
G01 X-0.6961 Y0.8141  
G01 X-0.6963 Y0.8144  
G01 X-0.6970 Y0.8163  
G01 X-0.6978 Y0.8181  
G01 X-0.6979 Y0.8185  
G01 X-0.6980 Y0.8188  
G01 X-0.6983 Y0.8207  
G01 X-0.6987 Y0.8227  
G01 X-0.6987 Y0.8230  
G01 X-0.7233 Y0.9707  
G01 X-0.7237 Y0.9727  
G01 X-0.7237 Y0.9730  
G01 X-0.7238 Y0.9734  
G01 X-0.7237 Y0.9754  
G01 X-0.7237 Y0.9760  
G01 X-0.7262 Y0.9785  
G01 X-0.7299 Y0.9840  
G01 X-0.7324 Y0.9902  
G01 X-0.7337 Y0.9967  
G01 X-0.7337 Y1.0553  
G01 X-0.7324 Y1.0618  
G01 X-0.7299 Y1.0680  
G01 X-0.7262 Y1.0735  
G01 X-0.7215 Y1.0782  
G01 X-0.7160 Y1.0819  
G01 X-0.7098 Y1.0844  
G01 X-0.7092 Y1.0845  
G01 X-0.6756 Y1.1519  
G01 X-0.6762 Y1.1525  
G01 X-0.6799 Y1.1580  
G01 X-0.6824 Y1.1642  
G01 X-0.6837 Y1.1707  
G01 X-0.6837 Y1.2293  
G01 X-0.6824 Y1.2358  
G01 X-0.6799 Y1.2420  
G01 X-0.6762 Y1.2475  
G01 X-0.6715 Y1.2522  
G01 X-0.6660 Y1.2559  
G01 X-0.6598 Y1.2584  
G01 X-0.6533 Y1.2597  
G01 X-0.6467 Y1.2597  
G01 X-0.6402 Y1.2584  
G01 X-0.6340 Y1.2559  
G01 X-0.6285 Y1.2522  
G01 X-0.6238 Y1.2475  
G01 X-0.6201 Y1.2420  
G01 X-0.6176 Y1.2358  
G01 X-0.6163 Y1.2293  
G01 X-0.6163 Y1.1707  
G01 X-0.6176 Y1.1642  
G01 X-0.6201 Y1.1580  
G01 X-0.6238 Y1.1525  
G01 X-0.6262 Y1.1501  
G01 X-0.6263 Y1.1492  
G01 X-0.6263 Y1.1477  
G01 X-0.6265 Y1.1468  
G01 X-0.6265 Y1.1460  
G01 X-0.6269 Y1.1446  
G01 X-0.6272 Y1.1431  
G01 X-0.6275 Y1.1423  
G01 X-0.6278 Y1.1415  
G01 X-0.6284 Y1.1402  
G01 X-0.6290 Y1.1388  
G01 X-0.6295 Y1.1381  
G01 X-0.6676 Y1.0618  
G01 X-0.6663 Y1.0553  
G01 X-0.6663 Y0.9967  
G01 X-0.6676 Y0.9902  
G01 X-0.6701 Y0.9840  
G01 X-0.6738 Y0.9785  
G01 X-0.6762 Y0.9762  
G01 X-0.6549 Y0.8487  
G01 X-0.3767 Y0.8487  
G01 X-0.3760 Y0.8488  
G01 X-0.3744 Y0.8487  
G01 X-0.3727 Y0.8487  
G01 X-0.3720 Y0.8486  
G01 X-0.3714 Y0.8485  
G01 X-0.3697 Y0.8481  
G01 X-0.3681 Y0.8478  
G01 X-0.3675 Y0.8475  
G01 X-0.3669 Y0.8474  
G01 X-0.3653 Y0.8466  
G01 X-0.3638 Y0.8460  
G01 X-0.3632 Y0.8456  
G01 X-0.3626 Y0.8454  
G01 X-0.3613 Y0.8443  
G01 X-0.3599 Y0.8434  
G01 X-0.3594 Y0.8429  
G01 X-0.3589 Y0.8426  
G01 X-0.3578 Y0.8413  
G01 X-0.3566 Y0.8401  
G01 X-0.3562 Y0.8396  
G01 X-0.3558 Y0.8391  
G01 X-0.3549 Y0.8376  
G01 X-0.3540 Y0.8362  
G01 X-0.3537 Y0.8356  
G01 X-0.3534 Y0.8351  
G01 X-0.3529 Y0.8335  
G01 X-0.3522 Y0.8319  
G01 X-0.3521 Y0.8313  
G01 X-0.3519 Y0.8307  
G01 X-0.3516 Y0.8290  
G01 X-0.3513 Y0.8273  
G01 X-0.3513 Y0.8267  
G01 X-0.3300 Y0.6777  
G01 X-0.3163 Y0.6640  
G01 X-0.3163 Y0.6360  
G00 Z0.0500  
G00 X-0.4676 Y0.6382  
G01 Z-0.0040 F10    
G01 X-0.4701 Y0.6320  F20    
G01 X-0.4738 Y0.6265  
G01 X-0.4785 Y0.6218  
G01 X-0.4840 Y0.6181  
G01 X-0.4902 Y0.6156  
G01 X-0.4967 Y0.6143  
G01 X-0.5033 Y0.6143  
G01 X-0.5098 Y0.6156  
G01 X-0.5160 Y0.6181  
G01 X-0.5215 Y0.6218  
G01 X-0.5262 Y0.6265  
G01 X-0.5299 Y0.6320  
G01 X-0.5324 Y0.6382  
G01 X-0.5337 Y0.6447  
G01 X-0.5337 Y0.7033  
G01 X-0.5324 Y0.7098  
G01 X-0.5299 Y0.7160  
G01 X-0.5262 Y0.7215  
G01 X-0.5215 Y0.7262  
G01 X-0.5160 Y0.7299  
G01 X-0.5098 Y0.7324  
G01 X-0.5033 Y0.7337  
G01 X-0.4967 Y0.7337  
G01 X-0.4902 Y0.7324  
G01 X-0.4840 Y0.7299  
G01 X-0.4785 Y0.7262  
G01 X-0.4738 Y0.7215  
G01 X-0.4701 Y0.7160  
G01 X-0.4676 Y0.7098  
G01 X-0.4663 Y0.7033  
G01 X-0.4663 Y0.6447  
G01 X-0.4676 Y0.6382  
G00 Z0.0500  
G00 X-0.5209 Y0.5841  
G01 Z-0.0040 F10    
G01 X-0.5159 Y0.5791  F20    
G01 X-0.5118 Y0.5734  
G01 X-0.5086 Y0.5672  
G01 X-0.5064 Y0.5605  
G01 X-0.5053 Y0.5535  
G01 X-0.5053 Y0.5465  
G01 X-0.5064 Y0.5395  
G01 X-0.5086 Y0.5328  
G01 X-0.5118 Y0.5266  
G01 X-0.5159 Y0.5209  
G01 X-0.5178 Y0.5190  
