(/Applications/pcbgcode.repo/pcb-gcode.ulp)
(Copyright 2005 - 2012 by John Johnson)
(See readme.txt for licensing terms.)
(This file generated from the board:)
(.../eagle/atmega_midi_x0x_heart.brd)
(Current profile is .../pcbgcode.repo/profiles/mach.pp  )
(This file generated 3/25/16 10:12 PM)
(Settings from pcb-machine.h)
(spindle on time = 0.0000)
(spindle speed = 15000.0000)
(milling depth = -0.0700)
(tool change at 0.0000  0.0000  1.5000  )
(feed rate xy = F10    )
(feed rate z  = F5     )
(Z Axis Settings)
(  High     Up        Down     Drill)
(0.2500  	0.0500  	-0.0035 	-0.0730 )
(Settings from pcb-defaults.h)
(isolate min = 0.0040)
(isolate max = 0.0200)
(isolate step = 0.0015)
(Generated bottom outlines, bottom drill, )
(Unit of measure: inch)
(Inch Mode)
G20
(Absolute Coordinates)
G90
S15000
G00 Z0.2500  
G00 X0.0000  Y0.0000  
M03
G04 P0.000000
G00 Z0.0500  
G00 X-0.0500 Y-0.0200 
G01 Z-0.0700 F5     
G01 X-3.4200 Y-0.0200 F10    
G01 X-3.4200 Y2.7800  
G01 X0.0100  Y2.7800  
G01 X0.0100  Y0.0600  
G01 X-0.0500 Y-0.0200 
G00 Z0.0500  
G00 X-0.1200 Y0.1100  
G01 Z-0.0700 F5     
G01 X-0.1700 Y0.1100  F10    
G01 X-0.1700 Y0.1600  
G01 X-0.1200 Y0.1600  
G01 X-0.1200 Y0.1100  
G00 Z0.0500  
G00 X-0.1100 Y2.6100  
G01 Z-0.0700 F5     
G01 X-0.1600 Y2.6100  F10    
G01 X-0.1600 Y2.6600  
G01 X-0.1100 Y2.6600  
G01 X-0.1100 Y2.6100  
G00 Z0.0500  
G00 X-3.2500 Y2.6100  
G01 Z-0.0700 F5     
G01 X-3.3000 Y2.6100  F10    
G01 X-3.3000 Y2.6600  
G01 X-3.2500 Y2.6600  
G01 X-3.2500 Y2.6100  
G00 Z0.0500  
G00 X-3.2500 Y0.1600  
G01 Z-0.0700 F5     
G01 X-3.3000 Y0.1600  F10    
G01 X-3.3000 Y0.1100  
G01 X-3.2500 Y0.1100  
G01 X-3.2500 Y0.1600  
G00 Z0.2500  
M05
M02
