(/Applications/pcbgcode.repo/pcb-gcode.ulp)
(Copyright 2005 - 2012 by John Johnson)
(See readme.txt for licensing terms.)
(This file generated from the board:)
(.../eagle/atmega_midi_x0x_heart.brd)
(Current profile is .../pcbgcode.repo/profiles/mach.pp  )
(This file generated 3/25/16 10:12 PM)
(Settings from pcb-machine.h)
(spindle on time = 0.0000)
(spindle speed = 20000.0000)
(tool change at 0.0000  0.0000  1.5000  )
(feed rate xy = F0     )
(feed rate z  = F20    )
(Z Axis Settings)
(  High     Up        Down     Drill)
(0.2500  	0.0500  	-0.0035 	-0.0730 )
(Settings from pcb-defaults.h)
(isolate min = 0.0040)
(isolate max = 0.0200)
(isolate step = 0.0015)
(Generated bottom outlines, bottom drill, )
(Unit of measure: inch)
( Tool|       Size       |  Min Sub |  Max Sub |   Count )
( T01 | 0.800mm 0.0315in | 0.0000in | 0.0000in |       0 )
( T02 | 0.813mm 0.0320in | 0.0000in | 0.0000in |       0 )
( T03 | 0.900mm 0.0354in | 0.0000in | 0.0000in |       0 )
( T04 | 0.914mm 0.0360in | 0.0000in | 0.0000in |       0 )
( T05 | 0.991mm 0.0390in | 0.0000in | 0.0000in |       0 )
( T06 | 1.000mm 0.0394in | 0.0000in | 0.0000in |       0 )
( T07 | 1.016mm 0.0400in | 0.0000in | 0.0000in |       0 )
( T08 | 1.118mm 0.0440in | 0.0000in | 0.0000in |       0 )
(Inch Mode)
G20
(Absolute Coordinates)
G90
S20000
G00 Z0.2500  
G00 X0.0000  Y0.0000  
M03
G04 P0.000000
M05
G00 Z1.5000  
M06 T01  ; 0.0315  
G01 Z0.0000  F20    
M06 
G00 Z0.0500  
M03
G04 P0.000000
G82 X-0.2400 Y1.8716  Z-0.0730 F20    R0.0500  P0.010000
G82 X-0.2400 Y2.0684  
G82 X-0.4300 Y2.1200  
G82 X-0.6400 Y2.1200  
G82 X-2.0700 Y2.1400  
G82 X-2.0700 Y1.9700  
G82 X-3.1800 Y1.1300  
G82 X-3.1800 Y0.9500  
G82 X-0.5200 Y0.3684  
G82 X-0.5200 Y0.1716  
M05
G00 Z1.5000  
G00 X0.0000  Y0.0000  
M06 T02  ; 0.0320  
G01 Z0.0000  F20    
M06 
G00 Z0.0500  
M03
G04 P0.000000
G82 X-0.2300 Y2.4200  Z-0.0730 F20    R0.0500  P0.010000
G82 X-0.2500 Y2.2500  
G82 X-0.3500 Y2.2500  
G82 X-0.4300 Y2.4200  
G82 X-0.9200 Y2.3600  
G82 X-1.0200 Y2.4600  
G82 X-1.0100 Y2.5750  
G82 X-1.1200 Y2.3600  
G82 X-1.1200 Y2.2250  
G82 X-1.0100 Y2.1300  
G82 X-1.0100 Y1.7300  
G82 X-1.1000 Y1.6700  
G82 X-1.2200 Y1.5700  
G82 X-1.3200 Y1.5700  
G82 X-1.4200 Y1.5700  
G82 X-1.5200 Y1.5700  
G82 X-1.6200 Y1.5700  
G82 X-1.7200 Y1.5700  
G82 X-1.8200 Y1.5700  
G82 X-1.9200 Y1.5700  
G82 X-2.0200 Y1.5700  
G82 X-2.1200 Y1.5700  
G82 X-2.2200 Y1.5700  
G82 X-2.3200 Y1.5700  
G82 X-2.4200 Y1.5700  
G82 X-2.5200 Y1.5700  
G82 X-2.5200 Y1.2700  
G82 X-2.4200 Y1.2700  
G82 X-2.3200 Y1.2700  
G82 X-2.2200 Y1.2700  
G82 X-2.1200 Y1.2700  
G82 X-2.0200 Y1.2700  
G82 X-1.9200 Y1.2700  
G82 X-1.8200 Y1.2700  
G82 X-1.7200 Y1.2700  
G82 X-1.6200 Y1.2700  
G82 X-1.5200 Y1.2700  
G82 X-1.4200 Y1.2700  
G82 X-1.3200 Y1.2700  
G82 X-1.2200 Y1.2700  
G82 X-1.1000 Y1.2700  
G82 X-1.1000 Y1.1250  
G82 X-1.2200 Y1.0200  
G82 X-1.3200 Y1.0700  
G82 X-1.0700 Y0.8700  
G82 X-0.9700 Y0.8700  
G82 X-0.8700 Y0.8700  
G82 X-0.7700 Y0.8700  
G82 X-0.8200 Y1.0200  
G82 X-0.7000 Y1.1250  
G82 X-0.6300 Y1.3200  
G82 X-0.5000 Y1.3200  
G82 X-0.5000 Y1.7200  
G82 X-0.6300 Y1.7200  
G82 X-1.5200 Y2.2250  
G82 X-1.4100 Y2.5750  
G82 X-2.1200 Y2.6700  
G82 X-2.3200 Y2.5700  
G82 X-2.4600 Y2.6100  
G82 X-2.8600 Y2.6100  
G82 X-2.3200 Y2.1700  
G82 X-2.1200 Y2.2700  
G82 X-1.9400 Y2.0700  
G82 X-1.8400 Y1.9700  
G82 X-1.9400 Y1.8700  
G82 X-2.0200 Y1.7500  
G82 X-1.8200 Y1.7500  
G82 X-1.8600 Y1.1300  
G82 X-1.7200 Y1.0700  
G82 X-1.8600 Y0.9300  
G82 X-1.9400 Y0.9700  
G82 X-2.0250 Y1.1200  
G82 X-2.2150 Y1.1200  
G82 X-2.3400 Y0.9700  
G82 X-2.4200 Y0.9400  
G82 X-2.5700 Y0.9200  
G82 X-2.5700 Y0.8200  
G82 X-2.5700 Y0.7200  
G82 X-2.5700 Y0.6200  
G82 X-2.5700 Y0.5200  
G82 X-2.5700 Y0.4200  
G82 X-2.5700 Y0.3200  
G82 X-2.8700 Y0.3200  
G82 X-2.8700 Y0.4200  
G82 X-2.8700 Y0.5200  
G82 X-2.8700 Y0.6200  
G82 X-2.8700 Y0.7200  
G82 X-2.8700 Y0.8200  
G82 X-2.8700 Y0.9200  
G82 X-2.4200 Y1.1400  
G82 X-1.9300 Y0.7300  
G82 X-1.7300 Y0.7300  
G82 X-1.9200 Y0.5200  
G82 X-2.0200 Y0.4600  
G82 X-1.7200 Y0.4200  
G82 X-1.7200 Y0.2200  
G82 X-1.5200 Y0.2700  
G82 X-1.5200 Y0.3700  
G82 X-1.5200 Y0.5200  
G82 X-1.0700 Y0.5700  
G82 X-0.9700 Y0.5700  
G82 X-0.8700 Y0.5700  
G82 X-0.7700 Y0.5700  
G82 X-0.6700 Y0.4100  
G82 X-1.0700 Y0.4100  
G82 X-2.0200 Y0.0600  
M05
G00 Z1.5000  
G00 X0.0000  Y0.0000  
M06 T03  ; 0.0354  
G01 Z0.0000  F20    
M06 
G00 Z0.0500  
M03
G04 P0.000000
G82 X-0.7000 Y0.2900  Z-0.0730 F20    R0.0500  P0.010000
G82 X-1.0000 Y0.2900  
M05
G00 Z1.5000  
G00 X0.0000  Y0.0000  
M06 T04  ; 0.0360  
G01 Z0.0000  F20    
M06 
G00 Z0.0500  
M03
G04 P0.000000
G82 X-0.3800 Y1.8600  Z-0.0730 F20    R0.0500  P0.010000
G82 X-0.9600 Y1.2800  
M05
G00 Z1.5000  
G00 X0.0000  Y0.0000  
M06 T05  ; 0.0390  
G01 Z0.0000  F20    
M06 
G00 Z0.0500  
M03
G04 P0.000000
G82 X-1.2700 Y1.7700  Z-0.0730 F20    R0.0500  P0.010000
G82 X-1.3700 Y1.7700  
G82 X-1.4700 Y1.7700  
G82 X-1.5700 Y1.7700  
G82 X-1.5700 Y2.0700  
G82 X-1.4700 Y2.0700  
G82 X-1.3700 Y2.0700  
G82 X-1.2700 Y2.0700  
M05
G00 Z1.5000  
G00 X0.0000  Y0.0000  
M06 T06  ; 0.0394  
G01 Z0.0000  F20    
M06 
G00 Z0.0500  
M03
G04 P0.000000
G82 X-0.7400 Y1.3200  Z-0.0730 F20    R0.0500  P0.010000
G82 X-0.8400 Y1.3200  
G82 X-0.8100 Y1.6200  
G82 X-0.8100 Y1.7200  
G82 X-0.8100 Y1.8200  
G82 X-0.7900 Y2.0800  
G82 X-0.8900 Y2.0800  
G82 X-1.3200 Y0.8700  
G82 X-1.3200 Y0.7700  
G82 X-1.3200 Y0.6700  
G82 X-1.2700 Y0.4200  
G82 X-1.2700 Y0.3200  
G82 X-2.2200 Y0.6700  
G82 X-2.3200 Y0.6700  
G82 X-2.4200 Y0.6700  
G82 X-3.0700 Y0.6300  
G82 X-3.0700 Y0.5300  
G82 X-3.0700 Y0.7300  
G82 X-2.9200 Y1.5700  
G82 X-2.9200 Y1.6700  
G82 X-2.9200 Y1.7700  
G82 X-2.9200 Y1.8700  
G82 X-2.9200 Y1.9700  
G82 X-2.9200 Y2.0700  
G82 X-2.9200 Y2.3700  
G82 X-2.9200 Y2.4700  
G82 X-2.5700 Y2.3700  
G82 X-2.5700 Y2.2700  
G82 X-2.5700 Y2.1700  
G82 X-2.5700 Y2.0700  
G82 X-2.5700 Y1.9700  
G82 X-2.5700 Y1.8700  
M05
G00 Z1.5000  
G00 X0.0000  Y0.0000  
M06 T07  ; 0.0400  
G01 Z0.0000  F20    
M06 
G00 Z0.0500  
M03
G04 P0.000000
G82 X-0.2200 Y0.5700  Z-0.0730 F20    R0.0500  P0.010000
G82 X-0.3200 Y0.5700  
G82 X-0.3200 Y0.6700  
G82 X-0.3200 Y0.7700  
G82 X-0.3200 Y0.8700  
G82 X-0.3200 Y0.9700  
G82 X-0.2200 Y0.9700  
G82 X-0.2200 Y0.8700  
G82 X-0.2200 Y0.7700  
G82 X-0.2200 Y0.6700  
G82 X-0.2200 Y1.0700  
G82 X-0.2200 Y1.1700  
G82 X-0.3200 Y1.1700  
G82 X-0.3200 Y1.0700  
G82 X-0.3200 Y1.2700  
G82 X-0.2200 Y1.2700  
M05
G00 Z1.5000  
G00 X0.0000  Y0.0000  
M06 T08  ; 0.0440  
G01 Z0.0000  F20    
M06 
G00 Z0.0500  
M03
G04 P0.000000
G82 X-1.6200 Y2.3200  Z-0.0730 F20    R0.0500  P0.010000
G82 X-1.6200 Y2.4200  
G82 X-1.6200 Y2.5200  
G82 X-1.6200 Y2.6200  
G82 X-1.9200 Y2.6200  
G82 X-1.9200 Y2.5200  
G82 X-1.9200 Y2.4200  
G82 X-1.9200 Y2.3200  
T01 
G00 Z0.2500  
M05
M02
