(/Applications/pcbgcode.repo/pcb-gcode.ulp)
(Copyright 2005 - 2012 by John Johnson)
(See readme.txt for licensing terms.)
(This file generated from the board:)
(.../eagle/atmega_midi_x0x_heart.brd)
(Current profile is .../pcbgcode.repo/profiles/mach.pp  )
(This file generated 3/18/16 9:05 PM)
(Settings from pcb-machine.h)
(spindle on time = 0.0000)
(  Tool Size)
(0.0040  )
(spindle speed = 30000.0000)
(tool change at 0.0000  0.0000  3.0000  )
(feed rate xy = F20    )
(feed rate z  = F10    )
(Z Axis Settings)
(  High     Up        Down     Drill)
(0.2500  	0.0500  	-0.0030 	-0.0730 )
(Settings from pcb-defaults.h)
(isolate min = 0.0040)
(isolate max = 0.0150)
(isolate step = 0.0015)
(Generated bottom outlines, bottom drill, )
(Unit of measure: inch)
(Inch Mode)
G20
(Absolute Coordinates)
G90
S30000
G00 Z0.2500  
G00 X0.0000  Y0.0000  
M03
G04 P0.000000
G00 Z0.0500  
G00 X-0.4864 Y0.1429  
G01 Z-0.0030 F10    
G01 X-0.4913 Y0.1380  F20    
G01 X-0.4969 Y0.1339  
G01 X-0.5031 Y0.1308  
G01 X-0.5097 Y0.1287  
G01 X-0.5165 Y0.1276  
G01 X-0.5235 Y0.1276  
G01 X-0.5303 Y0.1287  
G01 X-0.5369 Y0.1308  
G01 X-0.5431 Y0.1339  
G01 X-0.5473 Y0.1370  
G01 X-0.6285 Y0.1370  
G01 X-0.6649 Y0.1272  
G01 X-0.6652 Y0.1271  
G01 X-0.6673 Y0.1266  
G01 X-0.6695 Y0.1260  
G01 X-0.6698 Y0.1260  
G01 X-0.6700 Y0.1259  
G01 X-0.6723 Y0.1260  
G01 X-0.6745 Y0.1260  
G01 X-0.6748 Y0.1261  
G01 X-1.3781 Y0.1460  
G01 X-1.3791 Y0.1458  
G01 X-1.3806 Y0.1460  
G01 X-1.3820 Y0.1461  
G01 X-1.3830 Y0.1464  
G01 X-1.3841 Y0.1465  
G01 X-1.3854 Y0.1471  
G01 X-1.3868 Y0.1475  
G01 X-1.3877 Y0.1481  
G01 X-1.3887 Y0.1485  
G01 X-1.3898 Y0.1494  
G01 X-1.3911 Y0.1501  
G01 X-1.3918 Y0.1509  
G01 X-1.5012 Y0.2358  
G01 X-1.5045 Y0.2325  
G01 X-1.5355 Y0.2325  
G01 X-1.5483 Y0.2452  
G01 X-1.6332 Y0.2212  
G01 X-1.6339 Y0.2208  
G01 X-1.6356 Y0.2205  
G01 X-1.6372 Y0.2200  
G01 X-1.6380 Y0.2200  
G01 X-1.6880 Y0.2104  
G01 X-1.6880 Y0.2067  
G01 X-1.7067 Y0.1880  
G01 X-1.7166 Y0.1880  
G01 X-1.7172 Y0.1877  
G01 X-1.7184 Y0.1875  
G01 X-1.7195 Y0.1872  
G01 X-1.7209 Y0.1871  
G01 X-1.7222 Y0.1869  
G01 X-1.7233 Y0.1870  
G01 X-1.7245 Y0.1869  
G01 X-1.7258 Y0.1872  
G01 X-1.7271 Y0.1873  
G01 X-1.7283 Y0.1877  
G01 X-1.7294 Y0.1879  
G01 X-1.7295 Y0.1880  
G01 X-1.7333 Y0.1880  
G01 X-1.7348 Y0.1895  
G01 X-1.7990 Y0.1676  
G01 X-1.9880 Y0.0567  
G01 X-1.9880 Y0.0467  
G01 X-2.0067 Y0.0280  
G01 X-2.0333 Y0.0280  
G01 X-2.0520 Y0.0467  
G01 X-2.0520 Y0.0733  
G01 X-2.0333 Y0.0920  
G01 X-2.0067 Y0.0920  
G01 X-2.0054 Y0.0906  
G01 X-1.8171 Y0.2011  
G01 X-1.8155 Y0.2022  
G01 X-1.8150 Y0.2024  
G01 X-1.8145 Y0.2027  
G01 X-1.8126 Y0.2032  
G01 X-1.7520 Y0.2238  
G01 X-1.7520 Y0.2333  
G01 X-1.7333 Y0.2520  
G01 X-1.7067 Y0.2520  
G01 X-1.7012 Y0.2465  
G01 X-1.6444 Y0.2575  
G01 X-1.5575 Y0.2821  
G01 X-1.5575 Y0.2855  
G01 X-1.5355 Y0.3075  
G01 X-1.5045 Y0.3075  
G01 X-1.4825 Y0.2855  
G01 X-1.4825 Y0.2694  
G01 X-1.3723 Y0.1838  
G01 X-0.6742 Y0.1641  
G01 X-0.6383 Y0.1737  
G01 X-0.6358 Y0.1744  
G01 X-0.6335 Y0.1750  
G01 X-0.6310 Y0.1750  
G01 X-0.6285 Y0.1750  
G01 X-0.5640 Y0.1750  
G01 X-0.5629 Y0.1819  
G01 X-0.5608 Y0.1885  
G01 X-0.5576 Y0.1946  
G01 X-0.5536 Y0.2002  
G01 X-0.5487 Y0.2051  
G01 X-0.5431 Y0.2092  
G01 X-0.5369 Y0.2124  
G01 X-0.5303 Y0.2145  
G01 X-0.5235 Y0.2156  
G01 X-0.5165 Y0.2156  
G01 X-0.5097 Y0.2145  
G01 X-0.5031 Y0.2124  
G01 X-0.4969 Y0.2092  
G01 X-0.4913 Y0.2051  
G01 X-0.4864 Y0.2002  
G01 X-0.4824 Y0.1946  
G01 X-0.4792 Y0.1885  
G01 X-0.4771 Y0.1819  
G01 X-0.4760 Y0.1750  
G01 X-0.4760 Y0.1681  
G01 X-0.4771 Y0.1613  
G01 X-0.4792 Y0.1547  
G01 X-0.4824 Y0.1485  
G01 X-0.4864 Y0.1429  
G00 Z0.0500  
G00 X-0.4864 Y0.3398  
G01 Z-0.0030 F10    
G01 X-0.4913 Y0.3349  F20    
G01 X-0.4969 Y0.3308  
G01 X-0.5031 Y0.3276  
G01 X-0.5097 Y0.3255  
G01 X-0.5165 Y0.3244  
G01 X-0.5235 Y0.3244  
G01 X-0.5303 Y0.3255  
G01 X-0.5369 Y0.3276  
G01 X-0.5431 Y0.3308  
G01 X-0.5487 Y0.3349  
G01 X-0.5536 Y0.3398  
G01 X-0.5576 Y0.3454  
G01 X-0.5608 Y0.3515  
G01 X-0.5629 Y0.3581  
G01 X-0.5640 Y0.3650  
G01 X-0.5640 Y0.3719  
G01 X-0.5629 Y0.3787  
G01 X-0.5608 Y0.3853  
G01 X-0.5576 Y0.3915  
G01 X-0.5536 Y0.3971  
G01 X-0.5487 Y0.4020  
G01 X-0.5431 Y0.4061  
G01 X-0.5369 Y0.4092  
G01 X-0.5303 Y0.4113  
G01 X-0.5235 Y0.4124  
G01 X-0.5165 Y0.4124  
G01 X-0.5097 Y0.4113  
G01 X-0.5094 Y0.4113  
G01 X-0.4786 Y0.4479  
G01 X-0.4782 Y0.4487  
G01 X-0.4770 Y0.4499  
G01 X-0.4759 Y0.4511  
G01 X-0.4753 Y0.4516  
G01 X-0.3630 Y0.5639  
G01 X-0.3630 Y0.5878  
G01 X-0.3378 Y0.6130  
G01 X-0.3022 Y0.6130  
G01 X-0.2770 Y0.5878  
G01 X-0.2770 Y0.5820  
G01 X-0.2630 Y0.5820  
G01 X-0.2630 Y0.5878  
G01 X-0.2378 Y0.6130  
G01 X-0.2022 Y0.6130  
G01 X-0.1770 Y0.5878  
G01 X-0.1770 Y0.5522  
G01 X-0.2022 Y0.5270  
G01 X-0.2378 Y0.5270  
G01 X-0.2548 Y0.5440  
G01 X-0.2852 Y0.5440  
G01 X-0.3022 Y0.5270  
G01 X-0.3378 Y0.5270  
G01 X-0.3420 Y0.5312  
G01 X-0.4490 Y0.4241  
G01 X-0.4801 Y0.3871  
G01 X-0.4792 Y0.3853  
G01 X-0.4771 Y0.3787  
G01 X-0.4760 Y0.3719  
G01 X-0.4760 Y0.3650  
G01 X-0.4771 Y0.3581  
G01 X-0.4792 Y0.3515  
G01 X-0.4824 Y0.3454  
G01 X-0.4864 Y0.3398  
G00 Z0.0500  
G00 X-0.6640 Y0.3136  
G01 Z-0.0030 F10    
G01 X-0.6632 Y0.3125  F20    
G01 X-0.6602 Y0.3065  
G01 X-0.6581 Y0.3001  
G01 X-0.6570 Y0.2934  
G01 X-0.6570 Y0.2866  
G01 X-0.6581 Y0.2799  
G01 X-0.6602 Y0.2735  
G01 X-0.6632 Y0.2675  
G01 X-0.6672 Y0.2620  
G01 X-0.6720 Y0.2572  
G01 X-0.6775 Y0.2532  
G01 X-0.6835 Y0.2502  
G01 X-0.6899 Y0.2481  
G01 X-0.6966 Y0.2470  
G01 X-0.7034 Y0.2470  
G01 X-0.7101 Y0.2481  
G01 X-0.7165 Y0.2502  
G01 X-0.7225 Y0.2532  
G01 X-0.7280 Y0.2572  
G01 X-0.7328 Y0.2620  
G01 X-0.7368 Y0.2675  
G01 X-0.7398 Y0.2735  
G01 X-0.7419 Y0.2799  
G01 X-0.7430 Y0.2866  
G01 X-0.7430 Y0.2934  
G01 X-0.7419 Y0.3001  
G01 X-0.7398 Y0.3065  
G01 X-0.7368 Y0.3125  
G01 X-0.7328 Y0.3180  
G01 X-0.7280 Y0.3228  
G01 X-0.7225 Y0.3268  
G01 X-0.7165 Y0.3298  
G01 X-0.7101 Y0.3319  
G01 X-0.7034 Y0.3330  
G01 X-0.7020 Y0.3330  
G01 X-0.7020 Y0.3857  
G01 X-0.7021 Y0.3880  
G01 X-0.7020 Y0.3882  
G01 X-0.7020 Y0.3885  
G01 X-0.7017 Y0.3895  
G01 X-0.8314 Y0.4183  
G01 X-0.8331 Y0.4185  
G01 X-0.8338 Y0.4188  
G01 X-0.8346 Y0.4190  
G01 X-0.8361 Y0.4198  
G01 X-0.8377 Y0.4205  
G01 X-0.8383 Y0.4210  
G01 X-0.8390 Y0.4213  
G01 X-0.8403 Y0.4225  
G01 X-0.8417 Y0.4236  
G01 X-0.8421 Y0.4242  
G01 X-0.8427 Y0.4247  
G01 X-0.8436 Y0.4262  
G01 X-0.8447 Y0.4276  
G01 X-0.8450 Y0.4283  
G01 X-0.8454 Y0.4289  
G01 X-0.8459 Y0.4306  
G01 X-0.8683 Y0.4860  
G01 X-0.8732 Y0.4860  
G01 X-0.8793 Y0.4872  
G01 X-0.8852 Y0.4896  
G01 X-0.8904 Y0.4931  
G01 X-0.8949 Y0.4976  
G01 X-0.8984 Y0.5028  
G01 X-0.9008 Y0.5087  
G01 X-0.9020 Y0.5148  
G01 X-0.9020 Y0.5732  
G01 X-0.9008 Y0.5793  
G01 X-0.8984 Y0.5852  
G01 X-0.8949 Y0.5904  
G01 X-0.8904 Y0.5949  
G01 X-0.8852 Y0.5984  
G01 X-0.8793 Y0.6008  
G01 X-0.8732 Y0.6020  
G01 X-0.8668 Y0.6020  
G01 X-0.8607 Y0.6008  
G01 X-0.8548 Y0.5984  
G01 X-0.8496 Y0.5949  
G01 X-0.8451 Y0.5904  
G01 X-0.8416 Y0.5852  
G01 X-0.8392 Y0.5793  
G01 X-0.8380 Y0.5732  
G01 X-0.8380 Y0.5148  
G01 X-0.8383 Y0.5132  
G01 X-0.8141 Y0.4534  
G01 X-0.6977 Y0.4275  
G01 X-0.6833 Y0.4420  
G01 X-0.6567 Y0.4420  
G01 X-0.6380 Y0.4233  
G01 X-0.6380 Y0.3967  
G01 X-0.6567 Y0.3780  
G01 X-0.6640 Y0.3780  
G01 X-0.6640 Y0.3136  
G00 Z0.0500  
G00 X-0.7451 Y0.4976  
G01 Z-0.0030 F10    
G01 X-0.7496 Y0.4931  F20    
G01 X-0.7548 Y0.4896  
G01 X-0.7607 Y0.4872  
G01 X-0.7668 Y0.4860  
G01 X-0.7732 Y0.4860  
G01 X-0.7793 Y0.4872  
G01 X-0.7852 Y0.4896  
G01 X-0.7904 Y0.4931  
G01 X-0.7949 Y0.4976  
G01 X-0.7984 Y0.5028  
G01 X-0.8008 Y0.5087  
G01 X-0.8020 Y0.5148  
G01 X-0.8020 Y0.5732  
G01 X-0.8008 Y0.5793  
G01 X-0.7984 Y0.5852  
G01 X-0.7949 Y0.5904  
G01 X-0.7904 Y0.5949  
G01 X-0.7852 Y0.5984  
G01 X-0.7793 Y0.6008  
G01 X-0.7732 Y0.6020  
G01 X-0.7668 Y0.6020  
G01 X-0.7607 Y0.6008  
G01 X-0.7548 Y0.5984  
G01 X-0.7496 Y0.5949  
G01 X-0.7451 Y0.5904  
G01 X-0.7416 Y0.5852  
G01 X-0.7392 Y0.5793  
G01 X-0.7380 Y0.5732  
G01 X-0.7380 Y0.5148  
G01 X-0.7392 Y0.5087  
G01 X-0.7416 Y0.5028  
G01 X-0.7451 Y0.4976  
G00 Z0.0500  
G00 X-0.9451 Y0.4976  
G01 Z-0.0030 F10    
G01 X-0.9496 Y0.4931  F20    
G01 X-0.9548 Y0.4896  
G01 X-0.9558 Y0.4893  
G01 X-0.9734 Y0.3238  
G01 X-0.9720 Y0.3228  
G01 X-0.9672 Y0.3180  
G01 X-0.9632 Y0.3125  
G01 X-0.9602 Y0.3065  
G01 X-0.9581 Y0.3001  
G01 X-0.9570 Y0.2934  
G01 X-0.9570 Y0.2866  
G01 X-0.9581 Y0.2799  
G01 X-0.9602 Y0.2735  
G01 X-0.9632 Y0.2675  
G01 X-0.9672 Y0.2620  
G01 X-0.9720 Y0.2572  
G01 X-0.9775 Y0.2532  
G01 X-0.9835 Y0.2502  
G01 X-0.9899 Y0.2481  
G01 X-0.9925 Y0.2476  
G01 X-0.9927 Y0.2475  
G01 X-0.9939 Y0.2460  
G01 X-0.9944 Y0.2456  
G01 X-0.9948 Y0.2452  
G01 X-0.9964 Y0.2442  
G01 X-0.9980 Y0.2431  
G01 X-0.9986 Y0.2429  
G01 X-0.9991 Y0.2425  
G01 X-1.0009 Y0.2420  
G01 X-1.0027 Y0.2413  
G01 X-1.0033 Y0.2413  
G01 X-1.0039 Y0.2411  
G01 X-1.0058 Y0.2410  
G01 X-1.0077 Y0.2408  
G01 X-1.0083 Y0.2409  
G01 X-1.0089 Y0.2409  
G01 X-1.0107 Y0.2414  
G01 X-1.0126 Y0.2417  
G01 X-1.0131 Y0.2419  
G01 X-1.0138 Y0.2421  
G01 X-1.0154 Y0.2430  
G01 X-1.0171 Y0.2437  
G01 X-1.0176 Y0.2441  
G01 X-1.0182 Y0.2444  
G01 X-1.0195 Y0.2457  
G01 X-1.0210 Y0.2469  
G01 X-1.0214 Y0.2474  
G01 X-1.0218 Y0.2478  
G01 X-1.0228 Y0.2494  
G01 X-1.0239 Y0.2510  
G01 X-1.0241 Y0.2516  
G01 X-1.0245 Y0.2521  
G01 X-1.0250 Y0.2539  
G01 X-1.0256 Y0.2554  
G01 X-1.0280 Y0.2572  
G01 X-1.0328 Y0.2620  
G01 X-1.0368 Y0.2674  
G01 X-1.1713 Y0.2829  
G01 X-1.1719 Y0.2829  
G01 X-1.1738 Y0.2832  
G01 X-1.1757 Y0.2834  
G01 X-1.1762 Y0.2836  
G01 X-1.2189 Y0.2914  
G01 X-1.2234 Y0.2884  
G01 X-1.2299 Y0.2857  
G01 X-1.2368 Y0.2843  
G01 X-1.3032 Y0.2843  
G01 X-1.3101 Y0.2857  
G01 X-1.3166 Y0.2884  
G01 X-1.3224 Y0.2923  
G01 X-1.3274 Y0.2973  
G01 X-1.3313 Y0.3031  
G01 X-1.3340 Y0.3096  
G01 X-1.3354 Y0.3165  
G01 X-1.3354 Y0.3235  
G01 X-1.3340 Y0.3304  
G01 X-1.3313 Y0.3369  
G01 X-1.3274 Y0.3427  
G01 X-1.3224 Y0.3477  
G01 X-1.3166 Y0.3516  
G01 X-1.3101 Y0.3543  
G01 X-1.3032 Y0.3557  
G01 X-1.2368 Y0.3557  
G01 X-1.2299 Y0.3543  
G01 X-1.2234 Y0.3516  
G01 X-1.2176 Y0.3477  
G01 X-1.2126 Y0.3427  
G01 X-1.2087 Y0.3369  
G01 X-1.2060 Y0.3304  
G01 X-1.2054 Y0.3276  
G01 X-1.1682 Y0.3208  
G01 X-1.0400 Y0.3061  
G01 X-1.0398 Y0.3065  
G01 X-1.0368 Y0.3125  
G01 X-1.0328 Y0.3180  
G01 X-1.0280 Y0.3228  
G01 X-1.0225 Y0.3268  
G01 X-1.0165 Y0.3298  
G01 X-1.0108 Y0.3317  
G01 X-0.9933 Y0.4960  
G01 X-0.9949 Y0.4976  
G01 X-0.9984 Y0.5028  
G01 X-1.0008 Y0.5087  
G01 X-1.0020 Y0.5148  
G01 X-1.0020 Y0.5732  
G01 X-1.0008 Y0.5793  
G01 X-0.9984 Y0.5852  
G01 X-0.9949 Y0.5904  
G01 X-0.9904 Y0.5949  
G01 X-0.9852 Y0.5984  
G01 X-0.9793 Y0.6008  
G01 X-0.9732 Y0.6020  
G01 X-0.9668 Y0.6020  
G01 X-0.9607 Y0.6008  
G01 X-0.9548 Y0.5984  
G01 X-0.9496 Y0.5949  
G01 X-0.9451 Y0.5904  
G01 X-0.9416 Y0.5852  
G01 X-0.9392 Y0.5793  
G01 X-0.9380 Y0.5732  
G01 X-0.9380 Y0.5148  
G01 X-0.9392 Y0.5087  
G01 X-0.9416 Y0.5028  
G01 X-0.9451 Y0.4976  
G00 Z0.0500  
G00 X-1.0451 Y0.4976  
G01 Z-0.0030 F10    
G01 X-1.0496 Y0.4931  F20    
G01 X-1.0548 Y0.4896  
G01 X-1.0607 Y0.4872  
G01 X-1.0668 Y0.4860  
G01 X-1.0732 Y0.4860  
G01 X-1.0793 Y0.4872  
G01 X-1.0852 Y0.4896  
G01 X-1.0904 Y0.4931  
G01 X-1.0949 Y0.4976  
G01 X-1.0984 Y0.5028  
G01 X-1.1008 Y0.5087  
G01 X-1.1020 Y0.5148  
G01 X-1.1020 Y0.5732  
G01 X-1.1008 Y0.5793  
G01 X-1.0984 Y0.5852  
G01 X-1.0949 Y0.5904  
G01 X-1.0904 Y0.5949  
G01 X-1.0852 Y0.5984  
G01 X-1.0793 Y0.6008  
G01 X-1.0732 Y0.6020  
G01 X-1.0668 Y0.6020  
G01 X-1.0607 Y0.6008  
G01 X-1.0548 Y0.5984  
G01 X-1.0496 Y0.5949  
G01 X-1.0451 Y0.5904  
G01 X-1.0416 Y0.5852  
G01 X-1.0392 Y0.5793  
G01 X-1.0380 Y0.5732  
G01 X-1.0380 Y0.5148  
G01 X-1.0392 Y0.5087  
G01 X-1.0416 Y0.5028  
G01 X-1.0451 Y0.4976  
G00 Z0.0500  
G00 X-1.0567 Y0.4420  
G01 Z-0.0030 F10    
G01 X-1.0380 Y0.4233  F20    
G01 X-1.0380 Y0.3967  
G01 X-1.0567 Y0.3780  
G01 X-1.0833 Y0.3780  
G01 X-1.0995 Y0.3942  
G01 X-1.1320 Y0.3979  
G01 X-1.1324 Y0.3978  
G01 X-1.1345 Y0.3982  
G01 X-1.1366 Y0.3984  
G01 X-1.1370 Y0.3985  
G01 X-1.2061 Y0.4093  
G01 X-1.2087 Y0.4031  
G01 X-1.2126 Y0.3973  
G01 X-1.2176 Y0.3923  
G01 X-1.2234 Y0.3884  
G01 X-1.2299 Y0.3857  
G01 X-1.2368 Y0.3843  
G01 X-1.3032 Y0.3843  
G01 X-1.3101 Y0.3857  
G01 X-1.3166 Y0.3884  
G01 X-1.3224 Y0.3923  
G01 X-1.3274 Y0.3973  
G01 X-1.3313 Y0.4031  
G01 X-1.3340 Y0.4096  
G01 X-1.3354 Y0.4165  
G01 X-1.3354 Y0.4235  
G01 X-1.3340 Y0.4304  
G01 X-1.3313 Y0.4369  
G01 X-1.3274 Y0.4427  
G01 X-1.3224 Y0.4477  
G01 X-1.3166 Y0.4516  
G01 X-1.3101 Y0.4543  
G01 X-1.3032 Y0.4557  
G01 X-1.2649 Y0.4557  
G01 X-1.2642 Y0.4559  
G01 X-1.2624 Y0.4560  
G01 X-1.2606 Y0.4562  
G01 X-1.2599 Y0.4561  
G01 X-1.2592 Y0.4561  
G01 X-1.2575 Y0.4557  
G01 X-1.2368 Y0.4557  
G01 X-1.2299 Y0.4543  
G01 X-1.2234 Y0.4516  
G01 X-1.2210 Y0.4500  
G01 X-1.1295 Y0.4358  
G01 X-1.0935 Y0.4318  
G01 X-1.0833 Y0.4420  
G01 X-1.0567 Y0.4420  
G00 Z0.0500  
G00 X-1.0242 Y0.7733  
G01 Z-0.0030 F10    
G01 X-1.0242 Y0.7733  F20    
G01 X-1.0254 Y0.7755  
G01 X-1.0618 Y0.8378  
G01 X-1.1075 Y0.7675  
G01 X-1.1082 Y0.7662  
G01 X-1.1089 Y0.7654  
G01 X-1.1094 Y0.7645  
G01 X-1.1105 Y0.7636  
G01 X-1.2043 Y0.6591  
G01 X-1.2044 Y0.6589  
G01 X-1.2060 Y0.6572  
G01 X-1.2075 Y0.6554  
G01 X-1.2077 Y0.6554  
G01 X-1.2078 Y0.6553  
G01 X-1.2097 Y0.6540  
G01 X-1.2117 Y0.6527  
G01 X-1.2119 Y0.6527  
G01 X-1.2120 Y0.6526  
G01 X-1.2142 Y0.6519  
G01 X-1.2165 Y0.6512  
G01 X-1.2166 Y0.6512  
G01 X-1.2168 Y0.6511  
G01 X-1.2191 Y0.6510  
G01 X-1.2215 Y0.6509  
G01 X-1.2216 Y0.6509  
G01 X-1.2612 Y0.6494  
G01 X-1.2626 Y0.6473  
G01 X-1.2676 Y0.6423  
G01 X-1.2734 Y0.6384  
G01 X-1.2799 Y0.6357  
G01 X-1.2868 Y0.6343  
G01 X-1.3532 Y0.6343  
G01 X-1.3601 Y0.6357  
G01 X-1.3666 Y0.6384  
G01 X-1.3679 Y0.6392  
G01 X-1.4682 Y0.5390  
G01 X-1.4656 Y0.5352  
G01 X-1.4632 Y0.5293  
G01 X-1.4620 Y0.5232  
G01 X-1.4620 Y0.5168  
G01 X-1.4632 Y0.5107  
G01 X-1.4656 Y0.5048  
G01 X-1.4691 Y0.4996  
G01 X-1.4736 Y0.4951  
G01 X-1.4788 Y0.4916  
G01 X-1.4847 Y0.4892  
G01 X-1.4908 Y0.4880  
G01 X-1.5150 Y0.4880  
G01 X-1.5150 Y0.4072  
G01 X-1.5091 Y0.4061  
G01 X-1.5022 Y0.4032  
G01 X-1.4961 Y0.3991  
G01 X-1.4909 Y0.3939  
G01 X-1.4868 Y0.3878  
G01 X-1.4839 Y0.3809  
G01 X-1.4825 Y0.3737  
G01 X-1.4825 Y0.3663  
G01 X-1.4839 Y0.3591  
G01 X-1.4868 Y0.3522  
G01 X-1.4909 Y0.3461  
G01 X-1.4961 Y0.3409  
G01 X-1.5022 Y0.3368  
G01 X-1.5091 Y0.3339  
G01 X-1.5163 Y0.3325  
G01 X-1.5237 Y0.3325  
G01 X-1.5309 Y0.3339  
G01 X-1.5378 Y0.3368  
G01 X-1.5439 Y0.3409  
G01 X-1.5491 Y0.3461  
G01 X-1.5532 Y0.3522  
G01 X-1.5561 Y0.3591  
G01 X-1.5575 Y0.3663  
G01 X-1.5575 Y0.3737  
G01 X-1.5561 Y0.3809  
G01 X-1.5532 Y0.3878  
G01 X-1.5530 Y0.3881  
G01 X-1.5530 Y0.4180  
G01 X-1.6880 Y0.4180  
G01 X-1.6880 Y0.4067  
G01 X-1.7067 Y0.3880  
G01 X-1.7170 Y0.3880  
G01 X-2.1012 Y0.0729  
G01 X-2.1023 Y0.0718  
G01 X-2.1032 Y0.0713  
G01 X-2.1039 Y0.0707  
G01 X-2.1053 Y0.0701  
G01 X-2.1067 Y0.0693  
G01 X-2.1076 Y0.0690  
G01 X-2.1084 Y0.0687  
G01 X-2.1100 Y0.0684  
G01 X-2.1115 Y0.0680  
G01 X-2.1124 Y0.0680  
G01 X-2.1134 Y0.0678  
G01 X-2.1149 Y0.0680  
G01 X-2.9596 Y0.0680  
G01 X-2.9618 Y0.0679  
G01 X-2.9621 Y0.0680  
G01 X-2.9625 Y0.0680  
G01 X-2.9646 Y0.0686  
G01 X-2.9666 Y0.0690  
G01 X-2.9670 Y0.0692  
G01 X-2.9673 Y0.0693  
G01 X-2.9692 Y0.0704  
G01 X-2.9711 Y0.0714  
G01 X-2.9713 Y0.0716  
G01 X-2.9717 Y0.0718  
G01 X-2.9732 Y0.0733  
G01 X-3.3723 Y0.4426  
G01 X-3.3727 Y0.4428  
G01 X-3.3742 Y0.4443  
G01 X-3.3757 Y0.4458  
G01 X-3.3759 Y0.4461  
G01 X-3.3762 Y0.4463  
G01 X-3.3773 Y0.4482  
G01 X-3.3784 Y0.4500  
G01 X-3.3785 Y0.4503  
G01 X-3.3787 Y0.4507  
G01 X-3.3793 Y0.4527  
G01 X-3.3799 Y0.4548  
G01 X-3.3799 Y0.4551  
G01 X-3.3800 Y0.4555  
G01 X-3.3800 Y0.4576  
G01 X-3.3801 Y0.4598  
G01 X-3.3800 Y0.4601  
G01 X-3.3800 Y1.0793  
G01 X-3.3801 Y1.0811  
G01 X-3.3800 Y1.0817  
G01 X-3.3800 Y1.0824  
G01 X-3.3800 Y1.0825  
G01 X-3.3795 Y1.0843  
G01 X-3.3792 Y1.0860  
G01 X-3.3789 Y1.0866  
G01 X-3.3788 Y1.0872  
G01 X-3.3787 Y1.0873  
G01 X-3.3778 Y1.0889  
G01 X-3.0482 Y1.7691  
G01 X-3.0472 Y1.7712  
G01 X-3.0471 Y1.7714  
G01 X-3.0470 Y1.7715  
G01 X-3.0455 Y1.7733  
G01 X-3.0440 Y1.7751  
G01 X-3.0439 Y1.7752  
G01 X-3.0437 Y1.7753  
G01 X-3.0418 Y1.7766  
G01 X-3.0399 Y1.7780  
G01 X-3.0398 Y1.7780  
G01 X-3.0396 Y1.7781  
G01 X-3.0374 Y1.7789  
G01 X-2.9390 Y1.8152  
G01 X-2.9390 Y1.8343  
G01 X-2.9532 Y1.8343  
G01 X-2.9601 Y1.8357  
G01 X-2.9666 Y1.8384  
G01 X-2.9724 Y1.8423  
G01 X-2.9774 Y1.8473  
G01 X-2.9813 Y1.8531  
G01 X-2.9840 Y1.8596  
G01 X-2.9854 Y1.8665  
G01 X-2.9854 Y1.8735  
G01 X-2.9840 Y1.8804  
G01 X-2.9838 Y1.8809  
G01 X-3.0367 Y1.9338  
G01 X-3.0402 Y1.9373  
G01 X-3.0427 Y1.9417  
G01 X-3.0440 Y1.9465  
G01 X-3.0440 Y2.2665  
G01 X-3.0427 Y2.2713  
G01 X-3.0402 Y2.2757  
G01 X-2.9730 Y2.3429  
G01 X-2.9774 Y2.3473  
G01 X-2.9813 Y2.3531  
G01 X-2.9840 Y2.3596  
G01 X-2.9854 Y2.3665  
G01 X-2.9854 Y2.3735  
G01 X-2.9840 Y2.3804  
G01 X-2.9813 Y2.3869  
G01 X-2.9774 Y2.3927  
G01 X-2.9724 Y2.3977  
G01 X-2.9666 Y2.4016  
G01 X-2.9601 Y2.4043  
G01 X-2.9532 Y2.4057  
G01 X-2.8868 Y2.4057  
G01 X-2.8799 Y2.4043  
G01 X-2.8734 Y2.4016  
G01 X-2.8676 Y2.3977  
G01 X-2.8626 Y2.3927  
G01 X-2.8594 Y2.3880  
G01 X-2.7915 Y2.3880  
G01 X-2.7867 Y2.3867  
G01 X-2.7823 Y2.3842  
G01 X-2.7520 Y2.3539  
G01 X-2.6412 Y2.4647  
G01 X-2.6377 Y2.4682  
G01 X-2.6333 Y2.4707  
G01 X-2.6285 Y2.4720  
G01 X-2.5032 Y2.4720  
G01 X-2.5029 Y2.4721  
G01 X-2.5007 Y2.4720  
G01 X-2.4985 Y2.4720  
G01 X-2.4982 Y2.4719  
G01 X-2.4979 Y2.4719  
G01 X-2.4958 Y2.4713  
G01 X-2.4937 Y2.4707  
G01 X-2.4934 Y2.4705  
G01 X-2.4931 Y2.4705  
G01 X-2.4912 Y2.4693  
G01 X-2.4893 Y2.4682  
G01 X-2.4891 Y2.4680  
G01 X-2.3327 Y2.3706  
G01 X-2.3312 Y2.3698  
G01 X-2.3306 Y2.3693  
G01 X-2.3298 Y2.3688  
G01 X-2.3287 Y2.3676  
G01 X-2.3275 Y2.3665  
G01 X-2.3270 Y2.3658  
G01 X-2.3264 Y2.3652  
G01 X-2.3256 Y2.3637  
G01 X-2.3247 Y2.3623  
G01 X-2.3245 Y2.3615  
G01 X-2.3241 Y2.3607  
G01 X-2.3237 Y2.3591  
G01 X-2.3232 Y2.3576  
G01 X-2.3231 Y2.3567  
G01 X-2.3229 Y2.3559  
G01 X-2.3230 Y2.3542  
G01 X-2.3142 Y2.2020  
G01 X-2.3067 Y2.2020  
G01 X-2.3041 Y2.1993  
G01 X-2.0825 Y2.2089  
G01 X-2.0817 Y2.2091  
G01 X-2.0815 Y2.2091  
G01 X-2.0813 Y2.2091  
G01 X-2.0798 Y2.2090  
G01 X-2.0783 Y2.2091  
G01 X-2.0775 Y2.2089  
G01 X-1.8498 Y2.1991  
G01 X-1.8489 Y2.1992  
G01 X-1.8473 Y2.1989  
G01 X-1.8457 Y2.1989  
G01 X-1.8448 Y2.1986  
G01 X-1.8439 Y2.1985  
G01 X-1.8424 Y2.1979  
G01 X-1.8409 Y2.1974  
G01 X-1.8401 Y2.1969  
G01 X-1.8393 Y2.1965  
G01 X-1.8380 Y2.1955  
G01 X-1.8367 Y2.1947  
G01 X-1.8361 Y2.1940  
G01 X-1.7075 Y2.0940  
G01 X-1.5962 Y2.0940  
G01 X-1.5926 Y2.0976  
G01 X-1.5868 Y2.1015  
G01 X-1.5804 Y2.1041  
G01 X-1.5735 Y2.1055  
G01 X-1.5665 Y2.1055  
G01 X-1.5596 Y2.1041  
G01 X-1.5532 Y2.1015  
G01 X-1.5474 Y2.0976  
G01 X-1.5424 Y2.0926  
G01 X-1.5385 Y2.0868  
G01 X-1.5359 Y2.0804  
G01 X-1.5345 Y2.0735  
G01 X-1.5345 Y2.0665  
G01 X-1.5359 Y2.0596  
G01 X-1.5365 Y2.0582  
G01 X-1.5364 Y2.0581  
G01 X-1.5359 Y2.0559  
G01 X-1.5359 Y2.0556  
G01 X-1.5265 Y2.0100  
G01 X-1.4155 Y2.0100  
G01 X-1.4059 Y2.0562  
G01 X-1.4059 Y2.0571  
G01 X-1.4054 Y2.0587  
G01 X-1.4051 Y2.0603  
G01 X-1.4047 Y2.0611  
G01 X-1.4045 Y2.0617  
G01 X-1.4055 Y2.0665  
G01 X-1.4055 Y2.0735  
G01 X-1.4041 Y2.0804  
G01 X-1.4015 Y2.0868  
G01 X-1.3976 Y2.0926  
G01 X-1.3926 Y2.0976  
G01 X-1.3924 Y2.0978  
G01 X-1.3931 Y2.0987  
G01 X-1.3935 Y2.0994  
G01 X-1.3939 Y2.1000  
G01 X-1.3945 Y2.1016  
G01 X-1.4857 Y2.2961  
G01 X-1.5971 Y2.2884  
G01 X-1.6015 Y2.2854  
G01 X-1.6086 Y2.2825  
G01 X-1.6162 Y2.2810  
G01 X-1.6238 Y2.2810  
G01 X-1.6314 Y2.2825  
G01 X-1.6385 Y2.2854  
G01 X-1.6449 Y2.2897  
G01 X-1.6503 Y2.2951  
G01 X-1.6546 Y2.3015  
G01 X-1.6575 Y2.3086  
G01 X-1.6590 Y2.3162  
G01 X-1.6590 Y2.3238  
G01 X-1.6575 Y2.3314  
G01 X-1.6546 Y2.3385  
G01 X-1.6503 Y2.3449  
G01 X-1.6449 Y2.3503  
G01 X-1.6385 Y2.3546  
G01 X-1.6314 Y2.3575  
G01 X-1.6238 Y2.3590  
G01 X-1.6162 Y2.3590  
G01 X-1.6086 Y2.3575  
G01 X-1.6015 Y2.3546  
G01 X-1.5951 Y2.3503  
G01 X-1.5897 Y2.3449  
G01 X-1.5854 Y2.3385  
G01 X-1.5825 Y2.3314  
G01 X-1.5817 Y2.3276  
G01 X-1.4763 Y2.3349  
G01 X-1.4749 Y2.3351  
G01 X-1.4738 Y2.3351  
G01 X-1.4728 Y2.3351  
G01 X-1.4714 Y2.3348  
G01 X-1.4699 Y2.3347  
G01 X-1.4689 Y2.3344  
G01 X-1.4679 Y2.3342  
G01 X-1.4666 Y2.3335  
G01 X-1.4652 Y2.3330  
G01 X-1.4643 Y2.3324  
G01 X-1.4634 Y2.3320  
G01 X-1.4623 Y2.3310  
G01 X-1.4611 Y2.3302  
G01 X-1.4604 Y2.3294  
G01 X-1.4596 Y2.3287  
G01 X-1.4588 Y2.3275  
G01 X-1.4579 Y2.3263  
G01 X-1.4574 Y2.3254  
G01 X-1.4568 Y2.3245  
G01 X-1.4564 Y2.3231  
G01 X-1.3737 Y2.1468  
G01 X-1.2532 Y2.3190  
G01 X-1.2526 Y2.3202  
G01 X-1.2518 Y2.3210  
G01 X-1.2511 Y2.3219  
G01 X-1.2501 Y2.3228  
G01 X-1.2491 Y2.3238  
G01 X-1.2482 Y2.3244  
G01 X-1.2473 Y2.3252  
G01 X-1.2460 Y2.3257  
G01 X-1.1769 Y2.3685  
G01 X-1.1768 Y2.3693  
G01 X-1.1744 Y2.3752  
G01 X-1.1709 Y2.3804  
G01 X-1.1664 Y2.3849  
G01 X-1.1612 Y2.3884  
G01 X-1.1553 Y2.3908  
G01 X-1.1492 Y2.3920  
G01 X-1.0908 Y2.3920  
G01 X-1.0847 Y2.3908  
G01 X-1.0788 Y2.3884  
G01 X-1.0736 Y2.3849  
G01 X-1.0691 Y2.3804  
G01 X-1.0656 Y2.3752  
G01 X-1.0632 Y2.3693  
G01 X-1.0620 Y2.3632  
G01 X-1.0620 Y2.3568  
G01 X-1.0632 Y2.3507  
G01 X-1.0656 Y2.3448  
G01 X-1.0691 Y2.3396  
G01 X-1.0736 Y2.3351  
G01 X-1.0788 Y2.3316  
G01 X-1.0847 Y2.3292  
G01 X-1.0908 Y2.3280  
G01 X-1.1492 Y2.3280  
G01 X-1.1553 Y2.3292  
G01 X-1.1612 Y2.3316  
G01 X-1.1627 Y2.3326  
G01 X-1.2237 Y2.2949  
G01 X-1.3537 Y2.1091  
G01 X-1.3518 Y2.1064  
G01 X-1.3505 Y2.1048  
G01 X-1.3503 Y2.1044  
G01 X-1.3501 Y2.1040  
G01 X-1.3494 Y2.1021  
G01 X-1.3485 Y2.1002  
G01 X-1.3485 Y2.0997  
G01 X-1.3483 Y2.0993  
G01 X-1.3482 Y2.0981  
G01 X-1.3474 Y2.0976  
G01 X-1.3424 Y2.0926  
G01 X-1.3385 Y2.0868  
G01 X-1.3359 Y2.0804  
G01 X-1.3345 Y2.0735  
G01 X-1.3345 Y2.0665  
G01 X-1.3359 Y2.0596  
G01 X-1.3385 Y2.0532  
G01 X-1.3424 Y2.0474  
G01 X-1.3474 Y2.0424  
G01 X-1.3532 Y2.0385  
G01 X-1.3596 Y2.0359  
G01 X-1.3665 Y2.0345  
G01 X-1.3716 Y2.0345  
G01 X-1.3810 Y1.9891  
G01 X-1.3810 Y1.9885  
G01 X-1.3815 Y1.9866  
G01 X-1.3819 Y1.9847  
G01 X-1.3821 Y1.9842  
G01 X-1.3823 Y1.9837  
G01 X-1.3833 Y1.9820  
G01 X-1.3841 Y1.9802  
G01 X-1.3845 Y1.9798  
G01 X-1.3848 Y1.9793  
G01 X-1.3862 Y1.9780  
G01 X-1.3875 Y1.9765  
G01 X-1.3879 Y1.9762  
G01 X-1.3883 Y1.9758  
G01 X-1.3900 Y1.9748  
G01 X-1.3916 Y1.9738  
G01 X-1.3922 Y1.9736  
G01 X-1.3927 Y1.9733  
G01 X-1.3945 Y1.9728  
G01 X-1.3964 Y1.9722  
G01 X-1.3970 Y1.9721  
G01 X-1.3975 Y1.9720  
G01 X-1.3994 Y1.9720  
G01 X-1.4014 Y1.9719  
G01 X-1.4019 Y1.9720  
G01 X-1.5401 Y1.9720  
G01 X-1.5406 Y1.9719  
G01 X-1.5426 Y1.9720  
G01 X-1.5445 Y1.9720  
G01 X-1.5450 Y1.9721  
G01 X-1.5456 Y1.9722  
G01 X-1.5475 Y1.9728  
G01 X-1.5493 Y1.9733  
G01 X-1.5498 Y1.9736  
G01 X-1.5504 Y1.9738  
G01 X-1.5520 Y1.9748  
G01 X-1.5537 Y1.9758  
G01 X-1.5541 Y1.9762  
G01 X-1.5545 Y1.9765  
G01 X-1.5558 Y1.9780  
G01 X-1.5572 Y1.9793  
G01 X-1.5575 Y1.9798  
G01 X-1.5579 Y1.9802  
G01 X-1.5587 Y1.9820  
G01 X-1.5597 Y1.9837  
G01 X-1.5599 Y1.9842  
G01 X-1.5601 Y1.9847  
G01 X-1.5605 Y1.9866  
G01 X-1.5610 Y1.9885  
G01 X-1.5610 Y1.9891  
G01 X-1.5704 Y2.0345  
G01 X-1.5735 Y2.0345  
G01 X-1.5804 Y2.0359  
G01 X-1.5868 Y2.0385  
G01 X-1.5926 Y2.0424  
G01 X-1.5976 Y2.0474  
G01 X-1.6015 Y2.0532  
G01 X-1.6026 Y2.0560  
G01 X-1.7128 Y2.0560  
G01 X-1.7141 Y2.0558  
G01 X-1.7153 Y2.0560  
G01 X-1.7165 Y2.0560  
G01 X-1.7178 Y2.0563  
G01 X-1.7191 Y2.0565  
G01 X-1.7202 Y2.0570  
G01 X-1.7213 Y2.0573  
G01 X-1.7225 Y2.0580  
G01 X-1.7237 Y2.0585  
G01 X-1.7246 Y2.0592  
G01 X-1.7257 Y2.0598  
G01 X-1.7266 Y2.0607  
G01 X-1.8559 Y2.1613  
G01 X-2.0443 Y2.1694  
G01 X-2.0429 Y2.1688  
G01 X-2.0412 Y2.1671  
G01 X-2.0403 Y2.1649  
G01 X-2.0403 Y2.1151  
G01 X-2.0412 Y2.1129  
G01 X-2.0429 Y2.1112  
G01 X-2.0451 Y2.1103  
G01 X-2.0949 Y2.1103  
G01 X-2.0971 Y2.1112  
G01 X-2.0988 Y2.1129  
G01 X-2.0997 Y2.1151  
G01 X-2.0997 Y2.1649  
G01 X-2.0988 Y2.1671  
G01 X-2.0971 Y2.1688  
G01 X-2.0953 Y2.1696  
G01 X-2.0954 Y2.1703  
G01 X-2.2880 Y2.1620  
G01 X-2.2880 Y2.1567  
G01 X-2.3067 Y2.1380  
G01 X-2.3333 Y2.1380  
G01 X-2.3520 Y2.1567  
G01 X-2.3520 Y2.1833  
G01 X-2.3513 Y2.1840  
G01 X-2.3604 Y2.3431  
G01 X-2.5064 Y2.4340  
G01 X-2.6181 Y2.4340  
G01 X-2.7251 Y2.3270  
G01 X-2.6037 Y2.2056  
G01 X-2.6032 Y2.2057  
G01 X-2.5368 Y2.2057  
G01 X-2.5299 Y2.2043  
G01 X-2.5234 Y2.2016  
G01 X-2.5176 Y2.1977  
G01 X-2.5126 Y2.1927  
G01 X-2.5087 Y2.1869  
G01 X-2.5060 Y2.1804  
G01 X-2.5046 Y2.1735  
G01 X-2.5046 Y2.1665  
G01 X-2.5060 Y2.1596  
G01 X-2.5087 Y2.1531  
G01 X-2.5126 Y2.1473  
G01 X-2.5176 Y2.1423  
G01 X-2.5234 Y2.1384  
G01 X-2.5299 Y2.1357  
G01 X-2.5368 Y2.1343  
G01 X-2.5650 Y2.1343  
G01 X-2.5650 Y2.1057  
G01 X-2.5368 Y2.1057  
G01 X-2.5299 Y2.1043  
G01 X-2.5234 Y2.1016  
G01 X-2.5176 Y2.0977  
G01 X-2.5126 Y2.0927  
G01 X-2.5087 Y2.0869  
G01 X-2.5060 Y2.0804  
G01 X-2.5046 Y2.0735  
G01 X-2.5046 Y2.0665  
G01 X-2.5060 Y2.0596  
G01 X-2.5087 Y2.0531  
G01 X-2.5126 Y2.0473  
G01 X-2.5176 Y2.0423  
G01 X-2.5234 Y2.0384  
G01 X-2.5299 Y2.0357  
G01 X-2.5368 Y2.0343  
G01 X-2.6032 Y2.0343  
G01 X-2.6101 Y2.0357  
G01 X-2.6166 Y2.0384  
G01 X-2.6224 Y2.0423  
G01 X-2.6274 Y2.0473  
G01 X-2.6313 Y2.0531  
G01 X-2.6340 Y2.0596  
G01 X-2.6354 Y2.0665  
G01 X-2.6354 Y2.0735  
G01 X-2.6340 Y2.0804  
G01 X-2.6313 Y2.0869  
G01 X-2.6274 Y2.0927  
G01 X-2.6224 Y2.0977  
G01 X-2.6166 Y2.1016  
G01 X-2.6101 Y2.1043  
G01 X-2.6032 Y2.1057  
G01 X-2.6030 Y2.1057  
G01 X-2.6030 Y2.1343  
G01 X-2.6032 Y2.1343  
G01 X-2.6101 Y2.1357  
G01 X-2.6166 Y2.1384  
G01 X-2.6224 Y2.1423  
G01 X-2.6274 Y2.1473  
G01 X-2.6313 Y2.1531  
G01 X-2.6340 Y2.1596  
G01 X-2.6354 Y2.1665  
G01 X-2.6354 Y2.1735  
G01 X-2.6340 Y2.1804  
G01 X-2.6335 Y2.1816  
G01 X-2.7637 Y2.3118  
G01 X-2.8019 Y2.3500  
G01 X-2.8608 Y2.3500  
G01 X-2.8626 Y2.3473  
G01 X-2.8676 Y2.3423  
G01 X-2.8734 Y2.3384  
G01 X-2.8799 Y2.3357  
G01 X-2.8868 Y2.3343  
G01 X-2.9278 Y2.3343  
G01 X-3.0060 Y2.2561  
G01 X-3.0060 Y1.9569  
G01 X-2.9545 Y1.9054  
G01 X-2.9532 Y1.9057  
G01 X-2.8868 Y1.9057  
G01 X-2.8799 Y1.9043  
G01 X-2.8734 Y1.9016  
G01 X-2.8676 Y1.8977  
G01 X-2.8626 Y1.8927  
G01 X-2.8587 Y1.8869  
G01 X-2.8560 Y1.8804  
G01 X-2.8546 Y1.8735  
G01 X-2.8546 Y1.8665  
G01 X-2.8560 Y1.8596  
G01 X-2.8587 Y1.8531  
G01 X-2.8626 Y1.8473  
G01 X-2.8676 Y1.8423  
G01 X-2.8734 Y1.8384  
G01 X-2.8799 Y1.8357  
G01 X-2.8868 Y1.8343  
G01 X-2.9010 Y1.8343  
G01 X-2.9010 Y1.8057  
G01 X-2.8868 Y1.8057  
G01 X-2.8799 Y1.8043  
G01 X-2.8734 Y1.8016  
G01 X-2.8676 Y1.7977  
G01 X-2.8626 Y1.7927  
G01 X-2.8587 Y1.7869  
G01 X-2.8560 Y1.7804  
G01 X-2.8546 Y1.7735  
G01 X-2.8546 Y1.7665  
G01 X-2.8560 Y1.7596  
G01 X-2.8587 Y1.7531  
G01 X-2.8626 Y1.7473  
G01 X-2.8676 Y1.7423  
G01 X-2.8734 Y1.7384  
G01 X-2.8799 Y1.7357  
G01 X-2.8868 Y1.7343  
G01 X-2.9532 Y1.7343  
G01 X-2.9601 Y1.7357  
G01 X-2.9666 Y1.7384  
G01 X-2.9724 Y1.7423  
G01 X-2.9774 Y1.7473  
G01 X-2.9813 Y1.7531  
G01 X-2.9835 Y1.7583  
G01 X-3.0172 Y1.7458  
G01 X-3.3256 Y1.1095  
G01 X-3.2097 Y1.1415  
G01 X-3.2097 Y1.1549  
G01 X-3.2088 Y1.1571  
G01 X-3.2071 Y1.1588  
G01 X-3.2049 Y1.1597  
G01 X-3.1551 Y1.1597  
G01 X-3.1529 Y1.1588  
G01 X-3.1512 Y1.1571  
G01 X-3.1503 Y1.1549  
G01 X-3.1503 Y1.1051  
G01 X-3.1512 Y1.1029  
G01 X-3.1529 Y1.1012  
G01 X-3.1551 Y1.1003  
G01 X-3.2049 Y1.1003  
G01 X-3.2071 Y1.1012  
G01 X-3.2084 Y1.1024  
G01 X-3.3420 Y1.0655  
G01 X-3.3420 Y0.4663  
G01 X-2.9526 Y0.1060  
G01 X-2.1208 Y0.1060  
G01 X-1.7520 Y0.4084  
G01 X-1.7520 Y0.4333  
G01 X-1.7333 Y0.4520  
G01 X-1.7139 Y0.4520  
G01 X-1.7137 Y0.4522  
G01 X-1.7134 Y0.4523  
G01 X-1.7132 Y0.4525  
G01 X-1.7113 Y0.4536  
G01 X-1.7093 Y0.4547  
G01 X-1.7091 Y0.4548  
G01 X-1.7088 Y0.4549  
G01 X-1.7067 Y0.4554  
G01 X-1.7045 Y0.4560  
G01 X-1.7042 Y0.4560  
G01 X-1.7040 Y0.4561  
G01 X-1.7017 Y0.4560  
G01 X-1.5530 Y0.4560  
G01 X-1.5530 Y0.4888  
G01 X-1.5553 Y0.4892  
G01 X-1.5612 Y0.4916  
G01 X-1.5664 Y0.4951  
G01 X-1.5709 Y0.4996  
G01 X-1.5744 Y0.5048  
G01 X-1.5768 Y0.5107  
G01 X-1.5780 Y0.5168  
G01 X-1.5780 Y0.5232  
G01 X-1.5768 Y0.5293  
G01 X-1.5744 Y0.5352  
G01 X-1.5709 Y0.5404  
G01 X-1.5664 Y0.5449  
G01 X-1.5612 Y0.5484  
G01 X-1.5553 Y0.5508  
G01 X-1.5492 Y0.5520  
G01 X-1.5089 Y0.5520  
G01 X-1.3849 Y0.6760  
G01 X-1.3840 Y0.6804  
G01 X-1.3813 Y0.6869  
G01 X-1.3774 Y0.6927  
G01 X-1.3724 Y0.6977  
G01 X-1.3666 Y0.7016  
G01 X-1.3601 Y0.7043  
G01 X-1.3532 Y0.7057  
G01 X-1.2868 Y0.7057  
G01 X-1.2799 Y0.7043  
G01 X-1.2734 Y0.7016  
G01 X-1.2676 Y0.6977  
G01 X-1.2626 Y0.6927  
G01 X-1.2591 Y0.6875  
G01 X-1.2288 Y0.6887  
G01 X-1.1391 Y0.7886  
G01 X-1.0972 Y0.8531  
G01 X-1.0984 Y0.8548  
G01 X-1.1008 Y0.8607  
G01 X-1.1020 Y0.8668  
G01 X-1.1020 Y0.8811  
G01 X-1.2089 Y0.9880  
G01 X-1.2333 Y0.9880  
G01 X-1.2520 Y1.0067  
G01 X-1.2520 Y1.0333  
G01 X-1.2333 Y1.0520  
G01 X-1.2067 Y1.0520  
G01 X-1.1880 Y1.0333  
G01 X-1.1880 Y1.0209  
G01 X-1.1001 Y0.9330  
G01 X-1.0984 Y0.9372  
G01 X-1.0949 Y0.9424  
G01 X-1.0904 Y0.9469  
G01 X-1.0852 Y0.9504  
G01 X-1.0793 Y0.9528  
G01 X-1.0732 Y0.9540  
G01 X-1.0668 Y0.9540  
G01 X-1.0607 Y0.9528  
G01 X-1.0548 Y0.9504  
G01 X-1.0496 Y0.9469  
G01 X-1.0451 Y0.9424  
G01 X-1.0416 Y0.9372  
G01 X-1.0392 Y0.9313  
G01 X-1.0380 Y0.9252  
G01 X-1.0380 Y0.8710  
G01 X-1.0371 Y0.8700  
G01 X-1.0358 Y0.8687  
G01 X-1.0355 Y0.8681  
G01 X-1.0349 Y0.8675  
G01 X-1.0342 Y0.8659  
G01 X-0.9981 Y0.8040  
G01 X-0.7432 Y0.8040  
G01 X-0.6650 Y0.8729  
G01 X-0.6637 Y0.8742  
G01 X-0.6631 Y0.8745  
G01 X-0.6627 Y0.8749  
G01 X-0.6610 Y0.8758  
G01 X-0.6593 Y0.8767  
G01 X-0.6587 Y0.8769  
G01 X-0.6582 Y0.8771  
G01 X-0.6563 Y0.8775  
G01 X-0.6545 Y0.8780  
G01 X-0.6539 Y0.8780  
G01 X-0.6533 Y0.8781  
G01 X-0.6514 Y0.8780  
G01 X-0.3630 Y0.8780  
G01 X-0.3630 Y0.8878  
G01 X-0.3378 Y0.9130  
G01 X-0.3022 Y0.9130  
G01 X-0.2852 Y0.8960  
G01 X-0.2548 Y0.8960  
G01 X-0.2378 Y0.9130  
G01 X-0.2022 Y0.9130  
G01 X-0.1893 Y0.9001  
G01 X-0.0750 Y0.9921  
G01 X-0.0750 Y1.8367  
G01 X-0.1594 Y1.9300  
G01 X-0.3390 Y1.9300  
G01 X-0.3390 Y1.8982  
G01 X-0.3240 Y1.8832  
G01 X-0.3240 Y1.8368  
G01 X-0.3568 Y1.8040  
G01 X-0.3787 Y1.8040  
G01 X-0.3810 Y1.8039  
G01 X-0.3812 Y1.8040  
G01 X-0.4032 Y1.8040  
G01 X-0.4360 Y1.8368  
G01 X-0.4360 Y1.8832  
G01 X-0.4032 Y1.9160  
G01 X-0.3770 Y1.9160  
G01 X-0.3770 Y2.1010  
G01 X-0.4003 Y2.1010  
G01 X-0.4003 Y2.0951  
G01 X-0.4012 Y2.0929  
G01 X-0.4029 Y2.0912  
G01 X-0.4051 Y2.0903  
G01 X-0.4549 Y2.0903  
G01 X-0.4571 Y2.0912  
G01 X-0.4588 Y2.0929  
G01 X-0.4597 Y2.0951  
G01 X-0.4597 Y2.1449  
G01 X-0.4588 Y2.1471  
G01 X-0.4571 Y2.1488  
G01 X-0.4549 Y2.1497  
G01 X-0.4051 Y2.1497  
G01 X-0.4029 Y2.1488  
G01 X-0.4012 Y2.1471  
G01 X-0.4003 Y2.1449  
G01 X-0.4003 Y2.1390  
G01 X-0.3770 Y2.1390  
G01 X-0.3770 Y2.2240  
G01 X-0.3875 Y2.2345  
G01 X-0.3875 Y2.2655  
G01 X-0.3690 Y2.2840  
G01 X-0.3690 Y2.3321  
G01 X-0.4249 Y2.3880  
G01 X-0.4433 Y2.3880  
G01 X-0.4620 Y2.4067  
G01 X-0.4620 Y2.4333  
G01 X-0.4433 Y2.4520  
G01 X-0.4167 Y2.4520  
G01 X-0.3980 Y2.4333  
G01 X-0.3980 Y2.4149  
G01 X-0.3348 Y2.3517  
G01 X-0.3323 Y2.3473  
G01 X-0.3310 Y2.3425  
G01 X-0.3310 Y2.2840  
G01 X-0.3125 Y2.2655  
G01 X-0.3125 Y2.2345  
G01 X-0.3345 Y2.2125  
G01 X-0.3390 Y2.2125  
G01 X-0.3390 Y1.9680  
G01 X-0.1530 Y1.9680  
G01 X-0.1525 Y1.9681  
G01 X-0.1505 Y1.9680  
G01 X-0.1485 Y1.9680  
G01 X-0.1480 Y1.9679  
G01 X-0.1476 Y1.9679  
G01 X-0.1456 Y1.9672  
G01 X-0.1437 Y1.9667  
G01 X-0.1432 Y1.9665  
G01 X-0.1428 Y1.9663  
G01 X-0.1411 Y1.9652  
G01 X-0.1393 Y1.9642  
G01 X-0.1390 Y1.9639  
G01 X-0.1386 Y1.9636  
G01 X-0.1372 Y1.9621  
G01 X-0.1358 Y1.9607  
G01 X-0.1356 Y1.9602  
G01 X-0.0422 Y1.8571  
G01 X-0.0408 Y1.8557  
G01 X-0.0406 Y1.8552  
G01 X-0.0402 Y1.8549  
G01 X-0.0393 Y1.8531  
G01 X-0.0383 Y1.8513  
G01 X-0.0382 Y1.8509  
G01 X-0.0380 Y1.8504  
G01 X-0.0375 Y1.8485  
G01 X-0.0370 Y1.8465  
G01 X-0.0370 Y1.8460  
G01 X-0.0369 Y1.8455  
G01 X-0.0370 Y1.8435  
G01 X-0.0370 Y0.9845  
G01 X-0.0368 Y0.9834  
G01 X-0.0370 Y0.9820  
G01 X-0.0370 Y0.9805  
G01 X-0.0373 Y0.9795  
G01 X-0.0374 Y0.9785  
G01 X-0.0379 Y0.9771  
G01 X-0.0383 Y0.9757  
G01 X-0.0388 Y0.9748  
G01 X-0.0392 Y0.9738  
G01 X-0.0401 Y0.9726  
G01 X-0.0408 Y0.9713  
G01 X-0.0415 Y0.9706  
G01 X-0.0421 Y0.9698  
G01 X-0.0433 Y0.9688  
G01 X-0.0443 Y0.9678  
G01 X-0.0452 Y0.9673  
G01 X-0.1770 Y0.8612  
G01 X-0.1770 Y0.8522  
G01 X-0.1940 Y0.8352  
G01 X-0.1940 Y0.8048  
G01 X-0.1770 Y0.7878  
G01 X-0.1770 Y0.7522  
G01 X-0.1940 Y0.7352  
G01 X-0.1940 Y0.7048  
G01 X-0.1770 Y0.6878  
G01 X-0.1770 Y0.6522  
G01 X-0.2022 Y0.6270  
G01 X-0.2378 Y0.6270  
G01 X-0.2448 Y0.6340  
G01 X-0.2952 Y0.6340  
G01 X-0.3022 Y0.6270  
G01 X-0.3378 Y0.6270  
G01 X-0.3630 Y0.6522  
G01 X-0.3630 Y0.6878  
G01 X-0.3460 Y0.7048  
G01 X-0.3460 Y0.7352  
G01 X-0.3630 Y0.7522  
G01 X-0.3630 Y0.7878  
G01 X-0.3460 Y0.8048  
G01 X-0.3460 Y0.8352  
G01 X-0.3508 Y0.8400  
G01 X-0.6448 Y0.8400  
G01 X-0.7230 Y0.7711  
G01 X-0.7243 Y0.7698  
G01 X-0.7249 Y0.7695  
G01 X-0.7253 Y0.7691  
G01 X-0.7270 Y0.7682  
G01 X-0.7287 Y0.7673  
G01 X-0.7293 Y0.7671  
G01 X-0.7298 Y0.7669  
G01 X-0.7317 Y0.7665  
G01 X-0.7335 Y0.7660  
G01 X-0.7341 Y0.7660  
G01 X-0.7347 Y0.7659  
G01 X-0.7366 Y0.7660  
G01 X-1.0090 Y0.7660  
G01 X-1.0114 Y0.7660  
G01 X-1.0139 Y0.7666  
G01 X-1.0163 Y0.7673  
G01 X-1.0185 Y0.7685  
G01 X-1.0206 Y0.7697  
G01 X-1.0224 Y0.7715  
G01 X-1.0242 Y0.7733  
G00 Z0.0500  
G00 X-0.9904 Y0.8451  
G01 Z-0.0030 F10    
G01 X-0.9949 Y0.8496  F20    
G01 X-0.9984 Y0.8548  
G01 X-1.0008 Y0.8607  
G01 X-1.0020 Y0.8668  
G01 X-1.0020 Y0.9252  
G01 X-1.0008 Y0.9313  
G01 X-0.9984 Y0.9372  
G01 X-0.9949 Y0.9424  
G01 X-0.9904 Y0.9469  
G01 X-0.9870 Y0.9491  
G01 X-0.9870 Y0.9539  
G01 X-1.0243 Y1.0185  
G01 X-1.0957 Y1.0930  
G01 X-1.1133 Y1.0930  
G01 X-1.1320 Y1.1117  
G01 X-1.1320 Y1.1120  
G01 X-1.1339 Y1.1124  
G01 X-1.1362 Y1.1129  
G01 X-1.1363 Y1.1129  
G01 X-1.2725 Y1.1423  
G01 X-1.2744 Y1.1426  
G01 X-1.2749 Y1.1428  
G01 X-1.2755 Y1.1430  
G01 X-1.2772 Y1.1438  
G01 X-1.2790 Y1.1446  
G01 X-1.2794 Y1.1450  
G01 X-1.2799 Y1.1452  
G01 X-1.2814 Y1.1466  
G01 X-1.2829 Y1.1478  
G01 X-1.2832 Y1.1482  
G01 X-1.2836 Y1.1486  
G01 X-1.2847 Y1.1502  
G01 X-1.3312 Y1.2140  
G01 X-1.3352 Y1.2156  
G01 X-1.3404 Y1.2191  
G01 X-1.3449 Y1.2236  
G01 X-1.3484 Y1.2288  
G01 X-1.3508 Y1.2347  
G01 X-1.3520 Y1.2408  
G01 X-1.3520 Y1.2992  
G01 X-1.3508 Y1.3053  
G01 X-1.3484 Y1.3112  
G01 X-1.3449 Y1.3164  
G01 X-1.3404 Y1.3209  
G01 X-1.3352 Y1.3244  
G01 X-1.3293 Y1.3268  
G01 X-1.3232 Y1.3280  
G01 X-1.3168 Y1.3280  
G01 X-1.3107 Y1.3268  
G01 X-1.3048 Y1.3244  
G01 X-1.2996 Y1.3209  
G01 X-1.2951 Y1.3164  
G01 X-1.2916 Y1.3112  
G01 X-1.2892 Y1.3053  
G01 X-1.2880 Y1.2992  
G01 X-1.2880 Y1.2408  
G01 X-1.2892 Y1.2347  
G01 X-1.2916 Y1.2288  
G01 X-1.2932 Y1.2265  
G01 X-1.2579 Y1.1780  
G01 X-1.1261 Y1.1496  
G01 X-1.1216 Y1.1487  
G01 X-1.1133 Y1.1570  
G01 X-1.0867 Y1.1570  
G01 X-1.0680 Y1.1383  
G01 X-1.0680 Y1.1191  
G01 X-0.9954 Y1.0433  
G01 X-0.9938 Y1.0417  
G01 X-0.9937 Y1.0415  
G01 X-0.9935 Y1.0413  
G01 X-0.9924 Y1.0393  
G01 X-0.9528 Y0.9707  
G01 X-0.9517 Y0.9688  
G01 X-0.9503 Y0.9663  
G01 X-0.9496 Y0.9639  
G01 X-0.9490 Y0.9615  
G01 X-0.9490 Y0.9590  
G01 X-0.9490 Y0.9565  
G01 X-0.9490 Y0.9463  
G01 X-0.9451 Y0.9424  
G01 X-0.9416 Y0.9372  
G01 X-0.9392 Y0.9313  
G01 X-0.9380 Y0.9252  
G01 X-0.9380 Y0.8668  
G01 X-0.9392 Y0.8607  
G01 X-0.9416 Y0.8548  
G01 X-0.9451 Y0.8496  
G01 X-0.9496 Y0.8451  
G01 X-0.9548 Y0.8416  
G01 X-0.9607 Y0.8392  
G01 X-0.9668 Y0.8380  
G01 X-0.9732 Y0.8380  
G01 X-0.9793 Y0.8392  
G01 X-0.9852 Y0.8416  
G01 X-0.9904 Y0.8451  
G00 Z0.0500  
G00 X-0.8904 Y0.8451  
G01 Z-0.0030 F10    
G01 X-0.8949 Y0.8496  F20    
G01 X-0.8984 Y0.8548  
G01 X-0.9008 Y0.8607  
G01 X-0.9020 Y0.8668  
G01 X-0.9020 Y0.9252  
G01 X-0.9008 Y0.9313  
G01 X-0.8984 Y0.9372  
G01 X-0.8949 Y0.9424  
G01 X-0.8904 Y0.9469  
G01 X-0.8852 Y0.9504  
G01 X-0.8810 Y0.9521  
G01 X-0.8810 Y0.9645  
G01 X-0.8797 Y0.9693  
G01 X-0.8772 Y0.9737  
G01 X-0.8481 Y1.0028  
G01 X-0.8520 Y1.0067  
G01 X-0.8520 Y1.0333  
G01 X-0.8333 Y1.0520  
G01 X-0.8067 Y1.0520  
G01 X-0.7880 Y1.0333  
G01 X-0.7880 Y1.0067  
G01 X-0.8067 Y0.9880  
G01 X-0.8091 Y0.9880  
G01 X-0.8430 Y0.9541  
G01 X-0.8430 Y0.9392  
G01 X-0.8416 Y0.9372  
G01 X-0.8392 Y0.9313  
G01 X-0.8380 Y0.9252  
G01 X-0.8380 Y0.8668  
G01 X-0.8392 Y0.8607  
G01 X-0.8416 Y0.8548  
G01 X-0.8451 Y0.8496  
G01 X-0.8496 Y0.8451  
G01 X-0.8548 Y0.8416  
G01 X-0.8607 Y0.8392  
G01 X-0.8668 Y0.8380  
G01 X-0.8732 Y0.8380  
G01 X-0.8793 Y0.8392  
G01 X-0.8852 Y0.8416  
G01 X-0.8904 Y0.8451  
G00 Z0.0500  
G00 X-0.7904 Y0.8451  
G01 Z-0.0030 F10    
G01 X-0.7949 Y0.8496  F20    
G01 X-0.7984 Y0.8548  
G01 X-0.8008 Y0.8607  
G01 X-0.8020 Y0.8668  
G01 X-0.8020 Y0.9252  
G01 X-0.8008 Y0.9313  
G01 X-0.7984 Y0.9372  
G01 X-0.7949 Y0.9424  
G01 X-0.7904 Y0.9469  
G01 X-0.7852 Y0.9504  
G01 X-0.7793 Y0.9528  
G01 X-0.7761 Y0.9534  
G01 X-0.7760 Y0.9546  
G01 X-0.7760 Y0.9565  
G01 X-0.7758 Y0.9571  
G01 X-0.7758 Y0.9578  
G01 X-0.7752 Y0.9595  
G01 X-0.7747 Y0.9613  
G01 X-0.7744 Y0.9619  
G01 X-0.7490 Y1.0360  
G01 X-0.7262 Y1.1059  
G01 X-0.7275 Y1.1060  
G01 X-0.7323 Y1.1073  
G01 X-0.7367 Y1.1098  
G01 X-0.7402 Y1.1133  
G01 X-0.8321 Y1.2052  
G01 X-0.8326 Y1.2056  
G01 X-0.8339 Y1.2070  
G01 X-0.8352 Y1.2083  
G01 X-0.8355 Y1.2089  
G01 X-0.8359 Y1.2093  
G01 X-0.8368 Y1.2110  
G01 X-0.8377 Y1.2127  
G01 X-0.8379 Y1.2133  
G01 X-0.8381 Y1.2138  
G01 X-0.8385 Y1.2157  
G01 X-0.8390 Y1.2175  
G01 X-0.8390 Y1.2181  
G01 X-0.8464 Y1.2552  
G01 X-0.8504 Y1.2560  
G01 X-0.8569 Y1.2587  
G01 X-0.8627 Y1.2626  
G01 X-0.8677 Y1.2676  
G01 X-0.8716 Y1.2734  
G01 X-0.8743 Y1.2799  
G01 X-0.8757 Y1.2868  
G01 X-0.8757 Y1.3532  
G01 X-0.8743 Y1.3601  
G01 X-0.8716 Y1.3666  
G01 X-0.8677 Y1.3724  
G01 X-0.8627 Y1.3774  
G01 X-0.8569 Y1.3813  
G01 X-0.8504 Y1.3840  
G01 X-0.8435 Y1.3854  
G01 X-0.8365 Y1.3854  
G01 X-0.8296 Y1.3840  
G01 X-0.8231 Y1.3813  
G01 X-0.8173 Y1.3774  
G01 X-0.8123 Y1.3724  
G01 X-0.8084 Y1.3666  
G01 X-0.8057 Y1.3601  
G01 X-0.8043 Y1.3532  
G01 X-0.8043 Y1.2868  
G01 X-0.8057 Y1.2799  
G01 X-0.8084 Y1.2734  
G01 X-0.8106 Y1.2700  
G01 X-0.8025 Y1.2294  
G01 X-0.7217 Y1.1486  
G01 X-0.7133 Y1.1570  
G01 X-0.6867 Y1.1570  
G01 X-0.6752 Y1.1454  
G01 X-0.6130 Y1.1489  
G01 X-0.6125 Y1.1490  
G01 X-0.6105 Y1.1490  
G01 X-0.6086 Y1.1491  
G01 X-0.6080 Y1.1490  
G01 X-0.6075 Y1.1490  
G01 X-0.6056 Y1.1485  
G01 X-0.6037 Y1.1481  
G01 X-0.6032 Y1.1478  
G01 X-0.6027 Y1.1477  
G01 X-0.6010 Y1.1467  
G01 X-0.5992 Y1.1458  
G01 X-0.5988 Y1.1455  
G01 X-0.5983 Y1.1452  
G01 X-0.5969 Y1.1438  
G01 X-0.5955 Y1.1425  
G01 X-0.5952 Y1.1420  
G01 X-0.5601 Y1.1070  
G01 X-0.3438 Y1.1070  
G01 X-0.3378 Y1.1130  
G01 X-0.3022 Y1.1130  
G01 X-0.2770 Y1.0878  
G01 X-0.2770 Y1.0860  
G01 X-0.2630 Y1.0860  
G01 X-0.2630 Y1.0878  
G01 X-0.2378 Y1.1130  
G01 X-0.2022 Y1.1130  
G01 X-0.1798 Y1.0906  
G01 X-0.1590 Y1.1253  
G01 X-0.1590 Y1.3277  
G01 X-0.3264 Y1.4020  
G01 X-0.3273 Y1.4023  
G01 X-0.3286 Y1.4030  
G01 X-0.3300 Y1.4037  
G01 X-0.3308 Y1.4043  
G01 X-0.3317 Y1.4048  
G01 X-0.3327 Y1.4059  
G01 X-0.3339 Y1.4068  
G01 X-0.3345 Y1.4076  
G01 X-0.3352 Y1.4083  
G01 X-0.3360 Y1.4096  
G01 X-0.3368 Y1.4108  
G01 X-0.3372 Y1.4117  
G01 X-0.4646 Y1.4712  
G01 X-0.5893 Y1.4770  
G01 X-0.5910 Y1.4769  
G01 X-0.5918 Y1.4771  
G01 X-0.5926 Y1.4771  
G01 X-0.8837 Y1.4907  
G01 X-0.9274 Y1.4557  
G01 X-0.9286 Y1.4546  
G01 X-0.9294 Y1.4542  
G01 X-0.9301 Y1.4536  
G01 X-0.9316 Y1.4530  
G01 X-1.0206 Y1.4035  
G01 X-1.0227 Y1.4023  
G01 X-1.0228 Y1.4023  
G01 X-1.0230 Y1.4022  
G01 X-1.0252 Y1.4016  
G01 X-1.0275 Y1.4010  
G01 X-1.0277 Y1.4010  
G01 X-1.0278 Y1.4010  
G01 X-1.0302 Y1.4010  
G01 X-1.7621 Y1.4010  
G01 X-1.8010 Y1.3621  
G01 X-1.8010 Y1.3218  
G01 X-1.7996 Y1.3209  
G01 X-1.7951 Y1.3164  
G01 X-1.7916 Y1.3112  
G01 X-1.7892 Y1.3053  
G01 X-1.7880 Y1.2992  
G01 X-1.7880 Y1.2408  
G01 X-1.7892 Y1.2347  
G01 X-1.7897 Y1.2335  
G01 X-1.7488 Y1.1735  
G01 X-1.7478 Y1.1723  
G01 X-1.7474 Y1.1714  
G01 X-1.7469 Y1.1706  
G01 X-1.7464 Y1.1692  
G01 X-1.7276 Y1.1289  
G01 X-1.7274 Y1.1285  
G01 X-1.7266 Y1.1266  
G01 X-1.7257 Y1.1247  
G01 X-1.7256 Y1.1243  
G01 X-1.7165 Y1.1020  
G01 X-1.7067 Y1.1020  
G01 X-1.6880 Y1.0833  
G01 X-1.6880 Y1.0567  
G01 X-1.7010 Y1.0437  
G01 X-1.7010 Y0.8716  
G01 X-1.7008 Y0.8707  
G01 X-1.7010 Y0.8691  
G01 X-1.7010 Y0.8675  
G01 X-1.7012 Y0.8666  
G01 X-1.7013 Y0.8657  
G01 X-1.7019 Y0.8642  
G01 X-1.7023 Y0.8627  
G01 X-1.7028 Y0.8619  
G01 X-1.7031 Y0.8610  
G01 X-1.7040 Y0.8597  
G01 X-1.7048 Y0.8583  
G01 X-1.7055 Y0.8577  
G01 X-1.7534 Y0.7905  
G01 X-1.7537 Y0.7900  
G01 X-1.7549 Y0.7885  
G01 X-1.7560 Y0.7869  
G01 X-1.7565 Y0.7865  
G01 X-1.8843 Y0.6292  
G01 X-1.8848 Y0.6283  
G01 X-1.8859 Y0.6272  
G01 X-1.8868 Y0.6261  
G01 X-1.8876 Y0.6255  
G01 X-1.8884 Y0.6248  
G01 X-1.8897 Y0.6240  
G01 X-1.8909 Y0.6231  
G01 X-1.8918 Y0.6228  
G01 X-2.2205 Y0.4335  
G01 X-2.4095 Y0.3241  
G01 X-2.4106 Y0.3233  
G01 X-2.4117 Y0.3229  
G01 X-2.4126 Y0.3223  
G01 X-2.4140 Y0.3219  
G01 X-2.4617 Y0.3029  
G01 X-2.4627 Y0.3023  
G01 X-2.4640 Y0.3019  
G01 X-2.4653 Y0.3014  
G01 X-2.4664 Y0.3013  
G01 X-2.4675 Y0.3010  
G01 X-2.4689 Y0.3010  
G01 X-2.4702 Y0.3008  
G01 X-2.4714 Y0.3010  
G01 X-2.5182 Y0.3010  
G01 X-2.5191 Y0.2996  
G01 X-2.5236 Y0.2951  
G01 X-2.5288 Y0.2916  
G01 X-2.5347 Y0.2892  
G01 X-2.5408 Y0.2880  
G01 X-2.5992 Y0.2880  
G01 X-2.6053 Y0.2892  
G01 X-2.6112 Y0.2916  
G01 X-2.6164 Y0.2951  
G01 X-2.6209 Y0.2996  
G01 X-2.6244 Y0.3048  
G01 X-2.6268 Y0.3107  
G01 X-2.6280 Y0.3168  
G01 X-2.6280 Y0.3232  
G01 X-2.6268 Y0.3293  
G01 X-2.6244 Y0.3352  
G01 X-2.6209 Y0.3404  
G01 X-2.6164 Y0.3449  
G01 X-2.6112 Y0.3484  
G01 X-2.6053 Y0.3508  
G01 X-2.5992 Y0.3520  
G01 X-2.5408 Y0.3520  
G01 X-2.5347 Y0.3508  
G01 X-2.5288 Y0.3484  
G01 X-2.5236 Y0.3449  
G01 X-2.5191 Y0.3404  
G01 X-2.5182 Y0.3390  
G01 X-2.4737 Y0.3390  
G01 X-2.4283 Y0.3571  
G01 X-2.2417 Y0.4652  
G01 X-2.2395 Y0.4665  
G01 X-2.2374 Y0.4677  
G01 X-1.9125 Y0.6547  
G01 X-1.7851 Y0.8115  
G01 X-1.7390 Y0.8761  
G01 X-1.7390 Y1.0437  
G01 X-1.7520 Y1.0567  
G01 X-1.7520 Y1.0833  
G01 X-1.7505 Y1.0848  
G01 X-1.7614 Y1.1114  
G01 X-1.7806 Y1.1526  
G01 X-1.8210 Y1.2120  
G01 X-1.8232 Y1.2120  
G01 X-1.8293 Y1.2132  
G01 X-1.8352 Y1.2156  
G01 X-1.8404 Y1.2191  
G01 X-1.8449 Y1.2236  
G01 X-1.8484 Y1.2288  
G01 X-1.8508 Y1.2347  
G01 X-1.8520 Y1.2408  
G01 X-1.8520 Y1.2992  
G01 X-1.8508 Y1.3053  
G01 X-1.8484 Y1.3112  
G01 X-1.8449 Y1.3164  
G01 X-1.8404 Y1.3209  
G01 X-1.8390 Y1.3218  
G01 X-1.8390 Y1.3725  
G01 X-1.8377 Y1.3773  
G01 X-1.8352 Y1.3817  
G01 X-1.7852 Y1.4317  
G01 X-1.7817 Y1.4352  
G01 X-1.7773 Y1.4377  
G01 X-1.7725 Y1.4390  
G01 X-1.0349 Y1.4390  
G01 X-0.9506 Y1.4858  
G01 X-0.9023 Y1.5245  
G01 X-0.9009 Y1.5257  
G01 X-0.9004 Y1.5260  
G01 X-0.8999 Y1.5264  
G01 X-0.8982 Y1.5272  
G01 X-0.8965 Y1.5280  
G01 X-0.8959 Y1.5282  
G01 X-0.8953 Y1.5284  
G01 X-0.8935 Y1.5287  
G01 X-0.8916 Y1.5291  
G01 X-0.8910 Y1.5291  
G01 X-0.8904 Y1.5292  
G01 X-0.8885 Y1.5290  
G01 X-0.5892 Y1.5150  
G01 X-0.5890 Y1.5150  
G01 X-0.5890 Y2.1805  
G01 X-0.6563 Y2.2310  
G01 X-0.9821 Y2.2310  
G01 X-1.1010 Y2.1121  
G01 X-1.1010 Y2.0779  
G01 X-1.0648 Y2.0417  
G01 X-1.0623 Y2.0373  
G01 X-1.0610 Y2.0325  
G01 X-1.0610 Y1.8390  
G01 X-0.8699 Y1.8390  
G01 X-0.8674 Y1.8427  
G01 X-0.8624 Y1.8477  
G01 X-0.8566 Y1.8516  
G01 X-0.8501 Y1.8543  
G01 X-0.8432 Y1.8557  
G01 X-0.7768 Y1.8557  
G01 X-0.7699 Y1.8543  
G01 X-0.7634 Y1.8516  
G01 X-0.7576 Y1.8477  
G01 X-0.7526 Y1.8427  
G01 X-0.7487 Y1.8369  
G01 X-0.7460 Y1.8304  
G01 X-0.7446 Y1.8235  
G01 X-0.7446 Y1.8165  
G01 X-0.7460 Y1.8096  
G01 X-0.7487 Y1.8031  
G01 X-0.7526 Y1.7973  
G01 X-0.7576 Y1.7923  
G01 X-0.7634 Y1.7884  
G01 X-0.7699 Y1.7857  
G01 X-0.7768 Y1.7843  
G01 X-0.8432 Y1.7843  
G01 X-0.8501 Y1.7857  
G01 X-0.8566 Y1.7884  
G01 X-0.8624 Y1.7923  
G01 X-0.8674 Y1.7973  
G01 X-0.8699 Y1.8010  
G01 X-1.0634 Y1.8010  
G01 X-1.0778 Y1.6930  
G01 X-1.0680 Y1.6833  
G01 X-1.0680 Y1.6567  
G01 X-1.0867 Y1.6380  
G01 X-1.1133 Y1.6380  
G01 X-1.1320 Y1.6567  
G01 X-1.1320 Y1.6645  
G01 X-1.1984 Y1.6970  
G01 X-1.1987 Y1.6971  
G01 X-1.2006 Y1.6981  
G01 X-1.2026 Y1.6990  
G01 X-1.2029 Y1.6993  
G01 X-1.2689 Y1.7345  
G01 X-1.3007 Y1.7345  
G01 X-1.3029 Y1.7354  
G01 X-1.3046 Y1.7371  
G01 X-1.3055 Y1.7393  
G01 X-1.3055 Y1.7805  
G01 X-1.3544 Y1.8450  
G01 X-1.5749 Y1.8450  
G01 X-1.5763 Y1.8448  
G01 X-1.5774 Y1.8450  
G01 X-1.5785 Y1.8450  
G01 X-1.5799 Y1.8454  
G01 X-1.5813 Y1.8456  
G01 X-1.5823 Y1.8460  
G01 X-1.5833 Y1.8463  
G01 X-1.5846 Y1.8470  
G01 X-1.5859 Y1.8476  
G01 X-1.5867 Y1.8482  
G01 X-1.5877 Y1.8488  
G01 X-1.5887 Y1.8498  
G01 X-1.7807 Y2.0022  
G01 X-1.7817 Y2.0028  
G01 X-1.7827 Y2.0038  
G01 X-1.7838 Y2.0047  
G01 X-1.7844 Y2.0056  
G01 X-1.8205 Y2.0416  
G01 X-1.9080 Y2.0484  
G01 X-1.9080 Y2.0408  
G01 X-1.9092 Y2.0347  
G01 X-1.9116 Y2.0288  
G01 X-1.9151 Y2.0236  
G01 X-1.9196 Y2.0191  
G01 X-1.9248 Y2.0156  
G01 X-1.9307 Y2.0132  
G01 X-1.9368 Y2.0120  
G01 X-1.9432 Y2.0120  
G01 X-1.9493 Y2.0132  
G01 X-1.9552 Y2.0156  
G01 X-1.9604 Y2.0191  
G01 X-1.9649 Y2.0236  
G01 X-1.9684 Y2.0288  
G01 X-1.9708 Y2.0347  
G01 X-1.9720 Y2.0408  
G01 X-1.9720 Y2.0480  
G01 X-2.1410 Y2.0326  
G01 X-2.1410 Y1.9565  
G01 X-2.0037 Y1.7806  
G01 X-2.0028 Y1.7797  
G01 X-2.0022 Y1.7786  
G01 X-2.0015 Y1.7777  
G01 X-2.0010 Y1.7765  
G01 X-2.0006 Y1.7758  
G01 X-1.9880 Y1.7633  
G01 X-1.9880 Y1.7367  
G01 X-1.9990 Y1.7257  
G01 X-1.9990 Y1.6692  
G01 X-1.9990 Y1.6669  
G01 X-1.9990 Y1.6667  
G01 X-1.9990 Y1.6203  
G01 X-1.9951 Y1.6164  
G01 X-1.9916 Y1.6112  
G01 X-1.9892 Y1.6053  
G01 X-1.9880 Y1.5992  
G01 X-1.9880 Y1.5408  
G01 X-1.9892 Y1.5347  
G01 X-1.9916 Y1.5288  
G01 X-1.9951 Y1.5236  
G01 X-1.9996 Y1.5191  
G01 X-2.0048 Y1.5156  
G01 X-2.0107 Y1.5132  
G01 X-2.0168 Y1.5120  
G01 X-2.0232 Y1.5120  
G01 X-2.0293 Y1.5132  
G01 X-2.0352 Y1.5156  
G01 X-2.0404 Y1.5191  
G01 X-2.0449 Y1.5236  
G01 X-2.0484 Y1.5288  
G01 X-2.0508 Y1.5347  
G01 X-2.0520 Y1.5408  
G01 X-2.0520 Y1.5992  
G01 X-2.0508 Y1.6053  
G01 X-2.0484 Y1.6112  
G01 X-2.0449 Y1.6164  
G01 X-2.0404 Y1.6209  
G01 X-2.0370 Y1.6231  
G01 X-2.0370 Y1.6688  
G01 X-2.0380 Y1.7195  
G01 X-2.0381 Y1.7229  
G01 X-2.0520 Y1.7367  
G01 X-2.0520 Y1.7633  
G01 X-2.0444 Y1.7709  
G01 X-2.1743 Y1.9374  
G01 X-2.1752 Y1.9383  
G01 X-2.1758 Y1.9394  
G01 X-2.1765 Y1.9403  
G01 X-2.1770 Y1.9415  
G01 X-2.1777 Y1.9427  
G01 X-2.1780 Y1.9438  
G01 X-2.1785 Y1.9449  
G01 X-2.1787 Y1.9462  
G01 X-2.1790 Y1.9475  
G01 X-2.1790 Y1.9487  
G01 X-2.1792 Y1.9498  
G01 X-2.1790 Y1.9512  
G01 X-2.1790 Y2.0491  
G01 X-2.1791 Y2.0508  
G01 X-2.1790 Y2.0516  
G01 X-2.1790 Y2.0525  
G01 X-2.1786 Y2.0541  
G01 X-2.1783 Y2.0557  
G01 X-2.1779 Y2.0565  
G01 X-2.1777 Y2.0573  
G01 X-2.1769 Y2.0588  
G01 X-2.1762 Y2.0602  
G01 X-2.1756 Y2.0609  
G01 X-2.1752 Y2.0617  
G01 X-2.1740 Y2.0628  
G01 X-2.1730 Y2.0641  
G01 X-2.1723 Y2.0646  
G01 X-2.1717 Y2.0652  
G01 X-2.1702 Y2.0660  
G01 X-2.1689 Y2.0670  
G01 X-2.1681 Y2.0673  
G01 X-2.1673 Y2.0677  
G01 X-2.1657 Y2.0681  
G01 X-2.1642 Y2.0687  
G01 X-2.1633 Y2.0688  
G01 X-2.1625 Y2.0690  
G01 X-2.1609 Y2.0690  
G01 X-1.9720 Y2.0862  
G01 X-1.9720 Y2.0992  
G01 X-1.9708 Y2.1053  
G01 X-1.9684 Y2.1112  
G01 X-1.9649 Y2.1164  
G01 X-1.9604 Y2.1209  
G01 X-1.9552 Y2.1244  
G01 X-1.9493 Y2.1268  
G01 X-1.9432 Y2.1280  
G01 X-1.9368 Y2.1280  
G01 X-1.9307 Y2.1268  
G01 X-1.9248 Y2.1244  
G01 X-1.9196 Y2.1209  
G01 X-1.9151 Y2.1164  
G01 X-1.9116 Y2.1112  
G01 X-1.9092 Y2.1053  
G01 X-1.9080 Y2.0992  
G01 X-1.9080 Y2.0866  
G01 X-1.8113 Y2.0790  
G01 X-1.8095 Y2.0790  
G01 X-1.8088 Y2.0788  
G01 X-1.8080 Y2.0787  
G01 X-1.8064 Y2.0782  
G01 X-1.8047 Y2.0777  
G01 X-1.8040 Y2.0773  
G01 X-1.8033 Y2.0771  
G01 X-1.8019 Y2.0761  
G01 X-1.8003 Y2.0752  
G01 X-1.7998 Y2.0747  
G01 X-1.7992 Y2.0742  
G01 X-1.7980 Y2.0729  
G01 X-1.7573 Y2.0322  
G01 X-1.5694 Y1.8830  
G01 X-1.3462 Y1.8830  
G01 X-1.3449 Y1.8832  
G01 X-1.3437 Y1.8830  
G01 X-1.3425 Y1.8830  
G01 X-1.3412 Y1.8827  
G01 X-1.3399 Y1.8825  
G01 X-1.3388 Y1.8820  
G01 X-1.3377 Y1.8817  
G01 X-1.3365 Y1.8811  
G01 X-1.3353 Y1.8805  
G01 X-1.3344 Y1.8798  
G01 X-1.3333 Y1.8792  
G01 X-1.3324 Y1.8783  
G01 X-1.3314 Y1.8775  
G01 X-1.3306 Y1.8765  
G01 X-1.3298 Y1.8757  
G01 X-1.3291 Y1.8745  
G01 X-1.2767 Y1.8055  
G01 X-1.2393 Y1.8055  
G01 X-1.2371 Y1.8046  
G01 X-1.2354 Y1.8029  
G01 X-1.2345 Y1.8007  
G01 X-1.2345 Y1.7592  
G01 X-1.1834 Y1.7319  
G01 X-1.1162 Y1.6991  
G01 X-1.1152 Y1.7001  
G01 X-1.0990 Y1.8213  
G01 X-1.0990 Y2.0221  
G01 X-1.1352 Y2.0583  
G01 X-1.1377 Y2.0627  
G01 X-1.1390 Y2.0675  
G01 X-1.1390 Y2.1225  
G01 X-1.1377 Y2.1273  
G01 X-1.1352 Y2.1317  
G01 X-1.0052 Y2.2617  
G01 X-1.0017 Y2.2652  
G01 X-0.9973 Y2.2677  
G01 X-0.9925 Y2.2690  
G01 X-0.6514 Y2.2690  
G01 X-0.6502 Y2.2692  
G01 X-0.6489 Y2.2690  
G01 X-0.6475 Y2.2690  
G01 X-0.6464 Y2.2687  
G01 X-0.6452 Y2.2686  
G01 X-0.6440 Y2.2681  
G01 X-0.6427 Y2.2677  
G01 X-0.6417 Y2.2671  
G01 X-0.6406 Y2.2667  
G01 X-0.6395 Y2.2659  
G01 X-0.6383 Y2.2652  
G01 X-0.6375 Y2.2644  
G01 X-0.5595 Y2.2059  
G01 X-0.5583 Y2.2052  
G01 X-0.5575 Y2.2044  
G01 X-0.5566 Y2.2037  
G01 X-0.5558 Y2.2026  
G01 X-0.5548 Y2.2017  
G01 X-0.5542 Y2.2007  
G01 X-0.5535 Y2.1998  
G01 X-0.5530 Y2.1985  
G01 X-0.5523 Y2.1973  
G01 X-0.5520 Y2.1962  
G01 X-0.5515 Y2.1952  
G01 X-0.5514 Y2.1938  
G01 X-0.5510 Y2.1925  
G01 X-0.5510 Y2.1914  
G01 X-0.5508 Y2.1902  
G01 X-0.5510 Y2.1889  
G01 X-0.5510 Y1.5133  
G01 X-0.4604 Y1.5090  
G01 X-0.4592 Y1.5091  
G01 X-0.4579 Y1.5089  
G01 X-0.4566 Y1.5089  
G01 X-0.4554 Y1.5085  
G01 X-0.4542 Y1.5083  
G01 X-0.4531 Y1.5077  
G01 X-0.4519 Y1.5073  
G01 X-0.4508 Y1.5067  
G01 X-0.3035 Y1.4379  
G01 X-0.3027 Y1.4377  
G01 X-0.3012 Y1.4369  
G01 X-0.2997 Y1.4362  
G01 X-0.2991 Y1.4356  
G01 X-0.2983 Y1.4352  
G01 X-0.2971 Y1.4340  
G01 X-0.2959 Y1.4329  
G01 X-0.2954 Y1.4323  
G01 X-0.2948 Y1.4317  
G01 X-0.2940 Y1.4302  
G01 X-0.2930 Y1.4288  
G01 X-0.1336 Y1.3580  
G01 X-0.1327 Y1.3577  
G01 X-0.1314 Y1.3570  
G01 X-0.1300 Y1.3563  
G01 X-0.1292 Y1.3557  
G01 X-0.1283 Y1.3552  
G01 X-0.1273 Y1.3541  
G01 X-0.1261 Y1.3532  
G01 X-0.1255 Y1.3524  
G01 X-0.1248 Y1.3517  
G01 X-0.1240 Y1.3504  
G01 X-0.1232 Y1.3492  
G01 X-0.1228 Y1.3482  
G01 X-0.1223 Y1.3473  
G01 X-0.1219 Y1.3459  
G01 X-0.1214 Y1.3445  
G01 X-0.1213 Y1.3435  
G01 X-0.1210 Y1.3425  
G01 X-0.1210 Y1.3410  
G01 X-0.1208 Y1.3395  
G01 X-0.1210 Y1.3385  
G01 X-0.1210 Y1.1223  
G01 X-0.1210 Y1.1222  
G01 X-0.1210 Y1.1198  
G01 X-0.1210 Y1.1175  
G01 X-0.1210 Y1.1173  
G01 X-0.1210 Y1.1172  
G01 X-0.1217 Y1.1149  
G01 X-0.1223 Y1.1127  
G01 X-0.1224 Y1.1125  
G01 X-0.1224 Y1.1124  
G01 X-0.1236 Y1.1104  
G01 X-0.1248 Y1.1083  
G01 X-0.1249 Y1.1082  
G01 X-0.1536 Y1.0604  
G01 X-0.1548 Y1.0583  
G01 X-0.1549 Y1.0582  
G01 X-0.1550 Y1.0581  
G01 X-0.1567 Y1.0565  
G01 X-0.1583 Y1.0548  
G01 X-0.1585 Y1.0547  
G01 X-0.1586 Y1.0546  
G01 X-0.1606 Y1.0535  
G01 X-0.1627 Y1.0523  
G01 X-0.1628 Y1.0523  
G01 X-0.1630 Y1.0522  
G01 X-0.1652 Y1.0516  
G01 X-0.1675 Y1.0510  
G01 X-0.1677 Y1.0510  
G01 X-0.1678 Y1.0510  
G01 X-0.1702 Y1.0510  
G01 X-0.1782 Y1.0510  
G01 X-0.2022 Y1.0270  
G01 X-0.2378 Y1.0270  
G01 X-0.2588 Y1.0480  
G01 X-0.2812 Y1.0480  
G01 X-0.3022 Y1.0270  
G01 X-0.3378 Y1.0270  
G01 X-0.3630 Y1.0522  
G01 X-0.3630 Y1.0690  
G01 X-0.5705 Y1.0690  
G01 X-0.5753 Y1.0703  
G01 X-0.5797 Y1.0728  
G01 X-0.6174 Y1.1106  
G01 X-0.6722 Y1.1075  
G01 X-0.6867 Y1.0930  
G01 X-0.6905 Y1.0930  
G01 X-0.7122 Y1.0264  
G01 X-0.7122 Y1.0262  
G01 X-0.7130 Y1.0240  
G01 X-0.7137 Y1.0217  
G01 X-0.7138 Y1.0216  
G01 X-0.7380 Y0.9508  
G01 X-0.7380 Y0.9252  
G01 X-0.7380 Y0.8783  
G01 X-0.7379 Y0.8760  
G01 X-0.7380 Y0.8758  
G01 X-0.7380 Y0.8668  
G01 X-0.7392 Y0.8607  
G01 X-0.7416 Y0.8548  
G01 X-0.7451 Y0.8496  
G01 X-0.7496 Y0.8451  
G01 X-0.7548 Y0.8416  
G01 X-0.7607 Y0.8392  
G01 X-0.7668 Y0.8380  
G01 X-0.7732 Y0.8380  
G01 X-0.7793 Y0.8392  
G01 X-0.7852 Y0.8416  
G01 X-0.7904 Y0.8451  
G00 Z0.0500  
G00 X-0.7627 Y1.2626  
G01 Z-0.0030 F10    
G01 X-0.7677 Y1.2676  F20    
G01 X-0.7716 Y1.2734  
G01 X-0.7743 Y1.2799  
G01 X-0.7757 Y1.2868  
G01 X-0.7757 Y1.3532  
G01 X-0.7743 Y1.3601  
G01 X-0.7716 Y1.3666  
G01 X-0.7677 Y1.3724  
G01 X-0.7627 Y1.3774  
G01 X-0.7569 Y1.3813  
G01 X-0.7504 Y1.3840  
G01 X-0.7435 Y1.3854  
G01 X-0.7365 Y1.3854  
G01 X-0.7296 Y1.3840  
G01 X-0.7231 Y1.3813  
G01 X-0.7173 Y1.3774  
G01 X-0.7123 Y1.3724  
G01 X-0.7084 Y1.3666  
G01 X-0.7057 Y1.3601  
G01 X-0.7043 Y1.3532  
G01 X-0.7043 Y1.3380  
G01 X-0.6573 Y1.3380  
G01 X-0.6433 Y1.3520  
G01 X-0.6167 Y1.3520  
G01 X-0.5980 Y1.3333  
G01 X-0.5980 Y1.3067  
G01 X-0.6167 Y1.2880  
G01 X-0.6433 Y1.2880  
G01 X-0.6573 Y1.3020  
G01 X-0.7043 Y1.3020  
G01 X-0.7043 Y1.2868  
G01 X-0.7057 Y1.2799  
G01 X-0.7084 Y1.2734  
G01 X-0.7123 Y1.2676  
G01 X-0.7173 Y1.2626  
G01 X-0.7231 Y1.2587  
G01 X-0.7296 Y1.2560  
G01 X-0.7365 Y1.2546  
G01 X-0.7435 Y1.2546  
G01 X-0.7504 Y1.2560  
G01 X-0.7569 Y1.2587  
G01 X-0.7627 Y1.2626  
G00 Z0.0500  
G00 X-0.9040 Y1.2568  
G01 Z-0.0030 F10    
G01 X-0.9368 Y1.2240  F20    
G01 X-0.9832 Y1.2240  
G01 X-1.0102 Y1.2510  
G01 X-1.0737 Y1.2510  
G01 X-1.0867 Y1.2380  
G01 X-1.1133 Y1.2380  
G01 X-1.1263 Y1.2510  
G01 X-1.1880 Y1.2510  
G01 X-1.1880 Y1.2408  
G01 X-1.1892 Y1.2347  
G01 X-1.1916 Y1.2288  
G01 X-1.1951 Y1.2236  
G01 X-1.1996 Y1.2191  
G01 X-1.2048 Y1.2156  
G01 X-1.2107 Y1.2132  
G01 X-1.2168 Y1.2120  
G01 X-1.2232 Y1.2120  
G01 X-1.2293 Y1.2132  
G01 X-1.2352 Y1.2156  
G01 X-1.2404 Y1.2191  
G01 X-1.2449 Y1.2236  
G01 X-1.2484 Y1.2288  
G01 X-1.2508 Y1.2347  
G01 X-1.2520 Y1.2408  
G01 X-1.2520 Y1.2992  
G01 X-1.2508 Y1.3053  
G01 X-1.2484 Y1.3112  
G01 X-1.2449 Y1.3164  
G01 X-1.2404 Y1.3209  
G01 X-1.2352 Y1.3244  
G01 X-1.2293 Y1.3268  
G01 X-1.2232 Y1.3280  
G01 X-1.2168 Y1.3280  
G01 X-1.2107 Y1.3268  
G01 X-1.2048 Y1.3244  
G01 X-1.1996 Y1.3209  
G01 X-1.1951 Y1.3164  
G01 X-1.1916 Y1.3112  
G01 X-1.1892 Y1.3053  
G01 X-1.1880 Y1.2992  
G01 X-1.1880 Y1.2890  
G01 X-1.1263 Y1.2890  
G01 X-1.1133 Y1.3020  
G01 X-1.0867 Y1.3020  
G01 X-1.0737 Y1.2890  
G01 X-1.0160 Y1.2890  
G01 X-1.0160 Y1.3032  
G01 X-0.9832 Y1.3360  
G01 X-0.9368 Y1.3360  
G01 X-0.9040 Y1.3032  
G01 X-0.9040 Y1.2568  
G00 Z0.0500  
G00 X-0.9783 Y1.3548  
G01 Z-0.0030 F10    
G01 X-0.9805 Y1.3536  F20    
G01 X-0.9826 Y1.3523  
G01 X-0.9850 Y1.3517  
G01 X-0.9874 Y1.3510  
G01 X-0.9900 Y1.3510  
G01 X-0.9924 Y1.3510  
G01 X-1.4621 Y1.3510  
G01 X-1.4959 Y1.3172  
G01 X-1.4951 Y1.3164  
G01 X-1.4916 Y1.3112  
G01 X-1.4892 Y1.3053  
G01 X-1.4880 Y1.2992  
G01 X-1.4880 Y1.2408  
G01 X-1.4892 Y1.2347  
G01 X-1.4916 Y1.2288  
G01 X-1.4951 Y1.2236  
G01 X-1.4996 Y1.2191  
G01 X-1.5048 Y1.2156  
G01 X-1.5107 Y1.2132  
G01 X-1.5168 Y1.2120  
G01 X-1.5232 Y1.2120  
G01 X-1.5293 Y1.2132  
G01 X-1.5352 Y1.2156  
G01 X-1.5404 Y1.2191  
G01 X-1.5449 Y1.2236  
G01 X-1.5484 Y1.2288  
G01 X-1.5508 Y1.2347  
G01 X-1.5520 Y1.2408  
G01 X-1.5520 Y1.2992  
G01 X-1.5508 Y1.3053  
G01 X-1.5484 Y1.3112  
G01 X-1.5449 Y1.3164  
G01 X-1.5404 Y1.3209  
G01 X-1.5390 Y1.3218  
G01 X-1.5390 Y1.3225  
G01 X-1.5377 Y1.3273  
G01 X-1.5352 Y1.3317  
G01 X-1.5317 Y1.3352  
G01 X-1.4817 Y1.3852  
G01 X-1.4773 Y1.3877  
G01 X-1.4725 Y1.3890  
G01 X-0.9951 Y1.3890  
G01 X-0.8815 Y1.4553  
G01 X-0.8813 Y1.4555  
G01 X-0.8793 Y1.4566  
G01 X-0.8774 Y1.4577  
G01 X-0.8771 Y1.4578  
G01 X-0.8769 Y1.4579  
G01 X-0.8747 Y1.4584  
G01 X-0.8726 Y1.4590  
G01 X-0.8723 Y1.4590  
G01 X-0.8720 Y1.4591  
G01 X-0.8698 Y1.4590  
G01 X-0.8676 Y1.4590  
G01 X-0.8673 Y1.4589  
G01 X-0.4900 Y1.4490  
G01 X-0.4881 Y1.4491  
G01 X-0.4875 Y1.4489  
G01 X-0.4870 Y1.4489  
G01 X-0.4851 Y1.4484  
G01 X-0.4832 Y1.4479  
G01 X-0.4827 Y1.4477  
G01 X-0.4822 Y1.4475  
G01 X-0.4805 Y1.4465  
G01 X-0.4788 Y1.4456  
G01 X-0.4784 Y1.4452  
G01 X-0.4779 Y1.4449  
G01 X-0.4766 Y1.4435  
G01 X-0.3379 Y1.3129  
G01 X-0.3022 Y1.3130  
G01 X-0.2852 Y1.2960  
G01 X-0.2548 Y1.2960  
G01 X-0.2378 Y1.3130  
G01 X-0.2022 Y1.3130  
G01 X-0.1770 Y1.2878  
G01 X-0.1770 Y1.2522  
G01 X-0.2022 Y1.2270  
G01 X-0.2378 Y1.2270  
G01 X-0.2630 Y1.2522  
G01 X-0.2630 Y1.2580  
G01 X-0.2770 Y1.2580  
G01 X-0.2770 Y1.2522  
G01 X-0.3022 Y1.2270  
G01 X-0.3378 Y1.2270  
G01 X-0.3630 Y1.2522  
G01 X-0.3630 Y1.2844  
G01 X-0.4977 Y1.4112  
G01 X-0.8651 Y1.4209  
G01 X-0.9783 Y1.3548  
G00 Z0.0500  
G00 X-0.9869 Y1.5060  
G01 Z-0.0030 F10    
G01 X-0.9871 Y1.5058  F20    
G01 X-0.9874 Y1.5056  
G01 X-0.9892 Y1.5044  
G01 X-0.9909 Y1.5031  
G01 X-0.9913 Y1.5030  
G01 X-1.0479 Y1.4652  
G01 X-1.0483 Y1.4648  
G01 X-1.0500 Y1.4639  
G01 X-1.0515 Y1.4628  
G01 X-1.0521 Y1.4626  
G01 X-1.0527 Y1.4623  
G01 X-1.0545 Y1.4618  
G01 X-1.0563 Y1.4612  
G01 X-1.0569 Y1.4612  
G01 X-1.0575 Y1.4610  
G01 X-1.0594 Y1.4610  
G01 X-1.0613 Y1.4609  
G01 X-1.0619 Y1.4610  
G01 X-1.1488 Y1.4610  
G01 X-1.2253 Y1.4514  
G01 X-1.2255 Y1.4514  
G01 X-1.2278 Y1.4511  
G01 X-1.2301 Y1.4508  
G01 X-1.2303 Y1.4509  
G01 X-1.2305 Y1.4508  
G01 X-1.2328 Y1.4512  
G01 X-1.2351 Y1.4515  
G01 X-1.2352 Y1.4516  
G01 X-1.2354 Y1.4516  
G01 X-1.2375 Y1.4526  
G01 X-1.2397 Y1.4535  
G01 X-1.2398 Y1.4536  
G01 X-1.3264 Y1.4920  
G01 X-1.3273 Y1.4923  
G01 X-1.3286 Y1.4930  
G01 X-1.3300 Y1.4937  
G01 X-1.3308 Y1.4943  
G01 X-1.3317 Y1.4948  
G01 X-1.3327 Y1.4959  
G01 X-1.3339 Y1.4968  
G01 X-1.3345 Y1.4976  
G01 X-1.3352 Y1.4983  
G01 X-1.3360 Y1.4996  
G01 X-1.3368 Y1.5008  
G01 X-1.3372 Y1.5018  
G01 X-1.3377 Y1.5027  
G01 X-1.3381 Y1.5041  
G01 X-1.3386 Y1.5055  
G01 X-1.3387 Y1.5065  
G01 X-1.3390 Y1.5075  
G01 X-1.3390 Y1.5090  
G01 X-1.3392 Y1.5105  
G01 X-1.3390 Y1.5115  
G01 X-1.3390 Y1.5182  
G01 X-1.3404 Y1.5191  
G01 X-1.3449 Y1.5236  
G01 X-1.3484 Y1.5288  
G01 X-1.3508 Y1.5347  
G01 X-1.3520 Y1.5408  
G01 X-1.3520 Y1.5992  
G01 X-1.3508 Y1.6053  
G01 X-1.3484 Y1.6112  
G01 X-1.3449 Y1.6164  
G01 X-1.3404 Y1.6209  
G01 X-1.3352 Y1.6244  
G01 X-1.3293 Y1.6268  
G01 X-1.3232 Y1.6280  
G01 X-1.3168 Y1.6280  
G01 X-1.3107 Y1.6268  
G01 X-1.3048 Y1.6244  
G01 X-1.2996 Y1.6209  
G01 X-1.2951 Y1.6164  
G01 X-1.2916 Y1.6112  
G01 X-1.2892 Y1.6053  
G01 X-1.2880 Y1.5992  
G01 X-1.2880 Y1.5408  
G01 X-1.2892 Y1.5347  
G01 X-1.2916 Y1.5288  
G01 X-1.2951 Y1.5236  
G01 X-1.2978 Y1.5209  
G01 X-1.2271 Y1.4895  
G01 X-1.1537 Y1.4987  
G01 X-1.1525 Y1.4990  
G01 X-1.1512 Y1.4990  
G01 X-1.1499 Y1.4992  
G01 X-1.1487 Y1.4990  
G01 X-1.0658 Y1.4990  
G01 X-1.0151 Y1.5328  
G01 X-0.9280 Y1.7264  
G01 X-0.9277 Y1.7273  
G01 X-0.9269 Y1.7287  
G01 X-0.9263 Y1.7301  
G01 X-0.9257 Y1.7308  
G01 X-0.9252 Y1.7317  
G01 X-0.9241 Y1.7328  
G01 X-0.9231 Y1.7340  
G01 X-0.9224 Y1.7345  
G01 X-0.9217 Y1.7352  
G01 X-0.9203 Y1.7360  
G01 X-0.9191 Y1.7369  
G01 X-0.9182 Y1.7372  
G01 X-0.9173 Y1.7377  
G01 X-0.9158 Y1.7381  
G01 X-0.9144 Y1.7387  
G01 X-0.9134 Y1.7387  
G01 X-0.9125 Y1.7390  
G01 X-0.9110 Y1.7390  
G01 X-0.9094 Y1.7392  
G01 X-0.9085 Y1.7390  
G01 X-0.8699 Y1.7390  
G01 X-0.8674 Y1.7427  
G01 X-0.8624 Y1.7477  
G01 X-0.8566 Y1.7516  
G01 X-0.8501 Y1.7543  
G01 X-0.8432 Y1.7557  
G01 X-0.7768 Y1.7557  
G01 X-0.7699 Y1.7543  
G01 X-0.7634 Y1.7516  
G01 X-0.7576 Y1.7477  
G01 X-0.7526 Y1.7427  
G01 X-0.7487 Y1.7369  
G01 X-0.7460 Y1.7304  
G01 X-0.7446 Y1.7235  
G01 X-0.7446 Y1.7165  
G01 X-0.7460 Y1.7096  
G01 X-0.7487 Y1.7031  
G01 X-0.7526 Y1.6973  
G01 X-0.7576 Y1.6923  
G01 X-0.7634 Y1.6884  
G01 X-0.7699 Y1.6857  
G01 X-0.7768 Y1.6843  
G01 X-0.8432 Y1.6843  
G01 X-0.8501 Y1.6857  
G01 X-0.8566 Y1.6884  
G01 X-0.8624 Y1.6923  
G01 X-0.8674 Y1.6973  
G01 X-0.8699 Y1.7010  
G01 X-0.8977 Y1.7010  
G01 X-0.9818 Y1.5142  
G01 X-0.9819 Y1.5138  
G01 X-0.9828 Y1.5119  
G01 X-0.9837 Y1.5099  
G01 X-0.9839 Y1.5097  
G01 X-0.9841 Y1.5093  
G01 X-0.9855 Y1.5077  
G01 X-0.9869 Y1.5060  
G00 Z0.0500  
G00 X-1.0281 Y1.5650  
G01 Z-0.0030 F10    
G01 X-1.0282 Y1.5649  F20    
G01 X-1.0283 Y1.5648  
G01 X-1.0304 Y1.5636  
G01 X-1.0324 Y1.5624  
G01 X-1.0325 Y1.5624  
G01 X-1.0327 Y1.5623  
G01 X-1.0349 Y1.5617  
G01 X-1.0372 Y1.5610  
G01 X-1.0373 Y1.5610  
G01 X-1.0375 Y1.5610  
G01 X-1.0398 Y1.5610  
G01 X-1.0422 Y1.5610  
G01 X-1.0423 Y1.5610  
G01 X-1.1191 Y1.5610  
G01 X-1.1880 Y1.5541  
G01 X-1.1880 Y1.5408  
G01 X-1.1892 Y1.5347  
G01 X-1.1916 Y1.5288  
G01 X-1.1951 Y1.5236  
G01 X-1.1996 Y1.5191  
G01 X-1.2048 Y1.5156  
G01 X-1.2107 Y1.5132  
G01 X-1.2168 Y1.5120  
G01 X-1.2232 Y1.5120  
G01 X-1.2293 Y1.5132  
G01 X-1.2352 Y1.5156  
G01 X-1.2404 Y1.5191  
G01 X-1.2449 Y1.5236  
G01 X-1.2484 Y1.5288  
G01 X-1.2508 Y1.5347  
G01 X-1.2520 Y1.5408  
G01 X-1.2520 Y1.5992  
G01 X-1.2508 Y1.6053  
G01 X-1.2484 Y1.6112  
G01 X-1.2449 Y1.6164  
G01 X-1.2404 Y1.6209  
G01 X-1.2352 Y1.6244  
G01 X-1.2293 Y1.6268  
G01 X-1.2232 Y1.6280  
G01 X-1.2168 Y1.6280  
G01 X-1.2107 Y1.6268  
G01 X-1.2048 Y1.6244  
G01 X-1.1996 Y1.6209  
G01 X-1.1951 Y1.6164  
G01 X-1.1916 Y1.6112  
G01 X-1.1892 Y1.6053  
G01 X-1.1880 Y1.5992  
G01 X-1.1880 Y1.5923  
G01 X-1.1234 Y1.5988  
G01 X-1.1225 Y1.5990  
G01 X-1.1209 Y1.5990  
G01 X-1.1194 Y1.5992  
G01 X-1.1185 Y1.5990  
G01 X-1.0548 Y1.5990  
G01 X-1.0287 Y1.7035  
G01 X-1.0420 Y1.7167  
G01 X-1.0420 Y1.7433  
G01 X-1.0233 Y1.7620  
G01 X-0.9967 Y1.7620  
G01 X-0.9780 Y1.7433  
G01 X-0.9780 Y1.7167  
G01 X-0.9912 Y1.7035  
G01 X-0.9910 Y1.7028  
G01 X-0.9910 Y1.6978  
G01 X-1.0210 Y1.5777  
G01 X-1.0210 Y1.5775  
G01 X-1.0216 Y1.5752  
G01 X-1.0222 Y1.5730  
G01 X-1.0223 Y1.5728  
G01 X-1.0223 Y1.5727  
G01 X-1.0235 Y1.5706  
G01 X-1.0246 Y1.5686  
G01 X-1.0247 Y1.5685  
G01 X-1.0248 Y1.5683  
G01 X-1.0265 Y1.5667  
G01 X-1.0281 Y1.5650  
G00 Z0.0500  
G00 X-0.8624 Y1.5923  
G01 Z-0.0030 F10    
G01 X-0.8674 Y1.5973  F20    
G01 X-0.8713 Y1.6031  
G01 X-0.8740 Y1.6096  
G01 X-0.8754 Y1.6165  
G01 X-0.8754 Y1.6235  
G01 X-0.8740 Y1.6304  
G01 X-0.8713 Y1.6369  
G01 X-0.8674 Y1.6427  
G01 X-0.8624 Y1.6477  
G01 X-0.8566 Y1.6516  
G01 X-0.8501 Y1.6543  
G01 X-0.8432 Y1.6557  
G01 X-0.7768 Y1.6557  
G01 X-0.7699 Y1.6543  
G01 X-0.7634 Y1.6516  
G01 X-0.7576 Y1.6477  
G01 X-0.7527 Y1.6428  
G01 X-0.7002 Y1.6472  
G01 X-0.6611 Y1.7058  
G01 X-0.6620 Y1.7067  
G01 X-0.6620 Y1.7333  
G01 X-0.6522 Y1.7430  
G01 X-0.6880 Y2.0111  
G01 X-0.7279 Y2.0510  
G01 X-0.7543 Y2.0510  
G01 X-0.7543 Y2.0468  
G01 X-0.7557 Y2.0399  
G01 X-0.7584 Y2.0334  
G01 X-0.7623 Y2.0276  
G01 X-0.7673 Y2.0226  
G01 X-0.7731 Y2.0187  
G01 X-0.7796 Y2.0160  
G01 X-0.7865 Y2.0146  
G01 X-0.7935 Y2.0146  
G01 X-0.8004 Y2.0160  
G01 X-0.8069 Y2.0187  
G01 X-0.8127 Y2.0226  
G01 X-0.8177 Y2.0276  
G01 X-0.8216 Y2.0334  
G01 X-0.8243 Y2.0399  
G01 X-0.8257 Y2.0468  
G01 X-0.8257 Y2.1132  
G01 X-0.8243 Y2.1201  
G01 X-0.8216 Y2.1266  
G01 X-0.8177 Y2.1324  
G01 X-0.8127 Y2.1374  
G01 X-0.8069 Y2.1413  
G01 X-0.8004 Y2.1440  
G01 X-0.7935 Y2.1454  
G01 X-0.7865 Y2.1454  
G01 X-0.7796 Y2.1440  
G01 X-0.7731 Y2.1413  
G01 X-0.7673 Y2.1374  
G01 X-0.7634 Y2.1335  
G01 X-0.7617 Y2.1352  
G01 X-0.7573 Y2.1377  
G01 X-0.7525 Y2.1390  
G01 X-0.6697 Y2.1390  
G01 X-0.6697 Y2.1449  
G01 X-0.6688 Y2.1471  
G01 X-0.6671 Y2.1488  
G01 X-0.6649 Y2.1497  
G01 X-0.6151 Y2.1497  
G01 X-0.6129 Y2.1488  
G01 X-0.6112 Y2.1471  
G01 X-0.6103 Y2.1449  
G01 X-0.6103 Y2.0951  
G01 X-0.6112 Y2.0929  
G01 X-0.6129 Y2.0912  
G01 X-0.6151 Y2.0903  
G01 X-0.6649 Y2.0903  
G01 X-0.6671 Y2.0912  
G01 X-0.6688 Y2.0929  
G01 X-0.6697 Y2.0951  
G01 X-0.6697 Y2.1010  
G01 X-0.7421 Y2.1010  
G01 X-0.7541 Y2.0890  
G01 X-0.7175 Y2.0890  
G01 X-0.7127 Y2.0877  
G01 X-0.7083 Y2.0852  
G01 X-0.7048 Y2.0817  
G01 X-0.6575 Y2.0343  
G01 X-0.6565 Y2.0336  
G01 X-0.6557 Y2.0326  
G01 X-0.6548 Y2.0317  
G01 X-0.6542 Y2.0306  
G01 X-0.6534 Y2.0296  
G01 X-0.6529 Y2.0284  
G01 X-0.6523 Y2.0273  
G01 X-0.6520 Y2.0261  
G01 X-0.6515 Y2.0250  
G01 X-0.6513 Y2.0237  
G01 X-0.6510 Y2.0225  
G01 X-0.6510 Y2.0213  
G01 X-0.6148 Y1.7501  
G01 X-0.5980 Y1.7333  
G01 X-0.5980 Y1.7067  
G01 X-0.6167 Y1.6880  
G01 X-0.6297 Y1.6880  
G01 X-0.6743 Y1.6211  
G01 X-0.6747 Y1.6202  
G01 X-0.6756 Y1.6192  
G01 X-0.6763 Y1.6180  
G01 X-0.6771 Y1.6174  
G01 X-0.6778 Y1.6166  
G01 X-0.6789 Y1.6158  
G01 X-0.6799 Y1.6149  
G01 X-0.6808 Y1.6145  
G01 X-0.6817 Y1.6139  
G01 X-0.6829 Y1.6134  
G01 X-0.6841 Y1.6128  
G01 X-0.6852 Y1.6126  
G01 X-0.6861 Y1.6123  
G01 X-0.6875 Y1.6121  
G01 X-0.6888 Y1.6119  
G01 X-0.6898 Y1.6120  
G01 X-0.7470 Y1.6072  
G01 X-0.7487 Y1.6031  
G01 X-0.7526 Y1.5973  
G01 X-0.7576 Y1.5923  
G01 X-0.7634 Y1.5884  
G01 X-0.7699 Y1.5857  
G01 X-0.7768 Y1.5843  
G01 X-0.8432 Y1.5843  
G01 X-0.8501 Y1.5857  
G01 X-0.8566 Y1.5884  
G01 X-0.8624 Y1.5923  
G00 Z0.0500  
G00 X-0.8673 Y2.0226  
G01 Z-0.0030 F10    
G01 X-0.8731 Y2.0187  F20    
G01 X-0.8796 Y2.0160  
G01 X-0.8865 Y2.0146  
G01 X-0.8935 Y2.0146  
G01 X-0.9004 Y2.0160  
G01 X-0.9069 Y2.0187  
G01 X-0.9127 Y2.0226  
G01 X-0.9177 Y2.0276  
G01 X-0.9216 Y2.0334  
G01 X-0.9243 Y2.0399  
G01 X-0.9257 Y2.0468  
G01 X-0.9257 Y2.0746  
G01 X-0.9673 Y2.0924  
G01 X-0.9923 Y2.1025  
G01 X-0.9967 Y2.0980  
G01 X-1.0233 Y2.0980  
G01 X-1.0420 Y2.1167  
G01 X-1.0420 Y2.1433  
G01 X-1.0233 Y2.1620  
G01 X-0.9967 Y2.1620  
G01 X-0.9780 Y2.1433  
G01 X-0.9780 Y2.1377  
G01 X-0.9550 Y2.1285  
G01 X-0.9548 Y2.1284  
G01 X-0.9527 Y2.1276  
G01 X-0.9506 Y2.1267  
G01 X-0.9504 Y2.1266  
G01 X-0.9252 Y2.1157  
G01 X-0.9243 Y2.1201  
G01 X-0.9216 Y2.1266  
G01 X-0.9177 Y2.1324  
G01 X-0.9127 Y2.1374  
G01 X-0.9069 Y2.1413  
G01 X-0.9004 Y2.1440  
G01 X-0.8935 Y2.1454  
G01 X-0.8865 Y2.1454  
G01 X-0.8796 Y2.1440  
G01 X-0.8731 Y2.1413  
G01 X-0.8673 Y2.1374  
G01 X-0.8623 Y2.1324  
G01 X-0.8584 Y2.1266  
G01 X-0.8557 Y2.1201  
G01 X-0.8543 Y2.1132  
G01 X-0.8543 Y2.0468  
G01 X-0.8557 Y2.0399  
G01 X-0.8584 Y2.0334  
G01 X-0.8623 Y2.0276  
G01 X-0.8673 Y2.0226  
G00 Z0.0500  
G00 X-0.8691 Y2.3396  
G01 Z-0.0030 F10    
G01 X-0.8736 Y2.3351  F20    
G01 X-0.8788 Y2.3316  
G01 X-0.8847 Y2.3292  
G01 X-0.8908 Y2.3280  
G01 X-0.9492 Y2.3280  
G01 X-0.9553 Y2.3292  
G01 X-0.9612 Y2.3316  
G01 X-0.9664 Y2.3351  
G01 X-0.9709 Y2.3396  
G01 X-0.9744 Y2.3448  
G01 X-0.9768 Y2.3507  
G01 X-0.9780 Y2.3568  
G01 X-0.9780 Y2.3632  
G01 X-0.9768 Y2.3693  
G01 X-0.9744 Y2.3752  
G01 X-0.9709 Y2.3804  
G01 X-0.9664 Y2.3849  
G01 X-0.9612 Y2.3884  
G01 X-0.9553 Y2.3908  
G01 X-0.9492 Y2.3920  
G01 X-0.8908 Y2.3920  
G01 X-0.8847 Y2.3908  
G01 X-0.8788 Y2.3884  
G01 X-0.8736 Y2.3849  
G01 X-0.8691 Y2.3804  
G01 X-0.8656 Y2.3752  
G01 X-0.8632 Y2.3693  
G01 X-0.8620 Y2.3632  
G01 X-0.8620 Y2.3568  
G01 X-0.8632 Y2.3507  
G01 X-0.8656 Y2.3448  
G01 X-0.8691 Y2.3396  
G00 Z0.0500  
G00 X-0.9691 Y2.4396  
G01 Z-0.0030 F10    
G01 X-0.9736 Y2.4351  F20    
G01 X-0.9788 Y2.4316  
G01 X-0.9847 Y2.4292  
G01 X-0.9908 Y2.4280  
G01 X-1.0492 Y2.4280  
G01 X-1.0553 Y2.4292  
G01 X-1.0612 Y2.4316  
G01 X-1.0664 Y2.4351  
G01 X-1.0709 Y2.4396  
G01 X-1.0723 Y2.4417  
G01 X-1.2351 Y2.4440  
G01 X-1.2401 Y2.4440  
G01 X-1.2407 Y2.4439  
G01 X-1.2426 Y2.4440  
G01 X-1.2445 Y2.4440  
G01 X-1.2451 Y2.4442  
G01 X-1.2457 Y2.4442  
G01 X-1.2475 Y2.4448  
G01 X-1.2493 Y2.4453  
G01 X-1.2499 Y2.4456  
G01 X-1.2505 Y2.4458  
G01 X-1.2520 Y2.4469  
G01 X-1.2537 Y2.4478  
G01 X-1.2541 Y2.4482  
G01 X-1.3965 Y2.5432  
G01 X-1.3967 Y2.5430  
G01 X-1.4233 Y2.5430  
G01 X-1.4386 Y2.5583  
G01 X-1.5140 Y2.5399  
G01 X-1.5821 Y2.5107  
G01 X-1.5825 Y2.5086  
G01 X-1.5854 Y2.5015  
G01 X-1.5897 Y2.4951  
G01 X-1.5951 Y2.4897  
G01 X-1.6015 Y2.4854  
G01 X-1.6086 Y2.4825  
G01 X-1.6162 Y2.4810  
G01 X-1.6238 Y2.4810  
G01 X-1.6314 Y2.4825  
G01 X-1.6385 Y2.4854  
G01 X-1.6449 Y2.4897  
G01 X-1.6503 Y2.4951  
G01 X-1.6546 Y2.5015  
G01 X-1.6575 Y2.5086  
G01 X-1.6590 Y2.5162  
G01 X-1.6590 Y2.5238  
G01 X-1.6575 Y2.5314  
G01 X-1.6546 Y2.5385  
G01 X-1.6503 Y2.5449  
G01 X-1.6449 Y2.5503  
G01 X-1.6385 Y2.5546  
G01 X-1.6314 Y2.5575  
G01 X-1.6238 Y2.5590  
G01 X-1.6162 Y2.5590  
G01 X-1.6086 Y2.5575  
G01 X-1.6015 Y2.5546  
G01 X-1.5951 Y2.5503  
G01 X-1.5925 Y2.5476  
G01 X-1.5283 Y2.5751  
G01 X-1.5269 Y2.5759  
G01 X-1.5260 Y2.5761  
G01 X-1.5252 Y2.5764  
G01 X-1.5236 Y2.5767  
G01 X-1.4441 Y2.5961  
G01 X-1.4434 Y2.5964  
G01 X-1.4417 Y2.5966  
G01 X-1.4401 Y2.5971  
G01 X-1.4393 Y2.5970  
G01 X-1.4385 Y2.5972  
G01 X-1.4368 Y2.5970  
G01 X-1.4351 Y2.5969  
G01 X-1.4343 Y2.5967  
G01 X-1.4336 Y2.5966  
G01 X-1.4233 Y2.6070  
G01 X-1.3967 Y2.6070  
G01 X-1.3780 Y2.5883  
G01 X-1.3780 Y2.5765  
G01 X-1.2363 Y2.4820  
G01 X-1.2349 Y2.4820  
G01 X-1.2325 Y2.4820  
G01 X-1.2324 Y2.4820  
G01 X-1.0713 Y2.4797  
G01 X-1.0709 Y2.4804  
G01 X-1.0664 Y2.4849  
G01 X-1.0612 Y2.4884  
G01 X-1.0553 Y2.4908  
G01 X-1.0492 Y2.4920  
G01 X-0.9908 Y2.4920  
G01 X-0.9847 Y2.4908  
G01 X-0.9788 Y2.4884  
G01 X-0.9736 Y2.4849  
G01 X-0.9691 Y2.4804  
G01 X-0.9656 Y2.4752  
G01 X-0.9632 Y2.4693  
G01 X-0.9620 Y2.4632  
G01 X-0.9620 Y2.4568  
G01 X-0.9632 Y2.4507  
G01 X-0.9656 Y2.4448  
G01 X-0.9691 Y2.4396  
G00 Z0.0500  
G00 X-0.9967 Y2.5430  
G01 Z-0.0030 F10    
G01 X-1.0233 Y2.5430  F20    
G01 X-1.0420 Y2.5617  
G01 X-1.0420 Y2.5641  
G01 X-1.2704 Y2.6269  
G01 X-1.5110 Y2.6220  
G01 X-1.5810 Y2.6087  
G01 X-1.5810 Y2.5858  
G01 X-1.5819 Y2.5836  
G01 X-1.5836 Y2.5819  
G01 X-1.5858 Y2.5810  
G01 X-1.6542 Y2.5810  
G01 X-1.6564 Y2.5819  
G01 X-1.6581 Y2.5836  
G01 X-1.6590 Y2.5858  
G01 X-1.6590 Y2.6542  
G01 X-1.6581 Y2.6564  
G01 X-1.6564 Y2.6581  
G01 X-1.6542 Y2.6590  
G01 X-1.5858 Y2.6590  
G01 X-1.5836 Y2.6581  
G01 X-1.5819 Y2.6564  
G01 X-1.5810 Y2.6542  
G01 X-1.5810 Y2.6474  
G01 X-1.5174 Y2.6595  
G01 X-1.5159 Y2.6599  
G01 X-1.5150 Y2.6600  
G01 X-1.5141 Y2.6601  
G01 X-1.5125 Y2.6600  
G01 X-1.2706 Y2.6650  
G01 X-1.2704 Y2.6650  
G01 X-1.2681 Y2.6650  
G01 X-1.2659 Y2.6650  
G01 X-1.2656 Y2.6650  
G01 X-1.2654 Y2.6650  
G01 X-1.2632 Y2.6644  
G01 X-1.2610 Y2.6639  
G01 X-1.2608 Y2.6637  
G01 X-1.0300 Y2.6002  
G01 X-1.0233 Y2.6070  
G01 X-0.9967 Y2.6070  
G01 X-0.9840 Y2.5942  
G01 X-0.8896 Y2.5950  
G01 X-0.8871 Y2.5950  
G01 X-0.8847 Y2.5950  
G01 X-0.8695 Y2.5950  
G01 X-0.8647 Y2.5937  
G01 X-0.8603 Y2.5912  
G01 X-0.8568 Y2.5877  
G01 X-0.8548 Y2.5857  
G01 X-0.4909 Y2.3371  
G01 X-0.4894 Y2.3362  
G01 X-0.4888 Y2.3357  
G01 X-0.4882 Y2.3353  
G01 X-0.4871 Y2.3339  
G01 X-0.4858 Y2.3327  
G01 X-0.4854 Y2.3320  
G01 X-0.4850 Y2.3315  
G01 X-0.4842 Y2.3299  
G01 X-0.4833 Y2.3284  
G01 X-0.4831 Y2.3276  
G01 X-0.4828 Y2.3270  
G01 X-0.4825 Y2.3252  
G01 X-0.4820 Y2.3235  
G01 X-0.4820 Y2.3228  
G01 X-0.4819 Y2.3221  
G01 X-0.4820 Y2.3203  
G01 X-0.4810 Y1.7463  
G01 X-0.4680 Y1.7333  
G01 X-0.4680 Y1.7067  
G01 X-0.4867 Y1.6880  
G01 X-0.5133 Y1.6880  
G01 X-0.5320 Y1.7067  
G01 X-0.5320 Y1.7333  
G01 X-0.5190 Y1.7462  
G01 X-0.5200 Y2.3110  
G01 X-0.8771 Y2.5549  
G01 X-0.8787 Y2.5558  
G01 X-0.8792 Y2.5563  
G01 X-0.8798 Y2.5567  
G01 X-0.8800 Y2.5570  
G01 X-0.8869 Y2.5570  
G01 X-0.9835 Y2.5562  
G01 X-0.9967 Y2.5430  
G00 Z0.0500  
G00 X-1.1670 Y2.6900  
G01 Z-0.0030 F10    
G01 X-1.6418 Y2.6900  F20    
G01 X-1.8252 Y2.6041  
G01 X-1.8267 Y2.6033  
G01 X-1.8275 Y2.6031  
G01 X-1.8282 Y2.6027  
G01 X-1.8299 Y2.6024  
G01 X-1.8315 Y2.6020  
G01 X-1.8323 Y2.6020  
G01 X-1.8331 Y2.6019  
G01 X-1.8348 Y2.6020  
G01 X-1.8852 Y2.6020  
G01 X-1.8854 Y2.6015  
G01 X-1.8897 Y2.5951  
G01 X-1.8951 Y2.5897  
G01 X-1.9015 Y2.5854  
G01 X-1.9086 Y2.5825  
G01 X-1.9162 Y2.5810  
G01 X-1.9238 Y2.5810  
G01 X-1.9314 Y2.5825  
G01 X-1.9385 Y2.5854  
G01 X-1.9449 Y2.5897  
G01 X-1.9503 Y2.5951  
G01 X-1.9546 Y2.6015  
G01 X-1.9575 Y2.6086  
G01 X-1.9590 Y2.6162  
G01 X-1.9590 Y2.6238  
G01 X-1.9575 Y2.6314  
G01 X-1.9546 Y2.6385  
G01 X-1.9503 Y2.6449  
G01 X-1.9449 Y2.6503  
G01 X-1.9385 Y2.6546  
G01 X-1.9314 Y2.6575  
G01 X-1.9238 Y2.6590  
G01 X-1.9162 Y2.6590  
G01 X-1.9086 Y2.6575  
G01 X-1.9015 Y2.6546  
G01 X-1.8951 Y2.6503  
G01 X-1.8897 Y2.6449  
G01 X-1.8865 Y2.6400  
G01 X-1.8382 Y2.6400  
G01 X-1.6548 Y2.7259  
G01 X-1.6533 Y2.7267  
G01 X-1.6525 Y2.7269  
G01 X-1.6518 Y2.7273  
G01 X-1.6501 Y2.7276  
G01 X-1.6485 Y2.7280  
G01 X-1.6477 Y2.7280  
G01 X-1.6469 Y2.7281  
G01 X-1.6452 Y2.7280  
G01 X-1.1655 Y2.7280  
G01 X-1.1635 Y2.7281  
G01 X-1.1630 Y2.7280  
G01 X-1.1625 Y2.7280  
G01 X-1.1606 Y2.7275  
G01 X-0.3257 Y2.5509  
G01 X-0.3249 Y2.5509  
G01 X-0.3233 Y2.5504  
G01 X-0.3216 Y2.5501  
G01 X-0.3209 Y2.5497  
G01 X-0.3201 Y2.5494  
G01 X-0.3187 Y2.5486  
G01 X-0.3172 Y2.5478  
G01 X-0.3165 Y2.5472  
G01 X-0.3158 Y2.5468  
G01 X-0.3147 Y2.5456  
G01 X-0.3134 Y2.5445  
G01 X-0.3130 Y2.5438  
G01 X-0.2272 Y2.4520  
G01 X-0.2167 Y2.4520  
G01 X-0.1980 Y2.4333  
G01 X-0.1980 Y2.4067  
G01 X-0.2130 Y2.3917  
G01 X-0.2130 Y2.2653  
G01 X-0.2128 Y2.2641  
G01 X-0.2130 Y2.2628  
G01 X-0.2130 Y2.2615  
G01 X-0.2133 Y2.2603  
G01 X-0.2135 Y2.2592  
G01 X-0.2135 Y2.2589  
G01 X-0.2125 Y2.2537  
G01 X-0.2125 Y2.2463  
G01 X-0.2139 Y2.2391  
G01 X-0.2168 Y2.2322  
G01 X-0.2209 Y2.2261  
G01 X-0.2261 Y2.2209  
G01 X-0.2322 Y2.2168  
G01 X-0.2340 Y2.2160  
G01 X-0.2340 Y2.1120  
G01 X-0.2297 Y2.1113  
G01 X-0.2231 Y2.1092  
G01 X-0.2169 Y2.1061  
G01 X-0.2113 Y2.1020  
G01 X-0.2064 Y2.0971  
G01 X-0.2024 Y2.0915  
G01 X-0.1992 Y2.0853  
G01 X-0.1971 Y2.0787  
G01 X-0.1960 Y2.0719  
G01 X-0.1960 Y2.0650  
G01 X-0.1971 Y2.0581  
G01 X-0.1992 Y2.0515  
G01 X-0.2024 Y2.0454  
G01 X-0.2064 Y2.0398  
G01 X-0.2113 Y2.0349  
G01 X-0.2169 Y2.0308  
G01 X-0.2231 Y2.0276  
G01 X-0.2297 Y2.0255  
G01 X-0.2365 Y2.0244  
G01 X-0.2435 Y2.0244  
G01 X-0.2503 Y2.0255  
G01 X-0.2569 Y2.0276  
G01 X-0.2631 Y2.0308  
G01 X-0.2687 Y2.0349  
G01 X-0.2736 Y2.0398  
G01 X-0.2776 Y2.0454  
G01 X-0.2808 Y2.0515  
G01 X-0.2829 Y2.0581  
G01 X-0.2840 Y2.0650  
G01 X-0.2840 Y2.0719  
G01 X-0.2829 Y2.0787  
G01 X-0.2808 Y2.0853  
G01 X-0.2776 Y2.0915  
G01 X-0.2736 Y2.0971  
G01 X-0.2720 Y2.0987  
G01 X-0.2720 Y2.2196  
G01 X-0.2739 Y2.2209  
G01 X-0.2791 Y2.2261  
G01 X-0.2832 Y2.2322  
G01 X-0.2861 Y2.2391  
G01 X-0.2875 Y2.2463  
G01 X-0.2875 Y2.2537  
G01 X-0.2861 Y2.2609  
G01 X-0.2832 Y2.2678  
G01 X-0.2791 Y2.2739  
G01 X-0.2739 Y2.2791  
G01 X-0.2678 Y2.2832  
G01 X-0.2609 Y2.2861  
G01 X-0.2537 Y2.2875  
G01 X-0.2510 Y2.2875  
G01 X-0.2510 Y2.3957  
G01 X-0.2620 Y2.4067  
G01 X-0.2620 Y2.4333  
G01 X-0.2619 Y2.4334  
G01 X-0.3378 Y2.5147  
G01 X-1.1670 Y2.6900  
G00 Z0.0500  
G00 X-1.1520 Y2.2383  
G01 Z-0.0030 F10    
G01 X-1.1333 Y2.2570  F20    
G01 X-1.1067 Y2.2570  
G01 X-1.0880 Y2.2383  
G01 X-1.0880 Y2.2117  
G01 X-1.1067 Y2.1930  
G01 X-1.1239 Y2.1930  
G01 X-1.2347 Y2.0744  
G01 X-1.2345 Y2.0735  
G01 X-1.2345 Y2.0665  
G01 X-1.2359 Y2.0596  
G01 X-1.2385 Y2.0532  
G01 X-1.2424 Y2.0474  
G01 X-1.2474 Y2.0424  
G01 X-1.2532 Y2.0385  
G01 X-1.2596 Y2.0359  
G01 X-1.2665 Y2.0345  
G01 X-1.2735 Y2.0345  
G01 X-1.2804 Y2.0359  
G01 X-1.2868 Y2.0385  
G01 X-1.2926 Y2.0424  
G01 X-1.2976 Y2.0474  
G01 X-1.3015 Y2.0532  
G01 X-1.3041 Y2.0596  
G01 X-1.3055 Y2.0665  
G01 X-1.3055 Y2.0735  
G01 X-1.3041 Y2.0804  
G01 X-1.3015 Y2.0868  
G01 X-1.2976 Y2.0926  
G01 X-1.2926 Y2.0976  
G01 X-1.2868 Y2.1015  
G01 X-1.2804 Y2.1041  
G01 X-1.2735 Y2.1055  
G01 X-1.2665 Y2.1055  
G01 X-1.2596 Y2.1041  
G01 X-1.2591 Y2.1039  
G01 X-1.1520 Y2.2186  
G01 X-1.1520 Y2.2383  
G00 Z0.0500  
G00 X-1.4880 Y2.2383  
G01 Z-0.0030 F10    
G01 X-1.4880 Y2.2117  F20    
G01 X-1.5067 Y2.1930  
G01 X-1.5333 Y2.1930  
G01 X-1.5440 Y2.2037  
G01 X-1.5607 Y2.2022  
G01 X-1.5615 Y2.2020  
G01 X-1.5631 Y2.2020  
G01 X-1.5648 Y2.2019  
G01 X-1.5656 Y2.2020  
G01 X-1.6262 Y2.2020  
G01 X-1.6280 Y2.2019  
G01 X-1.6287 Y2.2020  
G01 X-1.6295 Y2.2020  
G01 X-1.6312 Y2.2024  
G01 X-1.6329 Y2.2028  
G01 X-1.6336 Y2.2031  
G01 X-1.6343 Y2.2033  
G01 X-1.6358 Y2.2042  
G01 X-1.7286 Y2.2481  
G01 X-1.7293 Y2.2483  
G01 X-1.7308 Y2.2492  
G01 X-1.7324 Y2.2499  
G01 X-1.7330 Y2.2504  
G01 X-1.7337 Y2.2508  
G01 X-1.7349 Y2.2520  
G01 X-1.7362 Y2.2531  
G01 X-1.7367 Y2.2538  
G01 X-1.7372 Y2.2543  
G01 X-1.7381 Y2.2558  
G01 X-1.7391 Y2.2573  
G01 X-1.7393 Y2.2580  
G01 X-1.7397 Y2.2587  
G01 X-1.7402 Y2.2603  
G01 X-1.7407 Y2.2620  
G01 X-1.7408 Y2.2627  
G01 X-1.7410 Y2.2635  
G01 X-1.7410 Y2.2652  
G01 X-1.7411 Y2.2670  
G01 X-1.7410 Y2.2677  
G01 X-1.7410 Y2.3769  
G01 X-1.7412 Y2.3783  
G01 X-1.7410 Y2.3794  
G01 X-1.7410 Y2.3805  
G01 X-1.7406 Y2.3818  
G01 X-1.7404 Y2.3832  
G01 X-1.7400 Y2.3843  
G01 X-1.7397 Y2.3853  
G01 X-1.7390 Y2.3865  
G01 X-1.7385 Y2.3878  
G01 X-1.7378 Y2.3887  
G01 X-1.7372 Y2.3897  
G01 X-1.7362 Y2.3907  
G01 X-1.7354 Y2.3917  
G01 X-1.7345 Y2.3924  
G01 X-1.7337 Y2.3932  
G01 X-1.7325 Y2.3939  
G01 X-1.7313 Y2.3947  
G01 X-1.7303 Y2.3951  
G01 X-1.7293 Y2.3957  
G01 X-1.7280 Y2.3961  
G01 X-1.6590 Y2.4235  
G01 X-1.6590 Y2.4238  
G01 X-1.6575 Y2.4314  
G01 X-1.6546 Y2.4385  
G01 X-1.6503 Y2.4449  
G01 X-1.6449 Y2.4503  
G01 X-1.6385 Y2.4546  
G01 X-1.6314 Y2.4575  
G01 X-1.6238 Y2.4590  
G01 X-1.6162 Y2.4590  
G01 X-1.6086 Y2.4575  
G01 X-1.6015 Y2.4546  
G01 X-1.5951 Y2.4503  
G01 X-1.5897 Y2.4449  
G01 X-1.5854 Y2.4385  
G01 X-1.5825 Y2.4314  
G01 X-1.5810 Y2.4238  
G01 X-1.5810 Y2.4162  
G01 X-1.5825 Y2.4086  
G01 X-1.5854 Y2.4015  
G01 X-1.5897 Y2.3951  
G01 X-1.5951 Y2.3897  
G01 X-1.6015 Y2.3854  
G01 X-1.6086 Y2.3825  
G01 X-1.6162 Y2.3810  
G01 X-1.6238 Y2.3810  
G01 X-1.6314 Y2.3825  
G01 X-1.6385 Y2.3854  
G01 X-1.6435 Y2.3888  
G01 X-1.7030 Y2.3651  
G01 X-1.7030 Y2.2780  
G01 X-1.6227 Y2.2400  
G01 X-1.5649 Y2.2400  
G01 X-1.5488 Y2.2415  
G01 X-1.5333 Y2.2570  
G01 X-1.5067 Y2.2570  
G01 X-1.4880 Y2.2383  
G00 Z0.0500  
G00 X-1.5111 Y2.1521  
G01 Z-0.0030 F10    
G01 X-1.5100 Y2.1509  F20    
G01 X-1.5088 Y2.1497  
G01 X-1.5084 Y2.1489  
G01 X-1.4718 Y2.1055  
G01 X-1.4665 Y2.1055  
G01 X-1.4596 Y2.1041  
G01 X-1.4532 Y2.1015  
G01 X-1.4474 Y2.0976  
G01 X-1.4424 Y2.0926  
G01 X-1.4385 Y2.0868  
G01 X-1.4359 Y2.0804  
G01 X-1.4345 Y2.0735  
G01 X-1.4345 Y2.0665  
G01 X-1.4359 Y2.0596  
G01 X-1.4385 Y2.0532  
G01 X-1.4424 Y2.0474  
G01 X-1.4474 Y2.0424  
G01 X-1.4532 Y2.0385  
G01 X-1.4596 Y2.0359  
G01 X-1.4665 Y2.0345  
G01 X-1.4735 Y2.0345  
G01 X-1.4804 Y2.0359  
G01 X-1.4868 Y2.0385  
G01 X-1.4926 Y2.0424  
G01 X-1.4976 Y2.0474  
G01 X-1.5015 Y2.0532  
G01 X-1.5041 Y2.0596  
G01 X-1.5055 Y2.0665  
G01 X-1.5055 Y2.0735  
G01 X-1.5041 Y2.0804  
G01 X-1.5029 Y2.0834  
G01 X-1.5328 Y2.1190  
G01 X-1.6826 Y2.1190  
G01 X-1.6836 Y2.1188  
G01 X-1.6851 Y2.1190  
G01 X-1.6865 Y2.1190  
G01 X-1.6875 Y2.1193  
G01 X-1.6886 Y2.1194  
G01 X-1.6899 Y2.1199  
G01 X-1.6913 Y2.1203  
G01 X-1.6923 Y2.1208  
G01 X-1.6933 Y2.1212  
G01 X-1.6944 Y2.1221  
G01 X-1.6957 Y2.1228  
G01 X-1.6964 Y2.1236  
G01 X-1.9114 Y2.2819  
G01 X-1.9162 Y2.2810  
G01 X-1.9238 Y2.2810  
G01 X-1.9314 Y2.2825  
G01 X-1.9385 Y2.2854  
G01 X-1.9449 Y2.2897  
G01 X-1.9503 Y2.2951  
G01 X-1.9546 Y2.3015  
G01 X-1.9575 Y2.3086  
G01 X-1.9590 Y2.3162  
G01 X-1.9590 Y2.3238  
G01 X-1.9575 Y2.3314  
G01 X-1.9546 Y2.3385  
G01 X-1.9503 Y2.3449  
G01 X-1.9449 Y2.3503  
G01 X-1.9385 Y2.3546  
G01 X-1.9314 Y2.3575  
G01 X-1.9238 Y2.3590  
G01 X-1.9162 Y2.3590  
G01 X-1.9086 Y2.3575  
G01 X-1.9015 Y2.3546  
G01 X-1.8951 Y2.3503  
G01 X-1.8897 Y2.3449  
G01 X-1.8854 Y2.3385  
G01 X-1.8825 Y2.3314  
G01 X-1.8810 Y2.3238  
G01 X-1.8810 Y2.3162  
G01 X-1.8825 Y2.3086  
G01 X-1.8827 Y2.3080  
G01 X-1.6778 Y2.1570  
G01 X-1.5257 Y2.1570  
G01 X-1.5249 Y2.1571  
G01 X-1.5232 Y2.1570  
G01 X-1.5215 Y2.1570  
G01 X-1.5207 Y2.1568  
G01 X-1.5199 Y2.1567  
G01 X-1.5183 Y2.1561  
G01 X-1.5167 Y2.1557  
G01 X-1.5159 Y2.1553  
G01 X-1.5152 Y2.1550  
G01 X-1.5138 Y2.1540  
G01 X-1.5123 Y2.1532  
G01 X-1.5117 Y2.1526  
G01 X-1.5111 Y2.1521  
G00 Z0.0500  
G00 X-1.4976 Y1.7926  
G01 Z-0.0030 F10    
G01 X-1.4926 Y1.7976  F20    
G01 X-1.4868 Y1.8015  
G01 X-1.4804 Y1.8041  
G01 X-1.4735 Y1.8055  
G01 X-1.4665 Y1.8055  
G01 X-1.4596 Y1.8041  
G01 X-1.4532 Y1.8015  
G01 X-1.4474 Y1.7976  
G01 X-1.4424 Y1.7926  
G01 X-1.4385 Y1.7868  
G01 X-1.4359 Y1.7804  
G01 X-1.4345 Y1.7735  
G01 X-1.4345 Y1.7665  
G01 X-1.4359 Y1.7596  
G01 X-1.4385 Y1.7532  
G01 X-1.4424 Y1.7474  
G01 X-1.4474 Y1.7424  
G01 X-1.4532 Y1.7385  
G01 X-1.4551 Y1.7378  
G01 X-1.4640 Y1.6765  
G01 X-1.4640 Y1.6753  
G01 X-1.4644 Y1.6740  
G01 X-1.4646 Y1.6728  
G01 X-1.4650 Y1.6716  
G01 X-1.4880 Y1.5898  
G01 X-1.4880 Y1.5408  
G01 X-1.4892 Y1.5347  
G01 X-1.4916 Y1.5288  
G01 X-1.4951 Y1.5236  
G01 X-1.4996 Y1.5191  
G01 X-1.5048 Y1.5156  
G01 X-1.5107 Y1.5132  
G01 X-1.5168 Y1.5120  
G01 X-1.5232 Y1.5120  
G01 X-1.5293 Y1.5132  
G01 X-1.5352 Y1.5156  
G01 X-1.5404 Y1.5191  
G01 X-1.5449 Y1.5236  
G01 X-1.5484 Y1.5288  
G01 X-1.5508 Y1.5347  
G01 X-1.5520 Y1.5408  
G01 X-1.5520 Y1.5992  
G01 X-1.5508 Y1.6053  
G01 X-1.5484 Y1.6112  
G01 X-1.5449 Y1.6164  
G01 X-1.5404 Y1.6209  
G01 X-1.5352 Y1.6244  
G01 X-1.5293 Y1.6268  
G01 X-1.5232 Y1.6280  
G01 X-1.5168 Y1.6280  
G01 X-1.5016 Y1.6820  
G01 X-1.4928 Y1.7426  
G01 X-1.4976 Y1.7474  
G01 X-1.5015 Y1.7532  
G01 X-1.5041 Y1.7596  
G01 X-1.5055 Y1.7665  
G01 X-1.5055 Y1.7735  
G01 X-1.5041 Y1.7804  
G01 X-1.5015 Y1.7868  
G01 X-1.4976 Y1.7926  
G00 Z0.0500  
G00 X-1.5424 Y1.7926  
G01 Z-0.0030 F10    
G01 X-1.5385 Y1.7868  F20    
G01 X-1.5359 Y1.7804  
G01 X-1.5345 Y1.7735  
G01 X-1.5345 Y1.7665  
G01 X-1.5359 Y1.7596  
G01 X-1.5385 Y1.7532  
G01 X-1.5424 Y1.7474  
G01 X-1.5474 Y1.7424  
G01 X-1.5532 Y1.7385  
G01 X-1.5596 Y1.7359  
G01 X-1.5608 Y1.7356  
G01 X-1.5690 Y1.6865  
G01 X-1.5690 Y1.6857  
G01 X-1.5694 Y1.6841  
G01 X-1.5697 Y1.6824  
G01 X-1.5700 Y1.6817  
G01 X-1.5894 Y1.6059  
G01 X-1.5892 Y1.6053  
G01 X-1.5880 Y1.5992  
G01 X-1.5880 Y1.5408  
G01 X-1.5892 Y1.5347  
G01 X-1.5916 Y1.5288  
G01 X-1.5951 Y1.5236  
G01 X-1.5996 Y1.5191  
G01 X-1.6048 Y1.5156  
G01 X-1.6107 Y1.5132  
G01 X-1.6168 Y1.5120  
G01 X-1.6232 Y1.5120  
G01 X-1.6293 Y1.5132  
G01 X-1.6352 Y1.5156  
G01 X-1.6404 Y1.5191  
G01 X-1.6449 Y1.5236  
G01 X-1.6484 Y1.5288  
G01 X-1.6508 Y1.5347  
G01 X-1.6520 Y1.5408  
G01 X-1.6520 Y1.5992  
G01 X-1.6508 Y1.6053  
G01 X-1.6484 Y1.6112  
G01 X-1.6449 Y1.6164  
G01 X-1.6404 Y1.6209  
G01 X-1.6352 Y1.6244  
G01 X-1.6293 Y1.6268  
G01 X-1.6232 Y1.6280  
G01 X-1.6230 Y1.6280  
G01 X-1.6066 Y1.6919  
G01 X-1.5974 Y1.7472  
G01 X-1.5976 Y1.7474  
G01 X-1.6015 Y1.7532  
G01 X-1.6041 Y1.7596  
G01 X-1.6055 Y1.7665  
G01 X-1.6055 Y1.7735  
G01 X-1.6041 Y1.7804  
G01 X-1.6015 Y1.7868  
G01 X-1.5976 Y1.7926  
G01 X-1.5926 Y1.7976  
G01 X-1.5868 Y1.8015  
G01 X-1.5804 Y1.8041  
G01 X-1.5735 Y1.8055  
G01 X-1.5665 Y1.8055  
G01 X-1.5596 Y1.8041  
G01 X-1.5532 Y1.8015  
G01 X-1.5474 Y1.7976  
G01 X-1.5424 Y1.7926  
G00 Z0.0500  
G00 X-1.3976 Y1.7926  
G01 Z-0.0030 F10    
G01 X-1.3926 Y1.7976  F20    
G01 X-1.3868 Y1.8015  
G01 X-1.3804 Y1.8041  
G01 X-1.3735 Y1.8055  
G01 X-1.3665 Y1.8055  
G01 X-1.3596 Y1.8041  
G01 X-1.3532 Y1.8015  
G01 X-1.3474 Y1.7976  
G01 X-1.3424 Y1.7926  
G01 X-1.3385 Y1.7868  
G01 X-1.3359 Y1.7804  
G01 X-1.3345 Y1.7735  
G01 X-1.3345 Y1.7665  
G01 X-1.3359 Y1.7596  
G01 X-1.3385 Y1.7532  
G01 X-1.3424 Y1.7474  
G01 X-1.3474 Y1.7424  
G01 X-1.3532 Y1.7385  
G01 X-1.3536 Y1.7384  
G01 X-1.3695 Y1.6847  
G01 X-1.3880 Y1.5753  
G01 X-1.3880 Y1.5408  
G01 X-1.3892 Y1.5347  
G01 X-1.3916 Y1.5288  
G01 X-1.3951 Y1.5236  
G01 X-1.3996 Y1.5191  
G01 X-1.4048 Y1.5156  
G01 X-1.4107 Y1.5132  
G01 X-1.4168 Y1.5120  
G01 X-1.4232 Y1.5120  
G01 X-1.4293 Y1.5132  
G01 X-1.4352 Y1.5156  
G01 X-1.4404 Y1.5191  
G01 X-1.4449 Y1.5236  
G01 X-1.4484 Y1.5288  
G01 X-1.4508 Y1.5347  
G01 X-1.4520 Y1.5408  
G01 X-1.4520 Y1.5992  
G01 X-1.4508 Y1.6053  
G01 X-1.4484 Y1.6112  
G01 X-1.4449 Y1.6164  
G01 X-1.4404 Y1.6209  
G01 X-1.4352 Y1.6244  
G01 X-1.4293 Y1.6268  
G01 X-1.4232 Y1.6280  
G01 X-1.4176 Y1.6280  
G01 X-1.4070 Y1.6908  
G01 X-1.4069 Y1.6920  
G01 X-1.4065 Y1.6933  
G01 X-1.4063 Y1.6946  
G01 X-1.4058 Y1.6957  
G01 X-1.3921 Y1.7421  
G01 X-1.3926 Y1.7424  
G01 X-1.3976 Y1.7474  
G01 X-1.4015 Y1.7532  
G01 X-1.4041 Y1.7596  
G01 X-1.4055 Y1.7665  
G01 X-1.4055 Y1.7735  
G01 X-1.4041 Y1.7804  
G01 X-1.4015 Y1.7868  
G01 X-1.3976 Y1.7926  
G00 Z0.0500  
G00 X-1.7040 Y1.8485  
G01 Z-0.0030 F10    
G01 X-1.7040 Y1.6238  F20    
G01 X-1.6996 Y1.6209  
G01 X-1.6951 Y1.6164  
G01 X-1.6916 Y1.6112  
G01 X-1.6892 Y1.6053  
G01 X-1.6880 Y1.5992  
G01 X-1.6880 Y1.5408  
G01 X-1.6892 Y1.5347  
G01 X-1.6916 Y1.5288  
G01 X-1.6951 Y1.5236  
G01 X-1.6996 Y1.5191  
G01 X-1.7048 Y1.5156  
G01 X-1.7107 Y1.5132  
G01 X-1.7168 Y1.5120  
G01 X-1.7232 Y1.5120  
G01 X-1.7293 Y1.5132  
G01 X-1.7352 Y1.5156  
G01 X-1.7404 Y1.5191  
G01 X-1.7449 Y1.5236  
G01 X-1.7484 Y1.5288  
G01 X-1.7508 Y1.5347  
G01 X-1.7520 Y1.5408  
G01 X-1.7520 Y1.5992  
G01 X-1.7508 Y1.6053  
G01 X-1.7484 Y1.6112  
G01 X-1.7449 Y1.6164  
G01 X-1.7420 Y1.6193  
G01 X-1.7420 Y1.8381  
G01 X-1.8032 Y1.8993  
G01 X-1.8038 Y1.8997  
G01 X-1.8049 Y1.9011  
G01 X-1.8062 Y1.9023  
G01 X-1.8066 Y1.9030  
G01 X-1.8202 Y1.9188  
G01 X-1.8248 Y1.9156  
G01 X-1.8307 Y1.9132  
G01 X-1.8368 Y1.9120  
G01 X-1.8432 Y1.9120  
G01 X-1.8493 Y1.9132  
G01 X-1.8552 Y1.9156  
G01 X-1.8604 Y1.9191  
G01 X-1.8649 Y1.9236  
G01 X-1.8684 Y1.9288  
G01 X-1.8708 Y1.9347  
G01 X-1.8720 Y1.9408  
G01 X-1.8720 Y1.9992  
G01 X-1.8708 Y2.0053  
G01 X-1.8684 Y2.0112  
G01 X-1.8649 Y2.0164  
G01 X-1.8604 Y2.0209  
G01 X-1.8552 Y2.0244  
G01 X-1.8493 Y2.0268  
G01 X-1.8432 Y2.0280  
G01 X-1.8368 Y2.0280  
G01 X-1.8307 Y2.0268  
G01 X-1.8248 Y2.0244  
G01 X-1.8196 Y2.0209  
G01 X-1.8151 Y2.0164  
G01 X-1.8116 Y2.0112  
G01 X-1.8092 Y2.0053  
G01 X-1.8080 Y1.9992  
G01 X-1.8080 Y1.9629  
G01 X-1.7771 Y1.9269  
G01 X-1.7078 Y1.8577  
G01 X-1.7053 Y1.8533  
G01 X-1.7040 Y1.8485  
G00 Z0.0500  
G00 X-1.8083 Y1.7852  
G01 Z-0.0030 F10    
G01 X-1.8048 Y1.7817  F20    
G01 X-1.8026 Y1.7778  
G01 X-1.7880 Y1.7633  
G01 X-1.7880 Y1.7367  
G01 X-1.8008 Y1.7240  
G01 X-1.7990 Y1.6698  
G01 X-1.7988 Y1.6685  
G01 X-1.7990 Y1.6673  
G01 X-1.7989 Y1.6661  
G01 X-1.7992 Y1.6649  
G01 X-1.8035 Y1.6235  
G01 X-1.7996 Y1.6209  
G01 X-1.7951 Y1.6164  
G01 X-1.7916 Y1.6112  
G01 X-1.7892 Y1.6053  
G01 X-1.7880 Y1.5992  
G01 X-1.7880 Y1.5408  
G01 X-1.7892 Y1.5347  
G01 X-1.7916 Y1.5288  
G01 X-1.7951 Y1.5236  
G01 X-1.7996 Y1.5191  
G01 X-1.8048 Y1.5156  
G01 X-1.8090 Y1.5139  
G01 X-1.8090 Y1.5095  
G01 X-1.8103 Y1.5047  
G01 X-1.8128 Y1.5003  
G01 X-1.9010 Y1.4121  
G01 X-1.9010 Y1.3218  
G01 X-1.8996 Y1.3209  
G01 X-1.8951 Y1.3164  
G01 X-1.8916 Y1.3112  
G01 X-1.8892 Y1.3053  
G01 X-1.8880 Y1.2992  
G01 X-1.8880 Y1.2408  
G01 X-1.8892 Y1.2347  
G01 X-1.8916 Y1.2288  
G01 X-1.8951 Y1.2236  
G01 X-1.8993 Y1.2194  
G01 X-1.8838 Y1.1807  
G01 X-1.8651 Y1.1620  
G01 X-1.8467 Y1.1620  
G01 X-1.8280 Y1.1433  
G01 X-1.8280 Y1.1167  
G01 X-1.8306 Y1.1141  
G01 X-1.7826 Y1.0196  
G01 X-1.7818 Y1.0185  
G01 X-1.7814 Y1.0174  
G01 X-1.7809 Y1.0164  
G01 X-1.7806 Y1.0150  
G01 X-1.7802 Y1.0137  
G01 X-1.7801 Y1.0126  
G01 X-1.7799 Y1.0115  
G01 X-1.7800 Y1.0101  
G01 X-1.7701 Y0.8598  
G01 X-1.7699 Y0.8588  
G01 X-1.7700 Y0.8578  
G01 X-1.7698 Y0.8568  
G01 X-1.7699 Y0.8563  
G01 X-1.7699 Y0.8557  
G01 X-1.7701 Y0.8548  
G01 X-1.7701 Y0.8538  
G01 X-1.7704 Y0.8528  
G01 X-1.7705 Y0.8518  
G01 X-1.7708 Y0.8514  
G01 X-1.7709 Y0.8508  
G01 X-1.7713 Y0.8500  
G01 X-1.7716 Y0.8490  
G01 X-1.7721 Y0.8482  
G01 X-1.7725 Y0.8472  
G01 X-1.7728 Y0.8468  
G01 X-1.7731 Y0.8464  
G01 X-1.7737 Y0.8456  
G01 X-1.7742 Y0.8448  
G01 X-1.7750 Y0.8441  
G01 X-1.7756 Y0.8433  
G01 X-1.7760 Y0.8430  
G01 X-1.7764 Y0.8426  
G01 X-1.7772 Y0.8420  
G01 X-1.7779 Y0.8414  
G01 X-1.7788 Y0.8409  
G01 X-1.8368 Y0.7974  
G01 X-1.8379 Y0.7963  
G01 X-1.8388 Y0.7959  
G01 X-1.8396 Y0.7953  
G01 X-1.8410 Y0.7947  
G01 X-1.8932 Y0.7673  
G01 X-1.9023 Y0.7462  
G01 X-1.9016 Y0.7452  
G01 X-1.8992 Y0.7393  
G01 X-1.8980 Y0.7332  
G01 X-1.8980 Y0.7268  
G01 X-1.8992 Y0.7207  
G01 X-1.9016 Y0.7148  
G01 X-1.9051 Y0.7096  
G01 X-1.9096 Y0.7051  
G01 X-1.9148 Y0.7016  
G01 X-1.9207 Y0.6992  
G01 X-1.9268 Y0.6980  
G01 X-1.9332 Y0.6980  
G01 X-1.9393 Y0.6992  
G01 X-1.9452 Y0.7016  
G01 X-1.9504 Y0.7051  
G01 X-1.9549 Y0.7096  
G01 X-1.9584 Y0.7148  
G01 X-1.9608 Y0.7207  
G01 X-1.9620 Y0.7268  
G01 X-1.9620 Y0.7332  
G01 X-1.9608 Y0.7393  
G01 X-1.9584 Y0.7452  
G01 X-1.9549 Y0.7504  
G01 X-1.9504 Y0.7549  
G01 X-1.9452 Y0.7584  
G01 X-1.9393 Y0.7608  
G01 X-1.9372 Y0.7612  
G01 X-1.9258 Y0.7876  
G01 X-1.9254 Y0.7890  
G01 X-1.9249 Y0.7899  
G01 X-1.9245 Y0.7908  
G01 X-1.9235 Y0.7920  
G01 X-1.9227 Y0.7933  
G01 X-1.9220 Y0.7940  
G01 X-1.9214 Y0.7947  
G01 X-1.9202 Y0.7956  
G01 X-1.9191 Y0.7967  
G01 X-1.9182 Y0.7971  
G01 X-1.9173 Y0.7977  
G01 X-1.9159 Y0.7983  
G01 X-1.8592 Y0.8281  
G01 X-1.8434 Y0.8400  
G01 X-2.3337 Y0.8579  
G01 X-2.3342 Y0.8579  
G01 X-2.3362 Y0.8580  
G01 X-2.3382 Y0.8581  
G01 X-2.3387 Y0.8583  
G01 X-2.3566 Y0.8599  
G01 X-2.3570 Y0.8598  
G01 X-2.3591 Y0.8601  
G01 X-2.3612 Y0.8603  
G01 X-2.3616 Y0.8604  
G01 X-2.3620 Y0.8605  
G01 X-2.3639 Y0.8613  
G01 X-2.3659 Y0.8620  
G01 X-2.3662 Y0.8623  
G01 X-2.3666 Y0.8624  
G01 X-2.3683 Y0.8637  
G01 X-2.3700 Y0.8649  
G01 X-2.3702 Y0.8652  
G01 X-2.3981 Y0.8866  
G01 X-2.3997 Y0.8877  
G01 X-2.4001 Y0.8881  
G01 X-2.4005 Y0.8884  
G01 X-2.4017 Y0.8900  
G01 X-2.4174 Y0.9080  
G01 X-2.4333 Y0.9080  
G01 X-2.4520 Y0.9267  
G01 X-2.4520 Y0.9533  
G01 X-2.4333 Y0.9720  
G01 X-2.4067 Y0.9720  
G01 X-2.3880 Y0.9533  
G01 X-2.3880 Y0.9321  
G01 X-2.3739 Y0.9159  
G01 X-2.3498 Y0.8974  
G01 X-2.3338 Y0.8960  
G01 X-1.8093 Y0.8768  
G01 X-1.8177 Y1.0049  
G01 X-1.8650 Y1.0980  
G01 X-1.8733 Y1.0980  
G01 X-1.8920 Y1.1167  
G01 X-1.8920 Y1.1351  
G01 X-1.9126 Y1.1558  
G01 X-1.9137 Y1.1566  
G01 X-1.9144 Y1.1575  
G01 X-1.9152 Y1.1583  
G01 X-1.9159 Y1.1595  
G01 X-1.9167 Y1.1606  
G01 X-1.9171 Y1.1617  
G01 X-1.9177 Y1.1627  
G01 X-1.9181 Y1.1640  
G01 X-1.9371 Y1.2117  
G01 X-1.9377 Y1.2127  
G01 X-1.9381 Y1.2140  
G01 X-1.9386 Y1.2153  
G01 X-1.9387 Y1.2164  
G01 X-1.9390 Y1.2175  
G01 X-1.9390 Y1.2182  
G01 X-1.9404 Y1.2191  
G01 X-1.9449 Y1.2236  
G01 X-1.9484 Y1.2288  
G01 X-1.9508 Y1.2347  
G01 X-1.9520 Y1.2408  
G01 X-1.9520 Y1.2992  
G01 X-1.9508 Y1.3053  
G01 X-1.9484 Y1.3112  
G01 X-1.9449 Y1.3164  
G01 X-1.9404 Y1.3209  
G01 X-1.9390 Y1.3218  
G01 X-1.9390 Y1.4225  
G01 X-1.9377 Y1.4273  
G01 X-1.9352 Y1.4317  
G01 X-1.9317 Y1.4352  
G01 X-1.8470 Y1.5199  
G01 X-1.8470 Y1.5268  
G01 X-1.8484 Y1.5288  
G01 X-1.8508 Y1.5347  
G01 X-1.8520 Y1.5408  
G01 X-1.8520 Y1.5992  
G01 X-1.8508 Y1.6053  
G01 X-1.8484 Y1.6112  
G01 X-1.8449 Y1.6164  
G01 X-1.8421 Y1.6191  
G01 X-1.8370 Y1.6687  
G01 X-1.8388 Y1.7235  
G01 X-1.8520 Y1.7367  
G01 X-1.8520 Y1.7633  
G01 X-1.8461 Y1.7692  
G01 X-1.9099 Y1.8330  
G01 X-1.9116 Y1.8288  
G01 X-1.9151 Y1.8236  
G01 X-1.9196 Y1.8191  
G01 X-1.9248 Y1.8156  
G01 X-1.9307 Y1.8132  
G01 X-1.9368 Y1.8120  
G01 X-1.9432 Y1.8120  
G01 X-1.9493 Y1.8132  
G01 X-1.9552 Y1.8156  
G01 X-1.9604 Y1.8191  
G01 X-1.9649 Y1.8236  
G01 X-1.9684 Y1.8288  
G01 X-1.9708 Y1.8347  
G01 X-1.9720 Y1.8408  
G01 X-1.9720 Y1.8630  
G01 X-2.0169 Y1.8823  
G01 X-2.0187 Y1.8829  
G01 X-2.0192 Y1.8833  
G01 X-2.0198 Y1.8835  
G01 X-2.0213 Y1.8847  
G01 X-2.0228 Y1.8857  
G01 X-2.0232 Y1.8862  
G01 X-2.0237 Y1.8866  
G01 X-2.0248 Y1.8881  
G01 X-2.0695 Y1.9403  
G01 X-2.0949 Y1.9403  
G01 X-2.0971 Y1.9412  
G01 X-2.0988 Y1.9429  
G01 X-2.0997 Y1.9451  
G01 X-2.0997 Y1.9949  
G01 X-2.0988 Y1.9971  
G01 X-2.0971 Y1.9988  
G01 X-2.0949 Y1.9997  
G01 X-2.0451 Y1.9997  
G01 X-2.0429 Y1.9988  
G01 X-2.0412 Y1.9971  
G01 X-2.0403 Y1.9949  
G01 X-2.0403 Y1.9645  
G01 X-1.9985 Y1.9157  
G01 X-1.9710 Y1.9040  
G01 X-1.9708 Y1.9053  
G01 X-1.9684 Y1.9112  
G01 X-1.9649 Y1.9164  
G01 X-1.9604 Y1.9209  
G01 X-1.9552 Y1.9244  
G01 X-1.9493 Y1.9268  
G01 X-1.9432 Y1.9280  
G01 X-1.9368 Y1.9280  
G01 X-1.9307 Y1.9268  
G01 X-1.9248 Y1.9244  
G01 X-1.9196 Y1.9209  
G01 X-1.9151 Y1.9164  
G01 X-1.9116 Y1.9112  
G01 X-1.9092 Y1.9053  
G01 X-1.9080 Y1.8992  
G01 X-1.9080 Y1.8849  
G01 X-1.9048 Y1.8817  
G01 X-1.8083 Y1.7852  
G00 Z0.0500  
G00 X-1.8996 Y1.6209  
G01 Z-0.0030 F10    
G01 X-1.8951 Y1.6164  F20    
G01 X-1.8916 Y1.6112  
G01 X-1.8892 Y1.6053  
G01 X-1.8880 Y1.5992  
G01 X-1.8880 Y1.5408  
G01 X-1.8892 Y1.5347  
G01 X-1.8916 Y1.5288  
G01 X-1.8951 Y1.5236  
G01 X-1.8996 Y1.5191  
G01 X-1.9048 Y1.5156  
G01 X-1.9107 Y1.5132  
G01 X-1.9168 Y1.5120  
G01 X-1.9232 Y1.5120  
G01 X-1.9293 Y1.5132  
G01 X-1.9352 Y1.5156  
G01 X-1.9404 Y1.5191  
G01 X-1.9449 Y1.5236  
G01 X-1.9484 Y1.5288  
G01 X-1.9508 Y1.5347  
G01 X-1.9520 Y1.5408  
G01 X-1.9520 Y1.5992  
G01 X-1.9508 Y1.6053  
G01 X-1.9484 Y1.6112  
G01 X-1.9449 Y1.6164  
G01 X-1.9404 Y1.6209  
G01 X-1.9352 Y1.6244  
G01 X-1.9293 Y1.6268  
G01 X-1.9232 Y1.6280  
G01 X-1.9168 Y1.6280  
G01 X-1.9107 Y1.6268  
G01 X-1.9048 Y1.6244  
G01 X-1.8996 Y1.6209  
G00 Z0.0500  
G00 X-2.0996 Y1.6209  
G01 Z-0.0030 F10    
G01 X-2.0951 Y1.6164  F20    
G01 X-2.0916 Y1.6112  
G01 X-2.0892 Y1.6053  
G01 X-2.0880 Y1.5992  
G01 X-2.0880 Y1.5408  
G01 X-2.0892 Y1.5347  
G01 X-2.0916 Y1.5288  
G01 X-2.0951 Y1.5236  
G01 X-2.0996 Y1.5191  
G01 X-2.1048 Y1.5156  
G01 X-2.1107 Y1.5132  
G01 X-2.1168 Y1.5120  
G01 X-2.1232 Y1.5120  
G01 X-2.1293 Y1.5132  
G01 X-2.1352 Y1.5156  
G01 X-2.1404 Y1.5191  
G01 X-2.1449 Y1.5236  
G01 X-2.1484 Y1.5288  
G01 X-2.1508 Y1.5347  
G01 X-2.1520 Y1.5408  
G01 X-2.1520 Y1.5992  
G01 X-2.1508 Y1.6053  
G01 X-2.1484 Y1.6112  
G01 X-2.1449 Y1.6164  
G01 X-2.1410 Y1.6203  
G01 X-2.1410 Y1.7713  
G01 X-2.4305 Y2.0707  
G01 X-2.4322 Y2.0723  
G01 X-2.4323 Y2.0725  
G01 X-2.4324 Y2.0726  
G01 X-2.4335 Y2.0746  
G01 X-2.4347 Y2.0767  
G01 X-2.4347 Y2.0768  
G01 X-2.4348 Y2.0770  
G01 X-2.4354 Y2.0792  
G01 X-2.4360 Y2.0815  
G01 X-2.4360 Y2.0817  
G01 X-2.4360 Y2.0818  
G01 X-2.4360 Y2.0842  
G01 X-2.4360 Y2.2937  
G01 X-2.5146 Y2.3452  
G01 X-2.5176 Y2.3423  
G01 X-2.5234 Y2.3384  
G01 X-2.5299 Y2.3357  
G01 X-2.5368 Y2.3343  
G01 X-2.6032 Y2.3343  
G01 X-2.6101 Y2.3357  
G01 X-2.6166 Y2.3384  
G01 X-2.6224 Y2.3423  
G01 X-2.6274 Y2.3473  
G01 X-2.6313 Y2.3531  
G01 X-2.6340 Y2.3596  
G01 X-2.6354 Y2.3665  
G01 X-2.6354 Y2.3735  
G01 X-2.6340 Y2.3804  
G01 X-2.6313 Y2.3869  
G01 X-2.6274 Y2.3927  
G01 X-2.6224 Y2.3977  
G01 X-2.6166 Y2.4016  
G01 X-2.6101 Y2.4043  
G01 X-2.6032 Y2.4057  
G01 X-2.5368 Y2.4057  
G01 X-2.5299 Y2.4043  
G01 X-2.5234 Y2.4016  
G01 X-2.5176 Y2.3977  
G01 X-2.5126 Y2.3927  
G01 X-2.5087 Y2.3869  
G01 X-2.5086 Y2.3867  
G01 X-2.4070 Y2.3202  
G01 X-2.4053 Y2.3192  
G01 X-2.4049 Y2.3188  
G01 X-2.4045 Y2.3185  
G01 X-2.4032 Y2.3171  
G01 X-2.4018 Y2.3157  
G01 X-2.4015 Y2.3152  
G01 X-2.4012 Y2.3148  
G01 X-2.4003 Y2.3130  
G01 X-2.3993 Y2.3113  
G01 X-2.3992 Y2.3108  
G01 X-2.3989 Y2.3103  
G01 X-2.3985 Y2.3084  
G01 X-2.3980 Y2.3065  
G01 X-2.3980 Y2.3060  
G01 X-2.3979 Y2.3054  
G01 X-2.3980 Y2.3035  
G01 X-2.3980 Y2.0917  
G01 X-2.1085 Y1.7923  
G01 X-2.1068 Y1.7907  
G01 X-2.1067 Y1.7905  
G01 X-2.1066 Y1.7904  
G01 X-2.1055 Y1.7884  
G01 X-2.1043 Y1.7863  
G01 X-2.1043 Y1.7862  
G01 X-2.1042 Y1.7860  
G01 X-2.1036 Y1.7838  
G01 X-2.1030 Y1.7815  
G01 X-2.1030 Y1.7813  
G01 X-2.1030 Y1.7812  
G01 X-2.1030 Y1.7788  
G01 X-2.1030 Y1.6231  
G01 X-2.0996 Y1.6209  
G00 Z0.0500  
G00 X-2.1996 Y1.6209  
G01 Z-0.0030 F10    
G01 X-2.1951 Y1.6164  F20    
G01 X-2.1916 Y1.6112  
G01 X-2.1892 Y1.6053  
G01 X-2.1880 Y1.5992  
G01 X-2.1880 Y1.5408  
G01 X-2.1892 Y1.5347  
G01 X-2.1916 Y1.5288  
G01 X-2.1951 Y1.5236  
G01 X-2.1996 Y1.5191  
G01 X-2.2048 Y1.5156  
G01 X-2.2107 Y1.5132  
G01 X-2.2168 Y1.5120  
G01 X-2.2232 Y1.5120  
G01 X-2.2293 Y1.5132  
G01 X-2.2352 Y1.5156  
G01 X-2.2404 Y1.5191  
G01 X-2.2449 Y1.5236  
G01 X-2.2484 Y1.5288  
G01 X-2.2508 Y1.5347  
G01 X-2.2520 Y1.5408  
G01 X-2.2520 Y1.5992  
G01 X-2.2508 Y1.6053  
G01 X-2.2484 Y1.6112  
G01 X-2.2460 Y1.6147  
G01 X-2.2460 Y1.7731  
G01 X-2.4907 Y2.0178  
G01 X-2.4942 Y2.0213  
G01 X-2.4967 Y2.0257  
G01 X-2.4980 Y2.0305  
G01 X-2.4980 Y2.2206  
G01 X-2.5247 Y2.2378  
G01 X-2.5299 Y2.2357  
G01 X-2.5368 Y2.2343  
G01 X-2.6032 Y2.2343  
G01 X-2.6101 Y2.2357  
G01 X-2.6166 Y2.2384  
G01 X-2.6224 Y2.2423  
G01 X-2.6274 Y2.2473  
G01 X-2.6313 Y2.2531  
G01 X-2.6340 Y2.2596  
G01 X-2.6354 Y2.2665  
G01 X-2.6354 Y2.2735  
G01 X-2.6340 Y2.2804  
G01 X-2.6313 Y2.2869  
G01 X-2.6274 Y2.2927  
G01 X-2.6224 Y2.2977  
G01 X-2.6166 Y2.3016  
G01 X-2.6101 Y2.3043  
G01 X-2.6032 Y2.3057  
G01 X-2.5368 Y2.3057  
G01 X-2.5299 Y2.3043  
G01 X-2.5234 Y2.3016  
G01 X-2.5176 Y2.2977  
G01 X-2.5126 Y2.2927  
G01 X-2.5087 Y2.2869  
G01 X-2.5060 Y2.2804  
G01 X-2.5046 Y2.2735  
G01 X-2.5046 Y2.2701  
G01 X-2.4691 Y2.2472  
G01 X-2.4673 Y2.2462  
G01 X-2.4670 Y2.2459  
G01 X-2.4666 Y2.2456  
G01 X-2.4652 Y2.2441  
G01 X-2.4638 Y2.2427  
G01 X-2.4636 Y2.2423  
G01 X-2.4633 Y2.2419  
G01 X-2.4623 Y2.2401  
G01 X-2.4613 Y2.2383  
G01 X-2.4612 Y2.2379  
G01 X-2.4610 Y2.2375  
G01 X-2.4605 Y2.2355  
G01 X-2.4600 Y2.2335  
G01 X-2.4600 Y2.2330  
G01 X-2.4599 Y2.2326  
G01 X-2.4600 Y2.2305  
G01 X-2.4600 Y2.0409  
G01 X-2.2118 Y1.7927  
G01 X-2.2093 Y1.7883  
G01 X-2.2080 Y1.7835  
G01 X-2.2080 Y1.6257  
G01 X-2.2048 Y1.6244  
G01 X-2.1996 Y1.6209  
G00 Z0.0500  
G00 X-2.2996 Y1.6209  
G01 Z-0.0030 F10    
G01 X-2.2951 Y1.6164  F20    
G01 X-2.2916 Y1.6112  
G01 X-2.2892 Y1.6053  
G01 X-2.2880 Y1.5992  
G01 X-2.2880 Y1.5408  
G01 X-2.2892 Y1.5347  
G01 X-2.2916 Y1.5288  
G01 X-2.2951 Y1.5236  
G01 X-2.2996 Y1.5191  
G01 X-2.3048 Y1.5156  
G01 X-2.3107 Y1.5132  
G01 X-2.3168 Y1.5120  
G01 X-2.3232 Y1.5120  
G01 X-2.3293 Y1.5132  
G01 X-2.3352 Y1.5156  
G01 X-2.3404 Y1.5191  
G01 X-2.3449 Y1.5236  
G01 X-2.3484 Y1.5288  
G01 X-2.3508 Y1.5347  
G01 X-2.3520 Y1.5408  
G01 X-2.3520 Y1.5992  
G01 X-2.3510 Y1.6042  
G01 X-2.3510 Y1.7521  
G01 X-2.5338 Y1.9349  
G01 X-2.5368 Y1.9343  
G01 X-2.6032 Y1.9343  
G01 X-2.6101 Y1.9357  
G01 X-2.6166 Y1.9384  
G01 X-2.6224 Y1.9423  
G01 X-2.6274 Y1.9473  
G01 X-2.6313 Y1.9531  
G01 X-2.6340 Y1.9596  
G01 X-2.6354 Y1.9665  
G01 X-2.6354 Y1.9735  
G01 X-2.6340 Y1.9804  
G01 X-2.6313 Y1.9869  
G01 X-2.6274 Y1.9927  
G01 X-2.6224 Y1.9977  
G01 X-2.6166 Y2.0016  
G01 X-2.6101 Y2.0043  
G01 X-2.6032 Y2.0057  
G01 X-2.5368 Y2.0057  
G01 X-2.5299 Y2.0043  
G01 X-2.5234 Y2.0016  
G01 X-2.5176 Y1.9977  
G01 X-2.5126 Y1.9927  
G01 X-2.5087 Y1.9869  
G01 X-2.5060 Y1.9804  
G01 X-2.5046 Y1.9735  
G01 X-2.5046 Y1.9665  
G01 X-2.5058 Y1.9607  
G01 X-2.3168 Y1.7717  
G01 X-2.3143 Y1.7673  
G01 X-2.3130 Y1.7625  
G01 X-2.3130 Y1.6272  
G01 X-2.3107 Y1.6268  
G01 X-2.3048 Y1.6244  
G01 X-2.2996 Y1.6209  
G00 Z0.0500  
G00 X-2.3996 Y1.6209  
G01 Z-0.0030 F10    
G01 X-2.3951 Y1.6164  F20    
G01 X-2.3916 Y1.6112  
G01 X-2.3892 Y1.6053  
G01 X-2.3880 Y1.5992  
G01 X-2.3880 Y1.5408  
G01 X-2.3892 Y1.5347  
G01 X-2.3916 Y1.5288  
G01 X-2.3951 Y1.5236  
G01 X-2.3996 Y1.5191  
G01 X-2.4048 Y1.5156  
G01 X-2.4107 Y1.5132  
G01 X-2.4168 Y1.5120  
G01 X-2.4232 Y1.5120  
G01 X-2.4293 Y1.5132  
G01 X-2.4352 Y1.5156  
G01 X-2.4404 Y1.5191  
G01 X-2.4449 Y1.5236  
G01 X-2.4484 Y1.5288  
G01 X-2.4508 Y1.5347  
G01 X-2.4520 Y1.5408  
G01 X-2.4520 Y1.5591  
G01 X-2.4522 Y1.5593  
G01 X-2.4525 Y1.5598  
G01 X-2.4529 Y1.5602  
G01 X-2.4537 Y1.5620  
G01 X-2.4547 Y1.5637  
G01 X-2.4549 Y1.5642  
G01 X-2.4551 Y1.5647  
G01 X-2.4555 Y1.5666  
G01 X-2.4560 Y1.5685  
G01 X-2.4560 Y1.5691  
G01 X-2.4561 Y1.5696  
G01 X-2.4560 Y1.5716  
G01 X-2.4560 Y1.7311  
