(/Applications/pcbgcode.repo/pcb-gcode.ulp)
(Copyright 2005 - 2012 by John Johnson)
(See readme.txt for licensing terms.)
(This file generated from the board:)
(.../eagle/atmega_midi_x0x_heart.brd)
(Current profile is .../pcbgcode.repo/profiles/mach.pp  )
(This file generated 3/12/16 9:05 PM)
(Settings from pcb-machine.h)
(spindle on time = 0.0000)
(spindle speed = 20000.0000)
(tool change at 0.0000  0.0000  3.0000  )
(feed rate xy = F0     )
(feed rate z  = F20    )
(Z Axis Settings)
(  High     Up        Down     Drill)
(1.0000  	0.0500  	-0.0040 	-0.0730 )
(Settings from pcb-defaults.h)
(isolate min = 0.0010)
(isolate max = 0.0170)
(isolate step = 0.0017)
(Generated bottom outlines, bottom drill, )
(Unit of measure: inch)
( Tool|       Size       |  Min Sub |  Max Sub |   Count )
( T01 | 0.800mm 0.0315in | 0.0000in | 0.0000in |       0 )
( T02 | 0.813mm 0.0320in | 0.0000in | 0.0000in |       0 )
( T03 | 0.900mm 0.0354in | 0.0000in | 0.0000in |       0 )
( T04 | 0.914mm 0.0360in | 0.0000in | 0.0000in |       0 )
( T05 | 0.991mm 0.0390in | 0.0000in | 0.0000in |       0 )
( T06 | 1.000mm 0.0394in | 0.0000in | 0.0000in |       0 )
( T07 | 1.016mm 0.0400in | 0.0000in | 0.0000in |       0 )
( T08 | 1.118mm 0.0440in | 0.0000in | 0.0000in |       0 )
(Inch Mode)
G20
(Absolute Coordinates)
G90
S20000
G00 Z1.0000  
G00 X0.0000  Y0.0000  
M03
G04 P0.000000
M05
G00 Z3.0000  
M06 T01  ; 0.0315  
G01 Z0.0000  F20    
M06 
G00 Z0.0500  
M03
G04 P0.000000
G82 X-0.2016 Y1.8300  Z-0.0730 F20    R0.0500  P0.010000
G82 X-0.3984 Y1.8300  
G82 X-0.5500 Y1.7200  
G82 X-0.7900 Y1.7200  
G82 X-0.8500 Y1.7200  
G82 X-1.0300 Y1.7200  
M05
G00 Z3.0000  
G00 X0.0000  Y0.0000  
M06 T02  ; 0.0320  
G01 Z0.0000  F20    
M06 
G00 Z0.0500  
M03
G04 P0.000000
G82 X-0.3900 Y2.1600  Z-0.0730 F20    R0.0500  P0.010000
G82 X-0.4000 Y2.0000  
G82 X-0.5000 Y2.0000  
G82 X-0.5900 Y2.1600  
G82 X-1.0000 Y2.2500  
G82 X-1.1000 Y2.3500  
G82 X-1.2000 Y2.2500  
G82 X-1.3250 Y2.2100  
G82 X-1.5000 Y2.0750  
G82 X-1.1000 Y2.0750  
G82 X-1.2000 Y2.5500  
G82 X-1.3250 Y2.6100  
G82 X-0.8000 Y2.5500  
G82 X-0.6200 Y1.5500  
G82 X-0.7000 Y1.4000  
G82 X-0.7000 Y1.3000  
G82 X-1.0200 Y1.4500  
G82 X-1.0200 Y1.5500  
G82 X-1.2000 Y1.3500  
G82 X-1.3000 Y1.3500  
G82 X-1.4000 Y1.3500  
G82 X-1.5000 Y1.3500  
G82 X-1.6000 Y1.3500  
G82 X-1.7000 Y1.3500  
G82 X-1.8000 Y1.3500  
G82 X-1.9000 Y1.3500  
G82 X-2.0000 Y1.3500  
G82 X-2.1000 Y1.3500  
G82 X-2.2000 Y1.3500  
G82 X-2.3000 Y1.3500  
G82 X-2.4000 Y1.3500  
G82 X-2.5000 Y1.3500  
G82 X-2.5000 Y1.0500  
G82 X-2.4000 Y1.0500  
G82 X-2.3000 Y1.0500  
G82 X-2.2000 Y1.0500  
G82 X-2.1000 Y1.0500  
G82 X-2.0000 Y1.0500  
G82 X-1.9000 Y1.0500  
G82 X-1.8000 Y1.0500  
G82 X-1.7000 Y1.0500  
G82 X-1.6000 Y1.0500  
G82 X-1.5000 Y1.0500  
G82 X-1.4000 Y1.0500  
G82 X-1.3000 Y1.0500  
G82 X-1.2000 Y1.0500  
G82 X-1.0200 Y1.0500  
G82 X-1.0500 Y0.9500  
G82 X-1.1000 Y0.7500  
G82 X-1.0000 Y0.7500  
G82 X-0.9000 Y0.7500  
G82 X-0.8000 Y0.7500  
G82 X-0.6250 Y0.8000  
G82 X-0.6500 Y0.9500  
G82 X-0.8000 Y0.4500  
G82 X-0.9000 Y0.4500  
G82 X-1.0000 Y0.4500  
G82 X-1.1000 Y0.4500  
G82 X-1.1500 Y0.3000  
G82 X-0.7500 Y0.3000  
G82 X-0.6250 Y0.4000  
G82 X-1.4000 Y0.9000  
G82 X-1.8000 Y0.9000  
G82 X-1.9000 Y0.8000  
G82 X-1.9900 Y0.6800  
G82 X-1.9000 Y0.6000  
G82 X-2.0850 Y0.8500  
G82 X-2.2750 Y0.8500  
G82 X-2.3900 Y0.6800  
G82 X-2.4800 Y0.6300  
G82 X-2.4800 Y0.8300  
G82 X-1.9600 Y1.5300  
G82 X-1.9000 Y1.6500  
G82 X-1.8000 Y1.7500  
G82 X-1.9000 Y1.8500  
G82 X-1.7600 Y1.5300  
G82 X-2.1500 Y2.1000  
G82 X-2.0500 Y2.2000  
G82 X-1.9500 Y2.2000  
G82 X-2.1500 Y2.5000  
G82 X-2.0500 Y2.6000  
G82 X-1.9500 Y2.6000  
M05
G00 Z3.0000  
G00 X0.0000  Y0.0000  
M06 T03  ; 0.0354  
G01 Z0.0000  F20    
M06 
G00 Z0.0500  
M03
G04 P0.000000
G82 X-0.8000 Y0.1500  Z-0.0730 F20    R0.0500  P0.010000
G82 X-1.1000 Y0.1500  
M05
G00 Z3.0000  
G00 X0.0000  Y0.0000  
M06 T04  ; 0.0360  
G01 Z0.0000  F20    
M06 
G00 Z0.0500  
M03
G04 P0.000000
G82 X-0.7500 Y1.1500  Z-0.0730 F20    R0.0500  P0.010000
G82 X-0.8800 Y1.2000  
M05
G00 Z3.0000  
G00 X0.0000  Y0.0000  
M06 T05  ; 0.0390  
G01 Z0.0000  F20    
M06 
G00 Z0.0500  
M03
G04 P0.000000
G82 X-1.2000 Y1.6500  Z-0.0730 F20    R0.0500  P0.010000
G82 X-1.3000 Y1.6500  
G82 X-1.4000 Y1.6500  
G82 X-1.5000 Y1.6500  
G82 X-1.5000 Y1.9500  
G82 X-1.4000 Y1.9500  
G82 X-1.3000 Y1.9500  
G82 X-1.2000 Y1.9500  
G82 X-2.7000 Y0.9000  
G82 X-2.7000 Y0.8000  
G82 X-2.7000 Y0.7000  
G82 X-2.7000 Y0.6000  
G82 X-2.7000 Y0.5000  
G82 X-2.7000 Y0.4000  
G82 X-2.7000 Y0.3000  
G82 X-3.0000 Y0.3000  
G82 X-3.0000 Y0.4000  
G82 X-3.0000 Y0.5000  
G82 X-3.0000 Y0.6000  
G82 X-3.0000 Y0.7000  
G82 X-3.0000 Y0.8000  
G82 X-3.0000 Y0.9000  
M05
G00 Z3.0000  
G00 X0.0000  Y0.0000  
M06 T06  ; 0.0394  
G01 Z0.0000  F20    
M06 
G00 Z0.0500  
M03
G04 P0.000000
G82 X-1.3500 Y0.2000  Z-0.0730 F20    R0.0500  P0.010000
G82 X-1.3500 Y0.3000  
G82 X-2.8500 Y1.2000  
G82 X-2.8500 Y1.3000  
G82 X-2.8500 Y1.4000  
G82 X-2.8500 Y1.5000  
G82 X-2.8500 Y1.6000  
G82 X-2.8500 Y1.7000  
G82 X-2.8000 Y2.0000  
G82 X-2.7000 Y2.0000  
G82 X-2.6000 Y2.0000  
G82 X-2.5000 Y2.0000  
G82 X-2.4000 Y2.0000  
G82 X-2.3000 Y2.0000  
G82 X-2.4500 Y2.3500  
G82 X-2.4500 Y2.4500  
M05
G00 Z3.0000  
G00 X0.0000  Y0.0000  
M06 T07  ; 0.0400  
G01 Z0.0000  F20    
M06 
G00 Z0.0500  
M03
G04 P0.000000
G82 X-0.2500 Y0.5000  Z-0.0730 F20    R0.0500  P0.010000
G82 X-0.2500 Y0.6000  
G82 X-0.2500 Y0.7000  
G82 X-0.3500 Y0.7000  
G82 X-0.3500 Y0.6000  
G82 X-0.3500 Y0.5000  
G82 X-0.3500 Y0.8000  
G82 X-0.2500 Y0.8000  
G82 X-0.2500 Y0.9000  
G82 X-0.2500 Y1.0000  
G82 X-0.3500 Y1.0000  
G82 X-0.3500 Y0.9000  
G82 X-0.3500 Y1.1000  
G82 X-0.3500 Y1.2000  
G82 X-0.2500 Y1.2000  
G82 X-0.2500 Y1.1000  
G82 X-0.8000 Y1.9000  
G82 X-0.9000 Y1.9000  
G82 X-1.0000 Y1.9000  
G82 X-1.3500 Y0.7000  
G82 X-1.3500 Y0.6000  
G82 X-1.3500 Y0.5000  
G82 X-2.5200 Y0.4800  
G82 X-2.5200 Y0.3800  
G82 X-2.5200 Y0.2800  
G82 X-3.1500 Y0.3100  
G82 X-3.1500 Y0.4100  
G82 X-3.1500 Y0.5100  
M05
G00 Z3.0000  
G00 X0.0000  Y0.0000  
M06 T08  ; 0.0440  
G01 Z0.0000  F20    
M06 
G00 Z0.0500  
M03
G04 P0.000000
G82 X-1.5000 Y2.2000  Z-0.0730 F20    R0.0500  P0.010000
G82 X-1.5000 Y2.3000  
G82 X-1.5000 Y2.4000  
G82 X-1.5000 Y2.5000  
G82 X-1.8000 Y2.5000  
G82 X-1.8000 Y2.4000  
G82 X-1.8000 Y2.3000  
G82 X-1.8000 Y2.2000  
T01 
G00 Z1.0000  
M05
M02
