(/Applications/pcbgcode.repo/pcb-gcode.ulp)
(Copyright 2005 - 2012 by John Johnson)
(See readme.txt for licensing terms.)
(This file generated from the board:)
(.../eagle/atmega_midi_x0x_heart.brd)
(Current profile is .../pcbgcode.repo/profiles/mach.pp  )
(This file generated 3/12/16 9:05 PM)
(Settings from pcb-machine.h)
(spindle on time = 0.0000)
(spindle speed = 15000.0000)
(milling depth = -0.0700)
(tool change at 0.0000  0.0000  3.0000  )
(feed rate xy = F10    )
(feed rate z  = F5     )
(Z Axis Settings)
(  High     Up        Down     Drill)
(1.0000  	0.0500  	-0.0040 	-0.0730 )
(Settings from pcb-defaults.h)
(isolate min = 0.0010)
(isolate max = 0.0170)
(isolate step = 0.0017)
(Generated bottom outlines, bottom drill, )
(Unit of measure: inch)
(Inch Mode)
G20
(Absolute Coordinates)
G90
S15000
G00 Z1.0000  
G00 X0.0000  Y0.0000  
M03
G04 P0.000000
G00 Z0.0500  
G01 Z-0.0700 F5     
G01 X0.0000  Y2.8000  F10    
G01 X-3.3500 Y2.8000  
G01 X-3.3500 Y0.0000  
G01 X0.0000  Y0.0000  
G00 Z0.0500  
G00 X-0.1600 Y0.1500  
G01 Z-0.0700 F5     
G01 X-0.2100 Y0.1500  F10    
G01 X-0.2100 Y0.2000  
G01 X-0.1600 Y0.2000  
G01 X-0.1600 Y0.1500  
G00 Z0.0500  
G00 X-0.1800 Y2.6200  
G01 Z-0.0700 F5     
G01 X-0.1800 Y2.6700  F10    
G01 X-0.1300 Y2.6700  
G01 X-0.1300 Y2.6200  
G01 X-0.1800 Y2.6200  
G00 Z0.0500  
G00 X-3.1600 Y2.6200  
G01 Z-0.0700 F5     
G01 X-3.2100 Y2.6200  F10    
G01 X-3.2100 Y2.6700  
G01 X-3.1600 Y2.6700  
G01 X-3.1600 Y2.6200  
G00 Z0.0500  
G00 X-3.1700 Y1.4300  
G01 Z-0.0700 F5     
G01 X-3.2200 Y1.4300  F10    
G01 X-3.2200 Y1.3800  
G01 X-3.1700 Y1.3800  
G01 X-3.1700 Y1.4300  
G00 Z1.0000  
M05
M02
